public/luts/bleach-bypass.cube
# Recut LookBook — bleach-bypass
LUT_3D_SIZE 17
DOMAIN_MIN 0 0 0
DOMAIN_MAX 1 1 1
0.000000 0.000000 0.000000
0.000000 0.000000 0.000000
0.025837 0.000000 0.000000
0.063755 0.000000 0.000000
0.101673 0.000000 0.000000
0.139592 0.000000 0.000000
0.177510 0.005010 0.005010
0.215429 0.014179 0.014179
0.253347 0.023347 0.023347
0.291265 0.032515 0.032515
0.329184 0.041684 0.041684
0.367102 0.050852 0.050852
0.405021 0.060020 0.060020
0.442939 0.069189 0.069189
0.480857 0.078357 0.078357
0.518776 0.087526 0.087526
0.556694 0.096694 0.096694
0.000000 0.009593 0.000000
0.018761 0.018761 0.000000
0.056680 0.027930 0.000000
0.094598 0.037098 0.008348
0.132516 0.046266 0.017516
0.170435 0.055435 0.026685
0.208353 0.064603 0.035853
0.246272 0.073772 0.045022
0.284190 0.082940 0.054190
0.322108 0.092108 0.063358
0.360027 0.101277 0.072527
0.397945 0.110445 0.081695
0.435863 0.119613 0.090863
0.473782 0.128782 0.100032
0.511700 0.137950 0.109200
0.549619 0.147119 0.118369
0.587537 0.156287 0.127537
0.011686 0.069186 0.011686
0.049604 0.078354 0.020854
0.087523 0.087523 0.030023
0.125441 0.096691 0.039191
0.163359 0.105860 0.048359
0.201278 0.115028 0.057528
0.239196 0.124196 0.066696
0.277115 0.133365 0.075865
0.315033 0.142533 0.085033
0.352951 0.151701 0.094201
0.390870 0.160870 0.103370
0.428788 0.170038 0.112538
0.466706 0.179206 0.121706
0.504625 0.188375 0.130875
0.542543 0.197543 0.140043
0.580462 0.206712 0.149212
0.618380 0.215880 0.158380
0.042529 0.128779 0.042529
0.080447 0.137947 0.051697
0.118366 0.147116 0.060866
0.156284 0.156284 0.070034
0.194203 0.165452 0.079202
0.232121 0.174621 0.088371
0.270039 0.183789 0.097539
0.307958 0.192958 0.106708
0.345876 0.202126 0.115876
0.383794 0.211294 0.125044
0.421713 0.220463 0.134213
0.459631 0.229631 0.143381
0.497549 0.238799 0.152549
0.535468 0.247968 0.161718
0.573386 0.257136 0.170886
0.611305 0.266305 0.180055
0.649223 0.275473 0.189223
0.073372 0.188372 0.073372
0.111290 0.197540 0.082540
0.149209 0.206709 0.091709
0.187127 0.215877 0.100877
0.225046 0.225046 0.110045
0.262964 0.234214 0.119214
0.300882 0.243382 0.128382
0.338801 0.252551 0.137551
0.376719 0.261719 0.146719
0.414637 0.270887 0.155887
0.452556 0.280056 0.165056
0.490474 0.289224 0.174224
0.528392 0.298393 0.183392
0.566311 0.307561 0.192561
0.604229 0.316729 0.201729
0.642148 0.325898 0.210898
0.680066 0.335066 0.220066
0.104215 0.247965 0.104215
0.142133 0.257133 0.113383
0.180052 0.266302 0.122552
0.217970 0.275470 0.131720
0.255888 0.284638 0.140888
0.293807 0.293807 0.150057
0.331725 0.302975 0.159225
0.369644 0.312144 0.168394
0.407562 0.321312 0.177562
0.445480 0.330480 0.186730
0.483399 0.339649 0.195899
0.521317 0.348817 0.205067
0.559235 0.357986 0.214235
0.597154 0.367154 0.223404
0.635072 0.376322 0.232572
0.672991 0.385491 0.241741
0.710909 0.394659 0.250909
0.135058 0.307558 0.135058
0.172976 0.316726 0.144226
0.210895 0.325895 0.153395
0.248813 0.335063 0.162563
0.286732 0.344231 0.171731
0.324650 0.353400 0.180900
0.362568 0.362568 0.190068
0.400487 0.371737 0.199237
0.438405 0.380905 0.208405
0.476323 0.390073 0.217573
0.514242 0.399242 0.226742
0.552160 0.408410 0.235910
0.590078 0.417578 0.245078
0.627997 0.426747 0.254247
0.665915 0.435915 0.263415
0.703834 0.445084 0.272584
0.741752 0.454252 0.281752
0.165901 0.367151 0.165901
0.203819 0.376319 0.175069
0.241738 0.385488 0.184238
0.279656 0.394656 0.193406
0.317574 0.403824 0.202574
0.355493 0.412993 0.211743
0.393411 0.422161 0.220911
0.431330 0.431330 0.230080
0.469248 0.440498 0.239248
0.507166 0.449666 0.248416
0.545085 0.458835 0.257585
0.583003 0.468003 0.266753
0.620921 0.477171 0.275921
0.658840 0.486340 0.285090
0.696758 0.495508 0.294258
0.734677 0.504677 0.303427
0.772595 0.513845 0.312595
0.196744 0.426744 0.196744
0.234662 0.435912 0.205912
0.272581 0.445081 0.215081
0.310499 0.454249 0.224249
0.348417 0.463417 0.233417
0.386336 0.472586 0.242586
0.424254 0.481754 0.251754
0.462173 0.490923 0.260923
0.500091 0.500091 0.270091
0.538009 0.509259 0.279259
0.575928 0.518428 0.288428
0.613846 0.527596 0.297596
0.651764 0.536764 0.306764
0.689683 0.545933 0.315933
0.727601 0.555101 0.325101
0.765520 0.564270 0.334270
0.803438 0.573438 0.343438
0.227587 0.486337 0.227587
0.265505 0.495505 0.236755
0.303424 0.504674 0.245924
0.341342 0.513842 0.255092
0.379260 0.523010 0.264261
0.417179 0.532179 0.273429
0.455097 0.541347 0.282597
0.493016 0.550516 0.291766
0.530934 0.559684 0.300934
0.568852 0.568852 0.310102
0.606771 0.578021 0.319271
0.644689 0.587189 0.328439
0.682607 0.596357 0.337607
0.720526 0.605526 0.346776
0.758444 0.614694 0.355944
0.796363 0.623863 0.365113
0.834281 0.633031 0.374281
0.258430 0.545930 0.258430
0.296348 0.555098 0.267598
0.334267 0.564267 0.276767
0.372185 0.573435 0.285935
0.410103 0.582603 0.295103
0.448022 0.591772 0.304272
0.485940 0.600940 0.313440
0.523859 0.610109 0.322609
0.561777 0.619277 0.331777
0.599695 0.628445 0.340945
0.637614 0.637614 0.350114
0.675532 0.646782 0.359282
0.713450 0.655950 0.368450
0.751369 0.665119 0.377619
0.789287 0.674287 0.386787
0.827206 0.683456 0.395956
0.865124 0.692624 0.405124
0.289273 0.605523 0.289273
0.327191 0.614691 0.298441
0.365110 0.623860 0.307610
0.403028 0.633028 0.316778
0.440946 0.642196 0.325946
0.478865 0.651365 0.335115
0.516783 0.660533 0.344283
0.554702 0.669702 0.353452
0.592620 0.678870 0.362620
0.630538 0.688038 0.371788
0.668457 0.697207 0.380957
0.706375 0.706375 0.390125
0.744293 0.715543 0.399293
0.782212 0.724712 0.408462
0.820130 0.733880 0.417630
0.858049 0.743049 0.426799
0.895967 0.752217 0.435967
0.320116 0.665116 0.320116
0.358034 0.674284 0.329284
0.395953 0.683453 0.338453
0.433871 0.692621 0.347621
0.471789 0.701789 0.356789
0.509708 0.710958 0.365958
0.547626 0.720126 0.375126
0.585545 0.729295 0.384295
0.623463 0.738463 0.393463
0.661381 0.747631 0.402631
0.699300 0.756800 0.411800
0.737218 0.765968 0.420968
0.775136 0.775136 0.430136
0.813055 0.784305 0.439305
0.850973 0.793473 0.448473
0.888892 0.802642 0.457642
0.926810 0.811810 0.466810
0.350959 0.724709 0.350959
0.388877 0.733877 0.360127
0.426796 0.743046 0.369296
0.464714 0.752214 0.378464
0.502632 0.761382 0.387632
0.540551 0.770551 0.396801
0.578469 0.779719 0.405969
0.616388 0.788888 0.415138
0.654306 0.798056 0.424306
0.692224 0.807224 0.433474
0.730143 0.816393 0.442643
0.768061 0.825561 0.451811
0.805979 0.834729 0.460979
0.843898 0.843898 0.470148
0.881816 0.853066 0.479316
0.919735 0.862235 0.488485
0.957653 0.871403 0.497653
0.381802 0.784302 0.381802
0.419720 0.793470 0.390970
0.457639 0.802639 0.400139
0.495557 0.811807 0.409307
0.533475 0.820975 0.418475
0.571394 0.830144 0.427644
0.609312 0.839312 0.436812
0.647231 0.848481 0.445981
0.685149 0.857649 0.455149
0.723067 0.866817 0.464317
0.760986 0.875986 0.473486
0.798904 0.885154 0.482654
0.836822 0.894322 0.491822
0.874741 0.903491 0.500991
0.912659 0.912659 0.510159
0.950578 0.921828 0.519328
0.988496 0.930996 0.528496
0.412645 0.843895 0.412645
0.450563 0.853063 0.421813
0.488482 0.862232 0.430982
0.526400 0.871400 0.440150
0.564318 0.880568 0.449319
0.602237 0.889737 0.458487
0.640155 0.898905 0.467655
0.678074 0.908074 0.476824
0.715992 0.917242 0.485992
0.753910 0.926410 0.495160
0.791829 0.935579 0.504329
0.829747 0.944747 0.513497
0.867665 0.953915 0.522665
0.905584 0.963084 0.531834
0.943502 0.972252 0.541002
0.981421 0.981421 0.550171
1.000000 0.990589 0.559339
0.443488 0.903488 0.443488
0.481406 0.912656 0.452656
0.519325 0.921825 0.461825
0.557243 0.930993 0.470993
0.595161 0.940161 0.480161
0.633080 0.949330 0.489330
0.670998 0.958498 0.498498
0.708917 0.967667 0.507667
0.746835 0.976835 0.516835
0.784753 0.986003 0.526003
0.822672 0.995172 0.535172
0.860590 1.000000 0.544340
0.898508 1.000000 0.553508
0.936427 1.000000 0.562677
0.974345 1.000000 0.571845
1.000000 1.000000 0.581014
1.000000 1.000000 0.590182
0.000000 0.000000 0.000000
0.000000 0.000000 0.000000
0.028950 0.000000 0.000200
0.066869 0.000000 0.009369
0.104787 0.000000 0.018537
0.142705 0.000000 0.027705
0.180624 0.008124 0.036874
0.218542 0.017292 0.046042
0.256461 0.026461 0.055211
0.294379 0.035629 0.064379
0.332297 0.044797 0.073547
0.370216 0.053966 0.082716
0.408134 0.063134 0.091884
0.446052 0.072303 0.101053
0.483971 0.081471 0.110221
0.521889 0.090639 0.119389
0.559808 0.099808 0.128558
0.000000 0.012707 0.012707
0.021875 0.021875 0.021875
0.059793 0.031043 0.031043
0.097712 0.040212 0.040212
0.135630 0.049380 0.049380
0.173548 0.058548 0.058548
0.211467 0.067717 0.067717
0.249385 0.076885 0.076885
0.287304 0.086054 0.086054
0.325222 0.095222 0.095222
0.363140 0.104390 0.104390
0.401059 0.113559 0.113559
0.438977 0.122727 0.122727
0.476895 0.131895 0.131895
0.514814 0.141064 0.141064
0.552732 0.150232 0.150232
0.590651 0.159401 0.159401
0.014800 0.072300 0.043550
0.052718 0.081468 0.052718
0.090636 0.090636 0.061886
0.128555 0.099805 0.071055
0.166473 0.108973 0.080223
0.204392 0.118141 0.089391
0.242310 0.127310 0.098560
0.280228 0.136478 0.107728
0.318147 0.145647 0.116897
0.356065 0.154815 0.126065
0.393983 0.163983 0.135233
0.431902 0.173152 0.144402
0.469820 0.182320 0.153570
0.507738 0.191489 0.162738
0.545657 0.200657 0.171907
0.583575 0.209825 0.181075
0.621494 0.218994 0.190244
0.045643 0.131893 0.074393
0.083561 0.141061 0.083561
0.121479 0.150229 0.092729
0.159398 0.159398 0.101898
0.197316 0.168566 0.111066
0.235235 0.177735 0.120234
0.273153 0.186903 0.129403
0.311071 0.196071 0.138571
0.348990 0.205240 0.147740
0.386908 0.214408 0.156908
0.424826 0.223576 0.166076
0.462745 0.232745 0.175245
0.500663 0.241913 0.184413
0.538581 0.251081 0.193581
0.576500 0.260250 0.202750
0.614418 0.269418 0.211918
0.652337 0.278587 0.221087
0.076486 0.191486 0.105236
0.114404 0.200654 0.114404
0.152322 0.209822 0.123572
0.190241 0.218991 0.132741
0.228159 0.228159 0.141909
0.266077 0.237327 0.151077
0.303996 0.246496 0.160246
0.341914 0.255664 0.169414
0.379833 0.264833 0.178583
0.417751 0.274001 0.187751
0.455669 0.283169 0.196919
0.493588 0.292338 0.206088
0.531506 0.301506 0.215256
0.569424 0.310674 0.224424
0.607343 0.319843 0.233593
0.645261 0.329011 0.242761
0.683180 0.338180 0.251930
0.107329 0.251079 0.136079
0.145247 0.260247 0.145247
0.183165 0.269415 0.154415
0.221084 0.278584 0.163584
0.259002 0.287752 0.172752
0.296920 0.296920 0.181920
0.334839 0.306089 0.191089
0.372757 0.315257 0.200257
0.410676 0.324426 0.209426
0.448594 0.333594 0.218594
0.486512 0.342762 0.227762
0.524431 0.351931 0.236931
0.562349 0.361099 0.246099
0.600267 0.370267 0.255267
0.638186 0.379436 0.264436
0.676104 0.388604 0.273604
0.714023 0.397773 0.282773
0.138172 0.310672 0.166922
0.176090 0.319840 0.176090
0.214008 0.329008 0.185258
0.251927 0.338177 0.194427
0.289845 0.347345 0.203595
0.327763 0.356513 0.212763
0.365682 0.365682 0.221932
0.403600 0.374850 0.231100
0.441519 0.384019 0.240269
0.479437 0.393187 0.249437
0.517355 0.402355 0.258605
0.555274 0.411524 0.267774
0.593192 0.420692 0.276942
0.631110 0.429860 0.286110
0.669029 0.439029 0.295279
0.706947 0.448197 0.304447
0.744866 0.457366 0.313616
0.169015 0.370265 0.197765
0.206933 0.379433 0.206933
0.244851 0.388601 0.216101
0.282770 0.397770 0.225270
0.320688 0.406938 0.234438
0.358606 0.416106 0.243606
0.396525 0.425275 0.252775
0.434443 0.434443 0.261943
0.472362 0.443612 0.271112
0.510280 0.452780 0.280280
0.548198 0.461948 0.289448
0.586117 0.471117 0.298617
0.624035 0.480285 0.307785
0.661953 0.489453 0.316953
0.699872 0.498622 0.326122
0.737790 0.507790 0.335290
0.775709 0.516959 0.344459
0.199858 0.429858 0.228608
0.237776 0.439026 0.237776
0.275694 0.448194 0.246944
0.313613 0.457363 0.256113
0.351531 0.466531 0.265281
0.389449 0.475699 0.274449
0.427368 0.484868 0.283618
0.465286 0.494036 0.292786
0.503205 0.503205 0.301955
0.541123 0.512373 0.311123
0.579041 0.521541 0.320291
0.616960 0.530710 0.329460
0.654878 0.539878 0.338628
0.692796 0.549046 0.347797
0.730715 0.558215 0.356965
0.768633 0.567383 0.366133
0.806552 0.576552 0.375302
0.230701 0.489451 0.259451
0.268619 0.498619 0.268619
0.306537 0.507787 0.277787
0.344456 0.516956 0.286956
0.382374 0.526124 0.296124
0.420292 0.535292 0.305292
0.458211 0.544461 0.314461
0.496129 0.553629 0.323629
0.534048 0.562798 0.332798
0.571966 0.571966 0.341966
0.609884 0.581134 0.351134
0.647803 0.590303 0.360303
0.685721 0.599471 0.369471
0.723639 0.608639 0.378639
0.761558 0.617808 0.387808
0.799476 0.626976 0.396976
0.837395 0.636145 0.406145
0.261544 0.549044 0.290294
0.299462 0.558212 0.299462
0.337380 0.567380 0.308630
0.375299 0.576549 0.317799
0.413217 0.585717 0.326967
0.451135 0.594885 0.336135
0.489054 0.604054 0.345304
0.526972 0.613222 0.354472
0.564891 0.622391 0.363641
0.602809 0.631559 0.372809
0.640727 0.640727 0.381977
0.678646 0.649896 0.391146
0.716564 0.659064 0.400314
0.754482 0.668232 0.409482
0.792401 0.677401 0.418651
0.830319 0.686569 0.427819
0.868238 0.695738 0.436988
0.292387 0.608637 0.321137
0.330305 0.617805 0.330305
0.368223 0.626973 0.339473
0.406142 0.636142 0.348642
0.444060 0.645310 0.357810
0.481978 0.654478 0.366978
0.519897 0.663647 0.376147
0.557815 0.672815 0.385315
0.595734 0.681984 0.394484
0.633652 0.691152 0.403652
0.671570 0.700320 0.412820
0.709489 0.709489 0.421989
0.747407 0.718657 0.431157
0.785326 0.727825 0.440325
0.823244 0.736994 0.449494
0.861162 0.746162 0.458662
0.899081 0.755331 0.467831
0.323230 0.668230 0.351980
0.361148 0.677398 0.361148
0.399066 0.686566 0.370316
0.436985 0.695735 0.379485
0.474903 0.704903 0.388653
0.512821 0.714071 0.397821
0.550740 0.723240 0.406990
0.588658 0.732408 0.416158
0.626577 0.741577 0.425327
0.664495 0.750745 0.434495
0.702413 0.759913 0.443663
0.740332 0.769082 0.452832
0.778250 0.778250 0.462000
0.816168 0.787418 0.471168
0.854087 0.796587 0.480337
0.892005 0.805755 0.489505
0.929924 0.814924 0.498674
0.354073 0.727823 0.382823
0.391991 0.736991 0.391991
0.429909 0.746159 0.401159
0.467828 0.755328 0.410328
0.505746 0.764496 0.419496
0.543664 0.773664 0.428664
0.581583 0.782833 0.437833
0.619501 0.792001 0.447001
0.657420 0.801170 0.456170
0.695338 0.810338 0.465338
0.733256 0.819506 0.474506
0.771175 0.828675 0.483675
0.809093 0.837843 0.492843
0.847011 0.847011 0.502011
0.884930 0.856180 0.511180
0.922848 0.865348 0.520348
0.960767 0.874517 0.529517
0.384916 0.787416 0.413666
0.422834 0.796584 0.422834
0.460752 0.805752 0.432002
0.498671 0.814921 0.441171
0.536589 0.824089 0.450339
0.574507 0.833257 0.459508
0.612426 0.842426 0.468676
0.650344 0.851594 0.477844
0.688263 0.860763 0.487013
0.726181 0.869931 0.496181
0.764099 0.879099 0.505349
0.802018 0.888268 0.514518
0.839936 0.897436 0.523686
0.877854 0.906604 0.532854
0.915773 0.915773 0.542023
0.953691 0.924941 0.551191
0.991610 0.934110 0.560360
0.415759 0.847009 0.444509
0.453677 0.856177 0.453677
0.491595 0.865345 0.462845
0.529514 0.874514 0.472014
0.567432 0.883682 0.481182
0.605350 0.892850 0.490350
0.643269 0.902019 0.499519
0.681187 0.911187 0.508687
0.719106 0.920356 0.517856
0.757024 0.929524 0.527024
0.794942 0.938692 0.536192
0.832861 0.947861 0.545361
0.870779 0.957029 0.554529
0.908697 0.966197 0.563697
0.946616 0.975366 0.572866
0.984534 0.984534 0.582034
1.000000 0.993703 0.591203
0.446602 0.906602 0.475352
0.484520 0.915770 0.484520
0.522438 0.924938 0.493688
0.560357 0.934107 0.502857
0.598275 0.943275 0.512025
0.636193 0.952443 0.521193
0.674112 0.961612 0.530362
0.712030 0.970780 0.539530
0.749949 0.979949 0.548699
0.787867 0.989117 0.557867
0.825785 0.998285 0.567035
0.863704 1.000000 0.576204
0.901622 1.000000 0.585372
0.939540 1.000000 0.594540
0.977459 1.000000 0.603709
1.000000 1.000000 0.612877
1.000000 1.000000 0.622046
0.000000 0.000000 0.013727
0.000000 0.000000 0.022896
0.032064 0.000000 0.032064
0.069982 0.000000 0.041232
0.107901 0.000000 0.050401
0.145819 0.002069 0.059569
0.183737 0.011237 0.068737
0.221656 0.020406 0.077906
0.259574 0.029574 0.087074
0.297493 0.038743 0.096243
0.335411 0.047911 0.105411
0.373329 0.057079 0.114579
0.411248 0.066248 0.123748
0.449166 0.075416 0.132916
0.487085 0.084584 0.142085
0.525003 0.093753 0.151253
0.562921 0.102921 0.160421
0.000000 0.015820 0.044570
0.024989 0.024989 0.053739
0.062907 0.034157 0.062907
0.100825 0.043325 0.072075
0.138744 0.052494 0.081244
0.176662 0.061662 0.090412
0.214581 0.070831 0.099581
0.252499 0.079999 0.108749
0.290417 0.089167 0.117917
0.328336 0.098336 0.127086
0.366254 0.107504 0.136254
0.404172 0.116672 0.145422
0.442091 0.125841 0.154591
0.480009 0.135009 0.163759
0.517927 0.144177 0.172927
0.555846 0.153346 0.182096
0.593764 0.162514 0.191264
0.017913 0.075413 0.075413
0.055832 0.084582 0.084582
0.093750 0.093750 0.093750
0.131668 0.102918 0.102918
0.169587 0.112087 0.112087
0.207505 0.121255 0.121255
0.245424 0.130423 0.130423
0.283342 0.139592 0.139592
0.321260 0.148760 0.148760
0.359179 0.157929 0.157929
0.397097 0.167097 0.167097
0.435015 0.176265 0.176265
0.472934 0.185434 0.185434
0.510852 0.194602 0.194602
0.548770 0.203770 0.203770
0.586689 0.212939 0.212939
0.624607 0.222107 0.222107
0.048756 0.135006 0.106256
0.086675 0.144175 0.115425
0.124593 0.153343 0.124593
0.162511 0.162511 0.133761
0.200430 0.171680 0.142930
0.238348 0.180848 0.152098
0.276267 0.190016 0.161266
0.314185 0.199185 0.170435
0.352103 0.208353 0.179603
0.390022 0.217522 0.188772
0.427940 0.226690 0.197940
0.465858 0.235858 0.207108
0.503777 0.245027 0.216277
0.541695 0.254195 0.225445
0.579613 0.263363 0.234613
0.617532 0.272532 0.243782
0.655450 0.281700 0.252950
0.079599 0.194599 0.137099
0.117518 0.203768 0.146268
0.155436 0.212936 0.155436
0.193354 0.222104 0.164604
0.231273 0.231273 0.173773
0.269191 0.240441 0.182941
0.307110 0.249609 0.192109
0.345028 0.258778 0.201278
0.382946 0.267946 0.210446
0.420865 0.277115 0.219615
0.458783 0.286283 0.228783
0.496701 0.295451 0.237951
0.534620 0.304620 0.247120
0.572538 0.313788 0.256288
0.610456 0.322956 0.265456
0.648375 0.332125 0.274625
0.686293 0.341293 0.283793
0.110442 0.254192 0.167942
0.148361 0.263361 0.177111
0.186279 0.272529 0.186279
0.224197 0.281697 0.195447
0.262116 0.290866 0.204616
0.300034 0.300034 0.213784
0.337952 0.309202 0.222952
0.375871 0.318371 0.232121
0.413789 0.327539 0.241289
0.451708 0.336708 0.250458
0.489626 0.345876 0.259626
0.527544 0.355044 0.268794
0.565463 0.364213 0.277963
0.603381 0.373381 0.287131
0.641299 0.382549 0.296299
0.679218 0.391718 0.305468
0.717136 0.400886 0.314636
0.141285 0.313785 0.198785
0.179204 0.322954 0.207954
0.217122 0.332122 0.217122
0.255040 0.341290 0.226290
0.292959 0.350459 0.235459
0.330877 0.359627 0.244627
0.368795 0.368795 0.253796
0.406714 0.377964 0.262964
0.444632 0.387132 0.272132
0.482551 0.396301 0.281301
0.520469 0.405469 0.290469
0.558387 0.414637 0.299637
0.596306 0.423806 0.308806
0.634224 0.432974 0.317974
0.672142 0.442142 0.327142
0.710061 0.451311 0.336311
0.747979 0.460479 0.345479
0.172128 0.373378 0.229628
0.210047 0.382547 0.238797
0.247965 0.391715 0.247965
0.285883 0.400883 0.257133
0.323802 0.410052 0.266302
0.361720 0.419220 0.275470
0.399638 0.428388 0.284638
0.437557 0.437557 0.293807
0.475475 0.446725 0.302975
0.513394 0.455894 0.312144
0.551312 0.465062 0.321312
0.589230 0.474230 0.330480
0.627149 0.483399 0.339649
0.665067 0.492567 0.348817
0.702985 0.501735 0.357985
0.740904 0.510904 0.367154
0.778822 0.520072 0.376322
0.202971 0.432971 0.260471
0.240890 0.442140 0.269640
0.278808 0.451308 0.278808
0.316726 0.460476 0.287976
0.354645 0.469645 0.297145
0.392563 0.478813 0.306313
0.430481 0.487982 0.315481
0.468400 0.497150 0.324650
0.506318 0.506318 0.333818
0.544237 0.515487 0.342987
0.582155 0.524655 0.352155
0.620073 0.533823 0.361323
0.657992 0.542992 0.370492
0.695910 0.552160 0.379660
0.733828 0.561328 0.388828
0.771747 0.570497 0.397997
0.809665 0.579665 0.407165
0.233814 0.492564 0.291314
0.271733 0.501733 0.300483
0.309651 0.510901 0.309651
0.347569 0.520069 0.318819
0.385488 0.529238 0.327988
0.423406 0.538406 0.337156
0.461324 0.547574 0.346324
0.499243 0.556743 0.355493
0.537161 0.565911 0.364661
0.575080 0.575080 0.373830
0.612998 0.584248 0.382998
0.650916 0.593416 0.392166
0.688835 0.602585 0.401335
0.726753 0.611753 0.410503
0.764671 0.620921 0.419671
0.802590 0.630090 0.428840
0.840508 0.639258 0.438008
0.264657 0.552157 0.322157
0.302576 0.561326 0.331326
0.340494 0.570494 0.340494
0.378412 0.579662 0.349662
0.416331 0.588831 0.358831
0.454249 0.597999 0.367999
0.492167 0.607167 0.377167
0.530086 0.616336 0.386336
0.568004 0.625504 0.395504
0.605923 0.634673 0.404673
0.643841 0.643841 0.413841
0.681759 0.653009 0.423009
0.719678 0.662178 0.432178
0.757596 0.671346 0.441346
0.795514 0.680514 0.450514
0.833433 0.689683 0.459683
0.871351 0.698851 0.468851
0.295500 0.611750 0.353000
0.333419 0.620919 0.362169
0.371337 0.630087 0.371337
0.409255 0.639255 0.380505
0.447174 0.648424 0.389674
0.485092 0.657592 0.398842
0.523010 0.666760 0.408010
0.560929 0.675929 0.417179
0.598847 0.685097 0.426347
0.636766 0.694266 0.435516
0.674684 0.703434 0.444684
0.712602 0.712602 0.453852
0.750521 0.721771 0.463021
0.788439 0.730939 0.472189
0.826357 0.740107 0.481357
0.864276 0.749276 0.490526
0.902194 0.758444 0.499694
0.326343 0.671343 0.383843
0.364262 0.680512 0.393012
0.402180 0.689680 0.402180
0.440098 0.698848 0.411348
0.478017 0.708017 0.420517
0.515935 0.717185 0.429685
0.553853 0.726353 0.438853
0.591772 0.735522 0.448022
0.629690 0.744690 0.457190
0.667609 0.753859 0.466359
0.705527 0.763027 0.475527
0.743445 0.772195 0.484695
0.781364 0.781364 0.493864
0.819282 0.790532 0.503032
0.857200 0.799700 0.512200
0.895119 0.808869 0.521369
0.933037 0.818037 0.530537
0.357186 0.730936 0.414686
0.395105 0.740105 0.423855
0.433023 0.749273 0.433023
0.470941 0.758441 0.442191
0.508860 0.767610 0.451360
0.546778 0.776778 0.460528
0.584696 0.785946 0.469696
0.622615 0.795115 0.478865
0.660533 0.804283 0.488033
0.698452 0.813452 0.497202
0.736370 0.822620 0.506370
0.774288 0.831788 0.515538
0.812207 0.840957 0.524707
0.850125 0.850125 0.533875
0.888043 0.859293 0.543043
0.925962 0.868462 0.552212
0.963880 0.877630 0.561380
0.388029 0.790529 0.445529
0.425948 0.799698 0.454698
0.463866 0.808866 0.463866
0.501784 0.818034 0.473034
0.539703 0.827203 0.482203
0.577621 0.836371 0.491371
0.615539 0.845539 0.500539
0.653458 0.854708 0.509708
0.691376 0.863876 0.518876
0.729295 0.873045 0.528045
0.767213 0.882213 0.537213
0.805131 0.891381 0.546381
0.843050 0.900550 0.555550
0.880968 0.909718 0.564718
0.918886 0.918886 0.573886
0.956805 0.928055 0.583055
0.994723 0.937223 0.592223
0.418872 0.850122 0.476372
0.456791 0.859291 0.485541
0.494709 0.868459 0.494709
0.532627 0.877627 0.503877
0.570546 0.886796 0.513046
0.608464 0.895964 0.522214
0.646382 0.905132 0.531382
0.684301 0.914301 0.540551
0.722219 0.923469 0.549719
0.760138 0.932638 0.558888
0.798056 0.941806 0.568056
0.835974 0.950974 0.577224
0.873893 0.960143 0.586393
0.911811 0.969311 0.595561
0.949729 0.978479 0.604729
0.987648 0.987648 0.613898
1.000000 0.996816 0.623066
0.449715 0.909715 0.507215
0.487634 0.918884 0.516384
0.525552 0.928052 0.525552
0.563470 0.937220 0.534720
0.601389 0.946389 0.543889
0.639307 0.955557 0.553057
0.677225 0.964725 0.562225
0.715144 0.973894 0.571394
0.753062 0.983062 0.580562
0.790981 0.992231 0.589731
0.828899 1.000000 0.598899
0.866817 1.000000 0.608067
0.904736 1.000000 0.617236
0.942654 1.000000 0.626404
0.980572 1.000000 0.635572
1.000000 1.000000 0.644741
1.000000 1.000000 0.653909
0.000000 0.000000 0.045591
0.000000 0.000000 0.054759
0.035178 0.000000 0.063928
0.073096 0.000000 0.073096
0.111014 0.000000 0.082264
0.148933 0.005183 0.091433
0.186851 0.014351 0.100601
0.224770 0.023519 0.109769
0.262688 0.032688 0.118938
0.300606 0.041856 0.128106
0.338525 0.051025 0.137275
0.376443 0.060193 0.146443
0.414361 0.069361 0.155611
0.452280 0.078530 0.164780
0.490198 0.087698 0.173948
0.528116 0.096866 0.183116
0.566035 0.106035 0.192285
0.000000 0.018934 0.076434
