public/luts/bleach-bypass.cube
# Recut LookBook — bleach-bypass
LUT_3D_SIZE 9
DOMAIN_MIN 0 0 0
DOMAIN_MAX 1 1 1
0.000000 0.000000 0.000000
0.025837 0.000000 0.000000
0.101673 0.000000 0.000000
0.177510 0.005010 0.005010
0.253347 0.023347 0.023347
0.329184 0.041684 0.041684
0.405021 0.060020 0.060020
0.480857 0.078357 0.078357
0.556694 0.096694 0.096694
0.011686 0.069186 0.011686
0.087523 0.087523 0.030023
0.163359 0.105860 0.048359
0.239196 0.124196 0.066696
0.315033 0.142533 0.085033
0.390870 0.160870 0.103370
0.466706 0.179206 0.121706
0.542543 0.197543 0.140043
0.618380 0.215880 0.158380
0.073372 0.188372 0.073372
0.149209 0.206709 0.091709
0.225046 0.225046 0.110045
0.300882 0.243382 0.128382
0.376719 0.261719 0.146719
0.452556 0.280056 0.165056
0.528392 0.298393 0.183392
0.604229 0.316729 0.201729
0.680066 0.335066 0.220066
0.135058 0.307558 0.135058
0.210895 0.325895 0.153395
0.286732 0.344231 0.171731
0.362568 0.362568 0.190068
0.438405 0.380905 0.208405
0.514242 0.399242 0.226742
0.590078 0.417578 0.245078
0.665915 0.435915 0.263415
0.741752 0.454252 0.281752
0.196744 0.426744 0.196744
0.272581 0.445081 0.215081
0.348417 0.463417 0.233417
0.424254 0.481754 0.251754
0.500091 0.500091 0.270091
0.575928 0.518428 0.288428
0.651764 0.536764 0.306764
0.727601 0.555101 0.325101
0.803438 0.573438 0.343438
0.258430 0.545930 0.258430
0.334267 0.564267 0.276767
0.410103 0.582603 0.295103
0.485940 0.600940 0.313440
0.561777 0.619277 0.331777
0.637614 0.637614 0.350114
0.713450 0.655950 0.368450
0.789287 0.674287 0.386787
0.865124 0.692624 0.405124
0.320116 0.665116 0.320116
0.395953 0.683453 0.338453
0.471789 0.701789 0.356789
0.547626 0.720126 0.375126
0.623463 0.738463 0.393463
0.699300 0.756800 0.411800
0.775136 0.775136 0.430136
0.850973 0.793473 0.448473
0.926810 0.811810 0.466810
0.381802 0.784302 0.381802
0.457639 0.802639 0.400139
0.533475 0.820975 0.418475
0.609312 0.839312 0.436812
0.685149 0.857649 0.455149
0.760986 0.875986 0.473486
0.836822 0.894322 0.491822
0.912659 0.912659 0.510159
0.988496 0.930996 0.528496
0.443488 0.903488 0.443488
0.519325 0.921825 0.461825
0.595161 0.940161 0.480161
0.670998 0.958498 0.498498
0.746835 0.976835 0.516835
0.822672 0.995172 0.535172
0.898508 1.000000 0.553508
0.974345 1.000000 0.571845
1.000000 1.000000 0.590182
0.000000 0.000000 0.013727
0.032064 0.000000 0.032064
0.107901 0.000000 0.050401
0.183737 0.011237 0.068737
0.259574 0.029574 0.087074
0.335411 0.047911 0.105411
0.411248 0.066248 0.123748
0.487085 0.084584 0.142085
0.562921 0.102921 0.160421
0.017913 0.075413 0.075413
0.093750 0.093750 0.093750
0.169587 0.112087 0.112087
0.245424 0.130423 0.130423
0.321260 0.148760 0.148760
0.397097 0.167097 0.167097
0.472934 0.185434 0.185434
0.548770 0.203770 0.203770
0.624607 0.222107 0.222107
0.079599 0.194599 0.137099
0.155436 0.212936 0.155436
0.231273 0.231273 0.173773
0.307110 0.249609 0.192109
0.382946 0.267946 0.210446
0.458783 0.286283 0.228783
0.534620 0.304620 0.247120
0.610456 0.322956 0.265456
0.686293 0.341293 0.283793
0.141285 0.313785 0.198785
0.217122 0.332122 0.217122
0.292959 0.350459 0.235459
0.368795 0.368795 0.253796
0.444632 0.387132 0.272132
0.520469 0.405469 0.290469
0.596306 0.423806 0.308806
0.672142 0.442142 0.327142
0.747979 0.460479 0.345479
0.202971 0.432971 0.260471
0.278808 0.451308 0.278808
0.354645 0.469645 0.297145
0.430481 0.487982 0.315481
0.506318 0.506318 0.333818
0.582155 0.524655 0.352155
0.657992 0.542992 0.370492
0.733828 0.561328 0.388828
0.809665 0.579665 0.407165
0.264657 0.552157 0.322157
0.340494 0.570494 0.340494
0.416331 0.588831 0.358831
0.492167 0.607167 0.377167
0.568004 0.625504 0.395504
0.643841 0.643841 0.413841
0.719678 0.662178 0.432178
0.795514 0.680514 0.450514
0.871351 0.698851 0.468851
0.326343 0.671343 0.383843
0.402180 0.689680 0.402180
0.478017 0.708017 0.420517
0.553853 0.726353 0.438853
0.629690 0.744690 0.457190
0.705527 0.763027 0.475527
0.781364 0.781364 0.493864
0.857200 0.799700 0.512200
0.933037 0.818037 0.530537
0.388029 0.790529 0.445529
0.463866 0.808866 0.463866
0.539703 0.827203 0.482203
0.615539 0.845539 0.500539
0.691376 0.863876 0.518876
0.767213 0.882213 0.537213
0.843050 0.900550 0.555550
0.918886 0.918886 0.573886
0.994723 0.937223 0.592223
0.449715 0.909715 0.507215
0.525552 0.928052 0.525552
0.601389 0.946389 0.543889
0.677225 0.964725 0.562225
0.753062 0.983062 0.580562
0.828899 1.000000 0.598899
0.904736 1.000000 0.617236
0.980572 1.000000 0.635572
1.000000 1.000000 0.653909
0.000000 0.000000 0.077454
0.038291 0.000000 0.095791
0.114128 0.000000 0.114128
0.189965 0.017465 0.132465
0.265802 0.035801 0.150801
0.341638 0.054138 0.169138
0.417475 0.072475 0.187475
0.493312 0.090812 0.205812
0.569148 0.109148 0.224149
0.024140 0.081640 0.139141
0.099977 0.099977 0.157477
0.175814 0.118314 0.175814
0.251651 0.136651 0.194151
0.327487 0.154987 0.212487
0.403324 0.173324 0.230824
0.479161 0.191661 0.249161
0.554998 0.209998 0.267498
0.630834 0.228334 0.285834
0.085826 0.200826 0.200826
0.161663 0.219163 0.219163
0.237500 0.237500 0.237500
0.313337 0.255837 0.255837
0.389174 0.274174 0.274174
0.465010 0.292510 0.292510
0.540847 0.310847 0.310847
0.616684 0.329184 0.329184
0.692520 0.347520 0.347520
0.147512 0.320012 0.262512
0.223349 0.338349 0.280849
0.299186 0.356686 0.299186
0.375023 0.375023 0.317523
0.450860 0.393359 0.335859
0.526696 0.411696 0.354196
0.602533 0.430033 0.372533
0.678370 0.448370 0.390870
0.754206 0.466706 0.409206
0.209198 0.439198 0.324198
0.285035 0.457535 0.342535
0.360872 0.475872 0.360872
0.436709 0.494209 0.379209
0.512545 0.512545 0.397545
0.588382 0.530882 0.415882
0.664219 0.549219 0.434219
0.740056 0.567556 0.452556
0.815892 0.585892 0.470892
0.270884 0.558384 0.385884
0.346721 0.576721 0.404221
0.422558 0.595058 0.422558
0.498395 0.613395 0.440895
0.574231 0.631731 0.459231
0.650068 0.650068 0.477568
0.725905 0.668405 0.495905
0.801742 0.686742 0.514242
0.877578 0.705078 0.532578
0.332570 0.677570 0.447570
0.408407 0.695907 0.465907
0.484244 0.714244 0.484244
0.560081 0.732581 0.502581
0.635917 0.750917 0.520918
0.711754 0.769254 0.539254
0.787591 0.787591 0.557591
0.863428 0.805928 0.575928
0.939264 0.824264 0.594264
0.394256 0.796756 0.509256
0.470093 0.815093 0.527593
0.545930 0.833430 0.545930
0.621767 0.851767 0.564267
0.697603 0.870103 0.582603
0.773440 0.888440 0.600940
0.849277 0.906777 0.619277
0.925114 0.925114 0.637614
1.000000 0.943450 0.655950
0.455942 0.915942 0.570942
0.531779 0.934279 0.589279
0.607616 0.952616 0.607616
0.683453 0.970953 0.625953
0.759289 0.989289 0.644289
0.835126 1.000000 0.662626
0.910963 1.000000 0.680963
0.986800 1.000000 0.699300
1.000000 1.000000 0.717636
0.000000 0.000000 0.141182
0.044518 0.000000 0.159519
0.120355 0.005355 0.177855
0.196192 0.023692 0.196192
0.272029 0.042029 0.214529
0.347865 0.060366 0.232866
0.423702 0.078702 0.251202
0.499539 0.097039 0.269539
0.575376 0.115376 0.287876
0.030368 0.087868 0.202868
0.106204 0.106204 0.221205
0.182041 0.124541 0.239541
0.257878 0.142878 0.257878
0.333715 0.161215 0.276215
0.409552 0.179551 0.294552
0.485388 0.197888 0.312888
0.561225 0.216225 0.331225
0.637062 0.234562 0.349562
0.092054 0.207054 0.264554
0.167890 0.225390 0.282890
0.243727 0.243727 0.301227
0.319564 0.262064 0.319564
0.395401 0.280401 0.337901
0.471238 0.298737 0.356237
0.547074 0.317074 0.374574
0.622911 0.335411 0.392911
0.698748 0.353748 0.411248
0.153740 0.326240 0.326240
0.229576 0.344577 0.344577
0.305413 0.362913 0.362913
0.381250 0.381250 0.381250
0.457087 0.399587 0.399587
0.532923 0.417924 0.417924
0.608760 0.436260 0.436260
0.684597 0.454597 0.454597
0.760434 0.472934 0.472934
0.215426 0.445426 0.387926
0.291262 0.463762 0.406262
0.367099 0.482099 0.424599
0.442936 0.500436 0.442936
0.518773 0.518773 0.461273
0.594609 0.537109 0.479609
0.670446 0.555446 0.497946
0.746283 0.573783 0.516283
0.822120 0.592120 0.534620
0.277112 0.564612 0.449612
0.352948 0.582948 0.467948
0.428785 0.601285 0.486285
0.504622 0.619622 0.504622
0.580459 0.637959 0.522959
0.656295 0.656295 0.541295
0.732132 0.674632 0.559632
0.807969 0.692969 0.577969
0.883806 0.711306 0.596306
0.338798 0.683798 0.511298
0.414634 0.702134 0.529634
0.490471 0.720471 0.547971
0.566308 0.738808 0.566308
0.642145 0.757145 0.584645
0.717981 0.775481 0.602981
0.793818 0.793818 0.621318
0.869655 0.812155 0.639655
0.945492 0.830492 0.657992
0.400484 0.802984 0.572984
0.476320 0.821320 0.591320
0.552157 0.839657 0.609657
0.627994 0.857994 0.627994
0.703831 0.876331 0.646331
0.779667 0.894667 0.664667
0.855504 0.913004 0.683004
0.931341 0.931341 0.701341
1.000000 0.949678 0.719678
0.462170 0.922170 0.634670
0.538006 0.940506 0.653006
0.613843 0.958843 0.671343
0.689680 0.977180 0.689680
0.765517 0.995517 0.708017
0.841353 1.000000 0.726353
0.917190 1.000000 0.744690
0.993027 1.000000 0.763027
1.000000 1.000000 0.781364
0.000000 0.000000 0.204909
0.050746 0.000000 0.223246
0.126582 0.011582 0.241582
0.202419 0.029919 0.259919
0.278256 0.048256 0.278256
0.354093 0.066593 0.296593
0.429929 0.084929 0.314929
0.505766 0.103266 0.333266
0.581603 0.121603 0.351603
0.036595 0.094095 0.266595
0.112432 0.112432 0.284932
0.188269 0.130768 0.303268
0.264105 0.149105 0.321605
0.339942 0.167442 0.339942
0.415779 0.185779 0.358279
0.491615 0.204116 0.376615
0.567452 0.222452 0.394952
0.643289 0.240789 0.413289
0.098281 0.213281 0.328281
0.174118 0.231618 0.346618
0.249954 0.249954 0.364954
0.325791 0.268291 0.383291
0.401628 0.286628 0.401628
0.477465 0.304965 0.419965
0.553301 0.323302 0.438302
0.629138 0.341638 0.456638
0.704975 0.359975 0.474975
0.159967 0.332467 0.389967
0.235804 0.350804 0.408304
0.311640 0.369140 0.426640
0.387477 0.387477 0.444977
0.463314 0.405814 0.463314
0.539151 0.424151 0.481651
0.614987 0.442487 0.499987
0.690824 0.460824 0.518324
0.766661 0.479161 0.536661
0.221653 0.451653 0.451653
0.297490 0.469990 0.469990
0.373326 0.488326 0.488326
0.449163 0.506663 0.506663
0.525000 0.525000 0.525000
0.600837 0.543337 0.543337
0.676673 0.561673 0.561673
0.752510 0.580010 0.580010
0.828347 0.598347 0.598347
0.283339 0.570839 0.513339
0.359176 0.589176 0.531676
0.435012 0.607512 0.550013
0.510849 0.625849 0.568349
0.586686 0.644186 0.586686
0.662523 0.662523 0.605023
0.738359 0.680859 0.623359
0.814196 0.699196 0.641696
0.890033 0.717533 0.660033
0.345025 0.690025 0.575025
0.420862 0.708362 0.593362
0.496698 0.726698 0.611699
0.572535 0.745035 0.630035
0.648372 0.763372 0.648372
0.724209 0.781709 0.666709
0.800045 0.800045 0.685045
0.875882 0.818382 0.703382
0.951719 0.836719 0.721719
0.406711 0.809211 0.636711
0.482548 0.827548 0.655048
0.558384 0.845884 0.673384
0.634221 0.864221 0.691721
0.710058 0.882558 0.710058
0.785895 0.900895 0.728395
0.861731 0.919231 0.746731
0.937568 0.937568 0.765068
1.000000 0.955905 0.783405
0.468397 0.928397 0.698397
0.544234 0.946734 0.716734
0.620070 0.965070 0.735070
0.695907 0.983407 0.753407
0.771744 1.000000 0.771744
0.847581 1.000000 0.790081
0.923417 1.000000 0.808417
0.999254 1.000000 0.826754
1.000000 1.000000 0.845091
0.000000 0.000000 0.268636
0.056973 0.000000 0.286973
0.132810 0.017810 0.305310
0.208647 0.036146 0.323647
0.284483 0.054483 0.341983
0.360320 0.072820 0.360320
0.436157 0.091157 0.378657
0.511993 0.109493 0.396993
0.587830 0.127830 0.415330
0.042822 0.100322 0.330322
0.118659 0.118659 0.348659
0.194496 0.136996 0.366996
0.270333 0.155332 0.385332
0.346169 0.173669 0.403669
0.422006 0.192006 0.422006
0.497843 0.210343 0.440343
0.573679 0.228679 0.458679
0.649516 0.247016 0.477016
0.104508 0.219508 0.392008
0.180345 0.237845 0.410345
0.256182 0.256182 0.428682
0.332018 0.274518 0.447018
0.407855 0.292855 0.465355
0.483692 0.311192 0.483692
0.559529 0.329529 0.502029
0.635365 0.347865 0.520365
0.711202 0.366202 0.538702
0.166194 0.338694 0.453694
0.242031 0.357031 0.472031
0.317868 0.375368 0.490368
0.393704 0.393704 0.508704
0.469541 0.412041 0.527041
0.545378 0.430378 0.545378
0.621215 0.448715 0.563715
0.697051 0.467051 0.582051
0.772888 0.485388 0.600388
0.227880 0.457880 0.515380
0.303717 0.476217 0.533717
0.379554 0.494554 0.552054
0.455390 0.512890 0.570390
0.531227 0.531227 0.588727
0.607064 0.549564 0.607064
0.682901 0.567901 0.625401
0.758737 0.586237 0.643737
0.834574 0.604574 0.662074
0.289566 0.577066 0.577066
0.365403 0.595403 0.595403
0.441240 0.613740 0.613740
0.517076 0.632076 0.632076
0.592913 0.650413 0.650413
0.668750 0.668750 0.668750
0.744587 0.687087 0.687087
0.820423 0.705423 0.705423
0.896260 0.723760 0.723760
0.351252 0.696252 0.638752
0.427089 0.714589 0.657089
0.502926 0.732926 0.675426
0.578762 0.751262 0.693762
0.654599 0.769599 0.712099
0.730436 0.787936 0.730436
0.806273 0.806273 0.748773
0.882109 0.824609 0.767109
0.957946 0.842946 0.785446
0.412938 0.815438 0.700438
0.488775 0.833775 0.718775
0.564612 0.852112 0.737112
0.640448 0.870448 0.755448
0.716285 0.888785 0.773785
0.792122 0.907122 0.792122
0.867959 0.925459 0.810459
0.943795 0.943795 0.828795
1.000000 0.962132 0.847132
0.474624 0.934624 0.762124
0.550461 0.952961 0.780461
0.626298 0.971298 0.798798
0.702134 0.989634 0.817134
0.777971 1.000000 0.835471
0.853808 1.000000 0.853808
0.929645 1.000000 0.872145
1.000000 1.000000 0.890481
1.000000 1.000000 0.908818
0.000000 0.000000 0.332363
0.063200 0.005700 0.350700
0.139037 0.024037 0.369037
0.214874 0.042374 0.387374
0.290711 0.060711 0.405710
0.366547 0.079047 0.424047
0.442384 0.097384 0.442384
0.518221 0.115721 0.460721
0.594058 0.134057 0.479058
0.049050 0.106549 0.394049
0.124886 0.124886 0.412386
0.200723 0.143223 0.430723
0.276560 0.161560 0.449060
0.352397 0.179896 0.467397
0.428233 0.198233 0.485733
0.504070 0.216570 0.504070
0.579907 0.234907 0.522407
0.655744 0.253243 0.540743
0.110736 0.225735 0.455736
0.186572 0.244072 0.474072
0.262409 0.262409 0.492409
0.338246 0.280746 0.510746
0.414083 0.299083 0.529083
0.489919 0.317419 0.547419
0.565756 0.335756 0.565756
0.641593 0.354093 0.584093
0.717429 0.372429 0.602429
0.172422 0.344921 0.517421
0.248258 0.363258 0.535758
0.324095 0.381595 0.554095
0.399932 0.399932 0.572432
0.475768 0.418268 0.590768
0.551605 0.436605 0.609105
0.627442 0.454942 0.627442
0.703279 0.473279 0.645779
0.779115 0.491615 0.664115
0.234107 0.464107 0.579107
0.309944 0.482444 0.597444
0.385781 0.500781 0.615781
0.461618 0.519118 0.634118
0.537454 0.537454 0.652454
0.613291 0.555791 0.670791
0.689128 0.574128 0.689128
0.764965 0.592465 0.707465
0.840801 0.610801 0.725801
0.295793 0.583293 0.640793
0.371630 0.601630 0.659130
0.447467 0.619967 0.677467
0.523304 0.638304 0.695804
0.599140 0.656640 0.714140
0.674977 0.674977 0.732477
0.750814 0.693314 0.750814
0.826651 0.711651 0.769151
0.902487 0.729987 0.787487
0.357480 0.702479 0.702479
0.433316 0.720816 0.720816
0.509153 0.739153 0.739153
0.584990 0.757490 0.757490
0.660826 0.775826 0.775826
0.736663 0.794163 0.794163
0.812500 0.812500 0.812500
0.888337 0.830837 0.830837
0.964174 0.849173 0.849173
0.419165 0.821665 0.764165
0.495002 0.840002 0.782502
0.570839 0.858339 0.800839
0.646676 0.876676 0.819176
0.722512 0.895012 0.837512
0.798349 0.913349 0.855849
0.874186 0.931686 0.874186
0.950023 0.950023 0.892523
1.000000 0.968359 0.910859
0.480851 0.940851 0.825851
0.556688 0.959188 0.844188
0.632525 0.977525 0.862525
0.708362 0.995862 0.880862
0.784198 1.000000 0.899198
0.860035 1.000000 0.917535
0.935872 1.000000 0.935872
1.000000 1.000000 0.954209
1.000000 1.000000 0.972545
0.000000 0.000000 0.396091
0.069427 0.011927 0.414428
0.145264 0.030264 0.432764
0.221101 0.048601 0.451101
0.296938 0.066938 0.469438
0.372775 0.085274 0.487774
0.448611 0.103611 0.506111
0.524448 0.121948 0.524448
0.600285 0.140285 0.542785
0.055277 0.112777 0.457777
0.131113 0.131113 0.476114
0.206950 0.149450 0.494450
0.282787 0.167787 0.512787
0.358624 0.186124 0.531124
0.434461 0.204460 0.549460
0.510297 0.222797 0.567797
0.586134 0.241134 0.586134
0.661971 0.259471 0.604471
0.116963 0.231963 0.519463
0.192799 0.250299 0.537799
0.268636 0.268636 0.556136
0.344473 0.286973 0.574473
0.420310 0.305310 0.592810
0.496146 0.323647 0.611146
0.571983 0.341983 0.629483
0.647820 0.360320 0.647820
0.723657 0.378657 0.666157
0.178649 0.351149 0.581149
0.254485 0.369485 0.599485
0.330322 0.387822 0.617822
0.406159 0.406159 0.636159
0.481996 0.424496 0.654496
0.557832 0.442832 0.672832
0.633669 0.461169 0.691169
0.709506 0.479506 0.709506
0.785343 0.497843 0.727843
0.240335 0.470335 0.642835
0.316171 0.488671 0.661171
0.392008 0.507008 0.679508
0.467845 0.525345 0.697845
0.543682 0.543682 0.716182
0.619518 0.562018 0.734518
0.695355 0.580355 0.752855
0.771192 0.598692 0.771192
0.847029 0.617029 0.789529
0.302021 0.589521 0.704521
0.377857 0.607857 0.722857
0.453694 0.626194 0.741194
0.529531 0.644531 0.759531
0.605368 0.662868 0.777868
0.681204 0.681204 0.796204
0.757041 0.699541 0.814541
0.832878 0.717878 0.832878
0.908715 0.736215 0.851215
0.363707 0.708707 0.766207
0.439543 0.727043 0.784543
0.515380 0.745380 0.802880
0.591217 0.763717 0.821217
0.667054 0.782054 0.839554
0.742890 0.800391 0.857890
0.818727 0.818727 0.876227
0.894564 0.837064 0.894564
0.970401 0.855401 0.912901
0.425393 0.827893 0.827893
0.501229 0.846229 0.846229
0.577066 0.864566 0.864566
0.652903 0.882903 0.882903
0.728740 0.901240 0.901240
0.804576 0.919576 0.919576
0.880413 0.937913 0.937913
0.956250 0.956250 0.956250
1.000000 0.974587 0.974587
0.487079 0.947079 0.889579
0.562915 0.965415 0.907915
0.638752 0.983752 0.926252
0.714589 1.000000 0.944589
0.790426 1.000000 0.962926
0.866262 1.000000 0.981262
0.942099 1.000000 0.999599
1.000000 1.000000 1.000000
1.000000 1.000000 1.000000
0.000000 0.000000 0.459818
0.075655 0.018155 0.478155
0.151492 0.036491 0.496492
0.227328 0.054828 0.514828
0.303165 0.073165 0.533165
0.379002 0.091502 0.551502
0.454838 0.109838 0.569839
0.530675 0.128175 0.588175
0.606512 0.146512 0.606512
0.061504 0.119004 0.521504
0.137341 0.137341 0.539841
0.213177 0.155677 0.558177
0.289014 0.174014 0.576514
0.364851 0.192351 0.594851
0.440688 0.210688 0.613188
0.516524 0.229025 0.631524
0.592361 0.247361 0.649861
0.668198 0.265698 0.668198
0.123190 0.238190 0.583190
0.199027 0.256527 0.601527
0.274863 0.274863 0.619863
0.350700 0.293200 0.638200
0.426537 0.311537 0.656537
0.502374 0.329874 0.674874
0.578210 0.348210 0.693210
0.654047 0.366547 0.711547
0.729884 0.384884 0.729884
0.184876 0.357376 0.644876
0.260713 0.375713 0.663213
0.336549 0.394049 0.681549
0.412386 0.412386 0.699886
0.488223 0.430723 0.718223
0.564060 0.449060 0.736560
0.639896 0.467396 0.754896
0.715733 0.485733 0.773233
0.791570 0.504070 0.791570
0.246562 0.476562 0.706562
0.322399 0.494899 0.724899
0.398235 0.513235 0.743235
0.474072 0.531572 0.761572
0.549909 0.549909 0.779909
0.625746 0.568246 0.798246
0.701582 0.586582 0.816582
0.777419 0.604919 0.834919
0.853256 0.623256 0.853256
0.308248 0.595748 0.768248
0.384085 0.614085 0.786585
0.459921 0.632421 0.804921
0.535758 0.650758 0.823258
0.611595 0.669095 0.841595
0.687432 0.687432 0.859932
0.763268 0.705768 0.878268
0.839105 0.724105 0.896605
0.914942 0.742442 0.914942
0.369934 0.714934 0.829934
0.445771 0.733271 0.848271
0.521607 0.751607 0.866607
0.597444 0.769944 0.884944
0.673281 0.788281 0.903281
0.749118 0.806618 0.921618
0.824954 0.824954 0.939954
0.900791 0.843291 0.958291
0.976628 0.861628 0.976628
0.431620 0.834120 0.891620
0.507457 0.852457 0.909957
0.583293 0.870793 0.928293
0.659130 0.889130 0.946630
0.734967 0.907467 0.964967
0.810804 0.925804 0.983304
0.886640 0.944140 1.000000
0.962477 0.962477 1.000000
1.000000 0.980814 1.000000
0.493306 0.953306 0.953306
0.569143 0.971643 0.971643
0.644979 0.989979 0.989979
0.720816 1.000000 1.000000
0.796653 1.000000 1.000000
0.872490 1.000000 1.000000
0.948326 1.000000 1.000000
1.000000 1.000000 1.000000
1.000000 1.000000 1.000000
