public/luts/bleach-bypass.cube
# Recut LookBook — bleach-bypass
LUT_3D_SIZE 5
DOMAIN_MIN 0 0 0
DOMAIN_MAX 1 1 1
0.000000 0.000000 0.000000
0.101673 0.000000 0.000000
0.253347 0.023347 0.023347
0.405021 0.060020 0.060020
0.556694 0.096694 0.096694
0.073372 0.188372 0.073372
0.225046 0.225046 0.110045
0.376719 0.261719 0.146719
0.528392 0.298393 0.183392
0.680066 0.335066 0.220066
0.196744 0.426744 0.196744
0.348417 0.463417 0.233417
0.500091 0.500091 0.270091
0.651764 0.536764 0.306764
0.803438 0.573438 0.343438
0.320116 0.665116 0.320116
0.471789 0.701789 0.356789
0.623463 0.738463 0.393463
0.775136 0.775136 0.430136
0.926810 0.811810 0.466810
0.443488 0.903488 0.443488
0.595161 0.940161 0.480161
0.746835 0.976835 0.516835
0.898508 1.000000 0.553508
1.000000 1.000000 0.590182
0.000000 0.000000 0.077454
0.114128 0.000000 0.114128
0.265802 0.035801 0.150801
0.417475 0.072475 0.187475
0.569148 0.109148 0.224149
0.085826 0.200826 0.200826
0.237500 0.237500 0.237500
0.389174 0.274174 0.274174
0.540847 0.310847 0.310847
0.692520 0.347520 0.347520
0.209198 0.439198 0.324198
0.360872 0.475872 0.360872
0.512545 0.512545 0.397545
0.664219 0.549219 0.434219
0.815892 0.585892 0.470892
0.332570 0.677570 0.447570
0.484244 0.714244 0.484244
0.635917 0.750917 0.520918
0.787591 0.787591 0.557591
0.939264 0.824264 0.594264
0.455942 0.915942 0.570942
0.607616 0.952616 0.607616
0.759289 0.989289 0.644289
0.910963 1.000000 0.680963
1.000000 1.000000 0.717636
0.000000 0.000000 0.204909
0.126582 0.011582 0.241582
0.278256 0.048256 0.278256
0.429929 0.084929 0.314929
0.581603 0.121603 0.351603
0.098281 0.213281 0.328281
0.249954 0.249954 0.364954
0.401628 0.286628 0.401628
0.553301 0.323302 0.438302
0.704975 0.359975 0.474975
0.221653 0.451653 0.451653
0.373326 0.488326 0.488326
0.525000 0.525000 0.525000
0.676673 0.561673 0.561673
0.828347 0.598347 0.598347
0.345025 0.690025 0.575025
0.496698 0.726698 0.611699
0.648372 0.763372 0.648372
0.800045 0.800045 0.685045
0.951719 0.836719 0.721719
0.468397 0.928397 0.698397
0.620070 0.965070 0.735070
0.771744 1.000000 0.771744
0.923417 1.000000 0.808417
1.000000 1.000000 0.845091
0.000000 0.000000 0.332363
0.139037 0.024037 0.369037
0.290711 0.060711 0.405710
0.442384 0.097384 0.442384
0.594058 0.134057 0.479058
0.110736 0.225735 0.455736
0.262409 0.262409 0.492409
0.414083 0.299083 0.529083
0.565756 0.335756 0.565756
0.717429 0.372429 0.602429
0.234107 0.464107 0.579107
0.385781 0.500781 0.615781
0.537454 0.537454 0.652454
0.689128 0.574128 0.689128
0.840801 0.610801 0.725801
0.357480 0.702479 0.702479
0.509153 0.739153 0.739153
0.660826 0.775826 0.775826
0.812500 0.812500 0.812500
0.964174 0.849173 0.849173
0.480851 0.940851 0.825851
0.632525 0.977525 0.862525
0.784198 1.000000 0.899198
0.935872 1.000000 0.935872
1.000000 1.000000 0.972545
0.000000 0.000000 0.459818
0.151492 0.036491 0.496492
0.303165 0.073165 0.533165
0.454838 0.109838 0.569839
0.606512 0.146512 0.606512
0.123190 0.238190 0.583190
0.274863 0.274863 0.619863
0.426537 0.311537 0.656537
0.578210 0.348210 0.693210
0.729884 0.384884 0.729884
0.246562 0.476562 0.706562
0.398235 0.513235 0.743235
0.549909 0.549909 0.779909
0.701582 0.586582 0.816582
0.853256 0.623256 0.853256
0.369934 0.714934 0.829934
0.521607 0.751607 0.866607
0.673281 0.788281 0.903281
0.824954 0.824954 0.939954
0.976628 0.861628 0.976628
0.493306 0.953306 0.953306
0.644979 0.989979 0.989979
0.796653 1.000000 1.000000
0.948326 1.000000 1.000000
1.000000 1.000000 1.000000
