public/luts/cold-noir.cube
# Recut LookBook — cold-noir
LUT_3D_SIZE 5
DOMAIN_MIN 0 0 0
DOMAIN_MAX 1 1 1
0.000000 0.000000 0.020000
0.143996 0.026044 0.048701
0.287993 0.052087 0.077402
0.431989 0.078131 0.106103
0.575985 0.104174 0.134804
0.084930 0.210112 0.116552
0.228926 0.236155 0.145253
0.372922 0.262199 0.173954
0.516919 0.288242 0.202655
0.660915 0.314286 0.231356
0.169860 0.420224 0.213104
0.313856 0.446267 0.241805
0.457852 0.472311 0.270506
0.601849 0.498354 0.299207
0.745845 0.524398 0.327908
0.254790 0.630336 0.309656
0.398786 0.656380 0.338357
0.542782 0.682423 0.367058
0.686779 0.708466 0.395759
0.830775 0.734510 0.424460
0.339720 0.840448 0.406208
0.483716 0.866491 0.434909
0.627712 0.892535 0.463610
0.771709 0.918578 0.492311
0.915705 0.944622 0.521012
0.008574 0.008844 0.164747
0.152570 0.034888 0.193448
0.296566 0.060931 0.222149
0.440562 0.086975 0.250850
0.584559 0.113019 0.279551
0.093504 0.218956 0.261299
0.237500 0.245000 0.290000
0.381496 0.271043 0.318701
0.525493 0.297087 0.347402
0.669489 0.323130 0.376103
0.178434 0.429069 0.357851
0.322430 0.455112 0.386552
0.466426 0.481156 0.415253
0.610422 0.507199 0.443954
0.754419 0.533242 0.472655
0.263364 0.639181 0.454403
0.407360 0.665224 0.483104
0.551356 0.691268 0.511805
0.695352 0.717311 0.540506
0.839349 0.743355 0.569207
0.348294 0.849293 0.550955
0.492290 0.875336 0.579656
0.636286 0.901380 0.608357
0.780282 0.927423 0.637058
0.924279 0.953466 0.665759
0.017147 0.017689 0.309494
0.161144 0.043733 0.338195
0.305140 0.069776 0.366896
0.449136 0.095820 0.395597
0.593132 0.121863 0.424298
0.102077 0.227801 0.406046
0.246074 0.253844 0.434747
0.390070 0.279888 0.463448
0.534066 0.305931 0.492149
0.678063 0.331975 0.520850
0.187007 0.437913 0.502598
0.331004 0.463956 0.531299
0.475000 0.490000 0.560000
0.618996 0.516043 0.588701
0.762992 0.542087 0.617402
0.271937 0.648025 0.599150
0.415934 0.674068 0.627851
0.559930 0.700112 0.656552
0.703926 0.726155 0.685253
0.847922 0.752199 0.713954
0.356867 0.858137 0.695702
0.500864 0.884181 0.724403
0.644860 0.910224 0.753104
0.788856 0.936267 0.781805
0.932852 0.962311 0.810506
0.025721 0.026534 0.454241
0.169717 0.052577 0.482942
0.313714 0.078621 0.511643
0.457710 0.104664 0.540344
0.601706 0.130708 0.569045
0.110651 0.236645 0.550793
0.254647 0.262689 0.579494
0.398644 0.288733 0.608195
0.542640 0.314776 0.636896
0.686636 0.340819 0.665597
0.195581 0.446757 0.647345
0.339577 0.472801 0.676046
0.483574 0.498845 0.704747
0.627570 0.524888 0.733448
0.771566 0.550932 0.762149
0.280511 0.656869 0.743897
0.424507 0.682913 0.772598
0.568504 0.708956 0.801299
0.712500 0.735000 0.830000
0.856496 0.761043 0.858701
0.365441 0.866981 0.840449
0.509437 0.893025 0.869150
0.653434 0.919068 0.897851
0.797430 0.945112 0.926552
0.941426 0.971155 0.955253
0.034295 0.035378 0.598988
0.178291 0.061422 0.627689
0.322288 0.087465 0.656390
0.466284 0.113509 0.685091
0.610280 0.139552 0.713792
0.119225 0.245490 0.695540
0.263221 0.271533 0.724241
0.407217 0.297577 0.752942
0.551214 0.323620 0.781643
0.695210 0.349664 0.810344
0.204155 0.455602 0.792092
0.348151 0.481646 0.820793
0.492147 0.507689 0.849494
0.636144 0.533733 0.878195
0.780140 0.559776 0.906896
0.289085 0.665714 0.888644
0.433081 0.691758 0.917345
0.577078 0.717801 0.946046
0.721074 0.743845 0.974747
0.865070 0.769888 1.000000
0.374015 0.875826 0.985196
0.518011 0.901869 1.000000
0.662007 0.927913 1.000000
0.806004 0.953956 1.000000
0.950000 0.980000 1.000000
