public/luts/cold-noir.cube
# Recut LookBook — cold-noir
LUT_3D_SIZE 17
DOMAIN_MIN 0 0 0
DOMAIN_MAX 1 1 1
0.000000 0.000000 0.020000
0.035999 0.006511 0.027175
0.071998 0.013022 0.034351
0.107997 0.019533 0.041526
0.143996 0.026044 0.048701
0.179995 0.032554 0.055876
0.215994 0.039065 0.063052
0.251993 0.045576 0.070227
0.287993 0.052087 0.077402
0.323992 0.058598 0.084577
0.359991 0.065109 0.091753
0.395990 0.071620 0.098928
0.431989 0.078131 0.106103
0.467988 0.084641 0.113278
0.503987 0.091152 0.120454
0.539986 0.097663 0.127629
0.575985 0.104174 0.134804
0.021232 0.052528 0.044138
0.057232 0.059039 0.051313
0.093231 0.065550 0.058488
0.129230 0.072061 0.065664
0.165229 0.078571 0.072839
0.201228 0.085082 0.080014
0.237227 0.091593 0.087190
0.273226 0.098104 0.094365
0.309225 0.104615 0.101540
0.345224 0.111126 0.108715
0.381223 0.117637 0.115891
0.417222 0.124148 0.123066
0.453221 0.130658 0.130241
0.489220 0.137169 0.137416
0.525219 0.143680 0.144591
0.561218 0.150191 0.151767
0.597217 0.156702 0.158942
0.042465 0.105056 0.068276
0.078464 0.111567 0.075451
0.114463 0.118078 0.082627
0.150462 0.124589 0.089802
0.186461 0.131100 0.096977
0.222460 0.137610 0.104152
0.258459 0.144121 0.111328
0.294458 0.150632 0.118503
0.330457 0.157143 0.125678
0.366457 0.163654 0.132853
0.402456 0.170165 0.140029
0.438455 0.176676 0.147204
0.474454 0.183187 0.154379
0.510453 0.189697 0.161554
0.546452 0.196208 0.168729
0.582451 0.202719 0.175905
0.618450 0.209230 0.183080
0.063697 0.157584 0.092414
0.099697 0.164095 0.099589
0.135696 0.170606 0.106765
0.171695 0.177117 0.113940
0.207694 0.183627 0.121115
0.243693 0.190138 0.128290
0.279692 0.196649 0.135465
0.315691 0.203160 0.142641
0.351690 0.209671 0.149816
0.387689 0.216182 0.156991
0.423688 0.222693 0.164167
0.459687 0.229204 0.171342
0.495686 0.235714 0.178517
0.531685 0.242225 0.185692
0.567684 0.248736 0.192867
0.603683 0.255247 0.200043
0.639682 0.261758 0.207218
0.084930 0.210112 0.116552
0.120929 0.216623 0.123727
0.156928 0.223134 0.130902
0.192927 0.229645 0.138078
0.228926 0.236155 0.145253
0.264925 0.242666 0.152428
0.300924 0.249177 0.159604
0.336923 0.255688 0.166779
0.372922 0.262199 0.173954
0.408922 0.268710 0.181129
0.444921 0.275221 0.188305
0.480920 0.281732 0.195480
0.516919 0.288242 0.202655
0.552918 0.294753 0.209830
0.588917 0.301264 0.217005
0.624916 0.307775 0.224181
0.660915 0.314286 0.231356
0.106162 0.262640 0.140690
0.142162 0.269151 0.147865
0.178161 0.275662 0.155040
0.214160 0.282173 0.162216
0.250159 0.288683 0.169391
0.286158 0.295194 0.176566
0.322157 0.301705 0.183741
0.358156 0.308216 0.190917
0.394155 0.314727 0.198092
0.430154 0.321238 0.205267
0.466153 0.327749 0.212443
0.502152 0.334260 0.219618
0.538151 0.340770 0.226793
0.574150 0.347281 0.233968
0.610149 0.353792 0.241143
0.646148 0.360303 0.248319
0.682148 0.366814 0.255494
0.127395 0.315168 0.164828
0.163394 0.321679 0.172003
0.199393 0.328190 0.179179
0.235392 0.334701 0.186354
0.271391 0.341212 0.193529
0.307390 0.347722 0.200704
0.343389 0.354233 0.207879
0.379388 0.360744 0.215055
0.415388 0.367255 0.222230
0.451387 0.373766 0.229405
0.487386 0.380277 0.236580
0.523385 0.386788 0.243756
0.559384 0.393298 0.250931
0.595383 0.399809 0.258106
0.631382 0.406320 0.265282
0.667381 0.412831 0.272457
0.703380 0.419342 0.279632
0.148627 0.367696 0.188966
0.184627 0.374207 0.196141
0.220626 0.380718 0.203316
0.256625 0.387229 0.210492
0.292624 0.393739 0.217667
0.328623 0.400250 0.224842
0.364622 0.406761 0.232017
0.400621 0.413272 0.239193
0.436620 0.419783 0.246368
0.472619 0.426294 0.253543
0.508618 0.432805 0.260719
0.544617 0.439316 0.267894
0.580616 0.445826 0.275069
0.616615 0.452337 0.282244
0.652614 0.458848 0.289419
0.688613 0.465359 0.296595
0.724612 0.471870 0.303770
0.169860 0.420224 0.213104
0.205859 0.426735 0.220279
0.241858 0.433246 0.227455
0.277857 0.439757 0.234630
0.313856 0.446267 0.241805
0.349855 0.452778 0.248980
0.385854 0.459289 0.256155
0.421853 0.465800 0.263331
0.457852 0.472311 0.270506
0.493852 0.478822 0.277681
0.529851 0.485333 0.284857
0.565850 0.491844 0.292032
0.601849 0.498354 0.299207
0.637848 0.504865 0.306382
0.673847 0.511376 0.313558
0.709846 0.517887 0.320733
0.745845 0.524398 0.327908
0.191092 0.472752 0.237242
0.227092 0.479263 0.244417
0.263091 0.485774 0.251592
0.299090 0.492285 0.258768
0.335089 0.498795 0.265943
0.371088 0.505306 0.273118
0.407087 0.511817 0.280294
0.443086 0.518328 0.287469
0.479085 0.524839 0.294644
0.515084 0.531350 0.301819
0.551083 0.537861 0.308995
0.587082 0.544372 0.316170
0.623081 0.550882 0.323345
0.659080 0.557393 0.330520
0.695079 0.563904 0.337696
0.731078 0.570415 0.344871
0.767077 0.576926 0.352046
0.212325 0.525280 0.261380
0.248324 0.531791 0.268555
0.284323 0.538302 0.275731
0.320322 0.544813 0.282906
0.356321 0.551324 0.290081
0.392320 0.557834 0.297256
0.428319 0.564345 0.304432
0.464318 0.570856 0.311607
0.500317 0.577367 0.318782
0.536317 0.583878 0.325957
0.572316 0.590389 0.333132
0.608315 0.596900 0.340308
0.644314 0.603410 0.347483
0.680313 0.609921 0.354658
0.716312 0.616432 0.361834
0.752311 0.622943 0.369009
0.788310 0.629454 0.376184
0.233557 0.577808 0.285518
0.269557 0.584319 0.292693
0.305556 0.590830 0.299868
0.341555 0.597341 0.307044
0.377554 0.603851 0.314219
0.413553 0.610362 0.321394
0.449552 0.616873 0.328570
0.485551 0.623384 0.335745
0.521550 0.629895 0.342920
0.557549 0.636406 0.350095
0.593548 0.642917 0.357271
0.629547 0.649428 0.364446
0.665546 0.655938 0.371621
0.701545 0.662449 0.378796
0.737544 0.668960 0.385971
0.773543 0.675471 0.393147
0.809542 0.681982 0.400322
0.254790 0.630336 0.309656
0.290789 0.636847 0.316831
0.326788 0.643358 0.324007
0.362787 0.649869 0.331182
0.398786 0.656380 0.338357
0.434785 0.662890 0.345532
0.470784 0.669401 0.352708
0.506783 0.675912 0.359883
0.542782 0.682423 0.367058
0.578782 0.688934 0.374233
0.614781 0.695445 0.381409
0.650780 0.701956 0.388584
0.686779 0.708466 0.395759
0.722778 0.714977 0.402934
0.758777 0.721488 0.410110
0.794776 0.727999 0.417285
0.830775 0.734510 0.424460
0.276022 0.682864 0.333794
0.312022 0.689375 0.340969
0.348021 0.695886 0.348145
0.384020 0.702397 0.355320
0.420019 0.708908 0.362495
0.456018 0.715418 0.369670
0.492017 0.721929 0.376846
0.528016 0.728440 0.384021
0.564015 0.734951 0.391196
0.600014 0.741462 0.398371
0.636013 0.747973 0.405547
0.672012 0.754484 0.412722
0.708011 0.760994 0.419897
0.744010 0.767505 0.427072
0.780009 0.774016 0.434248
0.816008 0.780527 0.441423
0.852007 0.787038 0.448598
0.297255 0.735392 0.357932
0.333254 0.741903 0.365107
0.369253 0.748414 0.372283
0.405252 0.754925 0.379458
0.441251 0.761435 0.386633
0.477250 0.767946 0.393808
0.513249 0.774457 0.400983
0.549248 0.780968 0.408159
0.585247 0.787479 0.415334
0.621247 0.793990 0.422509
0.657246 0.800501 0.429685
0.693245 0.807012 0.436860
0.729244 0.813523 0.444035
0.765243 0.820033 0.451210
0.801242 0.826544 0.458386
0.837241 0.833055 0.465561
0.873240 0.839566 0.472736
0.318487 0.787920 0.382070
0.354487 0.794431 0.389245
0.390486 0.800942 0.396421
0.426485 0.807453 0.403596
0.462484 0.813964 0.410771
0.498483 0.820474 0.417946
0.534482 0.826985 0.425122
0.570481 0.833496 0.432297
0.606480 0.840007 0.439472
0.642479 0.846518 0.446647
0.678478 0.853029 0.453823
0.714477 0.859540 0.460998
0.750476 0.866050 0.468173
0.786475 0.872561 0.475348
0.822474 0.879072 0.482524
0.858473 0.885583 0.489699
0.894473 0.892094 0.496874
0.339720 0.840448 0.406208
0.375719 0.846959 0.413383
0.411718 0.853470 0.420559
0.447717 0.859981 0.427734
0.483716 0.866491 0.434909
0.519715 0.873002 0.442084
0.555714 0.879513 0.449260
0.591713 0.886024 0.456435
0.627712 0.892535 0.463610
0.663712 0.899046 0.470785
0.699711 0.905557 0.477961
0.735710 0.912068 0.485136
0.771709 0.918578 0.492311
0.807708 0.925089 0.499486
0.843707 0.931600 0.506661
0.879706 0.938111 0.513837
0.915705 0.944622 0.521012
0.002143 0.002211 0.056187
0.038143 0.008722 0.063362
0.074142 0.015233 0.070537
0.110141 0.021744 0.077713
0.146140 0.028255 0.084888
0.182139 0.034766 0.092063
0.218138 0.041276 0.099238
0.254137 0.047787 0.106414
0.290136 0.054298 0.113589
0.326135 0.060809 0.120764
0.362134 0.067320 0.127939
0.398133 0.073831 0.135114
0.434132 0.080342 0.142290
0.470131 0.086853 0.149465
0.506130 0.093363 0.156640
0.542129 0.099874 0.163816
0.578128 0.106385 0.170991
0.023376 0.054739 0.080325
0.059375 0.061250 0.087500
0.095374 0.067761 0.094675
0.131373 0.074272 0.101851
0.167372 0.080783 0.109026
0.203371 0.087293 0.116201
0.239370 0.093804 0.123376
0.275369 0.100315 0.130551
0.311368 0.106826 0.137727
0.347367 0.113337 0.144902
0.383367 0.119848 0.152077
0.419366 0.126359 0.159252
0.455365 0.132870 0.166428
0.491364 0.139380 0.173603
0.527363 0.145891 0.180778
0.563362 0.152402 0.187953
0.599361 0.158913 0.195129
0.044608 0.107267 0.104463
0.080607 0.113778 0.111638
0.116607 0.120289 0.118813
0.152606 0.126800 0.125989
0.188605 0.133311 0.133164
0.224604 0.139821 0.140339
0.260603 0.146332 0.147514
0.296602 0.152843 0.154689
0.332601 0.159354 0.161865
0.368600 0.165865 0.169040
0.404599 0.172376 0.176215
0.440598 0.178887 0.183391
0.476597 0.185398 0.190566
0.512596 0.191908 0.197741
0.548595 0.198419 0.204916
0.584594 0.204930 0.212091
0.620593 0.211441 0.219267
0.065841 0.159795 0.128601
0.101840 0.166306 0.135776
0.137839 0.172817 0.142951
0.173838 0.179328 0.150126
0.209837 0.185839 0.157302
0.245836 0.192350 0.164477
0.281835 0.198860 0.171652
0.317834 0.205371 0.178827
0.353833 0.211882 0.186003
0.389832 0.218393 0.193178
0.425832 0.224904 0.200353
0.461831 0.231415 0.207528
0.497830 0.237926 0.214704
0.533829 0.244436 0.221879
0.569828 0.250947 0.229054
0.605827 0.257458 0.236229
0.641826 0.263969 0.243405
0.087073 0.212323 0.152739
0.123072 0.218834 0.159914
0.159072 0.225345 0.167089
0.195071 0.231856 0.174265
0.231070 0.238367 0.181440
0.267069 0.244877 0.188615
0.303068 0.251388 0.195790
0.339067 0.257899 0.202965
0.375066 0.264410 0.210141
0.411065 0.270921 0.217316
0.447064 0.277432 0.224491
0.483063 0.283943 0.231666
0.519062 0.290454 0.238842
0.555061 0.296964 0.246017
0.591060 0.303475 0.253192
0.627059 0.309986 0.260367
0.663058 0.316497 0.267543
0.108306 0.264851 0.176877
0.144305 0.271362 0.184052
0.180304 0.277873 0.191227
0.216303 0.284384 0.198402
0.252302 0.290895 0.205578
0.288301 0.297405 0.212753
0.324300 0.303916 0.219928
0.360299 0.310427 0.227103
0.396298 0.316938 0.234279
0.432297 0.323449 0.241454
0.468297 0.329960 0.248629
0.504296 0.336471 0.255804
0.540295 0.342982 0.262980
0.576294 0.349492 0.270155
0.612293 0.356003 0.277330
0.648292 0.362514 0.284506
0.684291 0.369025 0.291681
0.129538 0.317379 0.201015
0.165537 0.323890 0.208190
0.201537 0.330401 0.215365
0.237536 0.336912 0.222541
0.273535 0.343423 0.229716
0.309534 0.349934 0.236891
0.345533 0.356444 0.244066
0.381532 0.362955 0.251242
0.417531 0.369466 0.258417
0.453530 0.375977 0.265592
0.489529 0.382488 0.272767
0.525528 0.388999 0.279942
0.561527 0.395510 0.287118
0.597526 0.402020 0.294293
0.633525 0.408531 0.301468
0.669524 0.415042 0.308644
0.705523 0.421553 0.315819
0.150771 0.369907 0.225153
0.186770 0.376418 0.232328
0.222769 0.382929 0.239503
0.258768 0.389440 0.246678
0.294767 0.395951 0.253854
0.330766 0.402462 0.261029
0.366765 0.408972 0.268204
0.402764 0.415483 0.275379
0.438763 0.421994 0.282555
0.474762 0.428505 0.289730
0.510762 0.435016 0.296905
0.546761 0.441527 0.304080
0.582760 0.448038 0.311256
0.618759 0.454548 0.318431
0.654758 0.461059 0.325606
0.690757 0.467570 0.332782
0.726756 0.474081 0.339957
0.172003 0.422435 0.249291
0.208002 0.428946 0.256466
0.244002 0.435457 0.263641
0.280001 0.441968 0.270817
0.316000 0.448479 0.277992
0.351999 0.454989 0.285167
0.387998 0.461500 0.292342
0.423997 0.468011 0.299518
0.459996 0.474522 0.306693
0.495995 0.481033 0.313868
0.531994 0.487544 0.321043
0.567993 0.494055 0.328219
0.603992 0.500566 0.335394
0.639991 0.507077 0.342569
0.675990 0.513587 0.349744
0.711989 0.520098 0.356920
0.747988 0.526609 0.364095
0.193236 0.474963 0.273429
0.229235 0.481474 0.280604
0.265234 0.487985 0.287779
0.301233 0.494496 0.294955
0.337232 0.501007 0.302130
0.373231 0.507517 0.309305
0.409230 0.514028 0.316480
0.445229 0.520539 0.323656
0.481228 0.527050 0.330831
0.517228 0.533561 0.338006
0.553227 0.540072 0.345181
0.589226 0.546583 0.352357
0.625225 0.553094 0.359532
0.661224 0.559604 0.366707
0.697223 0.566115 0.373882
0.733222 0.572626 0.381058
0.769221 0.579137 0.388233
0.214468 0.527491 0.297567
0.250467 0.534002 0.304742
0.286467 0.540513 0.311917
0.322466 0.547024 0.319093
0.358465 0.553535 0.326268
0.394464 0.560045 0.333443
0.430463 0.566556 0.340618
0.466462 0.573067 0.347794
0.502461 0.579578 0.354969
0.538460 0.586089 0.362144
0.574459 0.592600 0.369319
0.610458 0.599111 0.376495
0.646457 0.605622 0.383670
0.682456 0.612132 0.390845
0.718455 0.618643 0.398020
0.754454 0.625154 0.405196
0.790453 0.631665 0.412371
0.235701 0.580019 0.321705
0.271700 0.586530 0.328880
0.307699 0.593041 0.336055
0.343698 0.599552 0.343231
0.379697 0.606063 0.350406
0.415696 0.612573 0.357581
0.451695 0.619084 0.364756
0.487694 0.625595 0.371932
0.523693 0.632106 0.379107
0.559693 0.638617 0.386282
0.595692 0.645128 0.393457
0.631691 0.651639 0.400633
0.667690 0.658150 0.407808
0.703689 0.664661 0.414983
0.739688 0.671171 0.422158
0.775687 0.677682 0.429334
0.811686 0.684193 0.436509
0.256933 0.632547 0.345843
0.292932 0.639058 0.353018
0.328932 0.645569 0.360193
0.364931 0.652080 0.367369
0.400930 0.658591 0.374544
0.436929 0.665102 0.381719
0.472928 0.671612 0.388894
0.508927 0.678123 0.396070
0.544926 0.684634 0.403245
0.580925 0.691145 0.410420
0.616924 0.697656 0.417595
0.652923 0.704167 0.424771
0.688922 0.710678 0.431946
0.724921 0.717188 0.439121
0.760920 0.723699 0.446296
0.796919 0.730210 0.453472
0.832918 0.736721 0.460647
0.278166 0.685075 0.369981
0.314165 0.691586 0.377156
0.350164 0.698097 0.384331
0.386163 0.704608 0.391507
0.422162 0.711119 0.398682
0.458161 0.717630 0.405857
0.494160 0.724140 0.413032
0.530159 0.730651 0.420208
0.566158 0.737162 0.427383
0.602158 0.743673 0.434558
0.638157 0.750184 0.441733
0.674156 0.756695 0.448909
0.710155 0.763206 0.456084
0.746154 0.769717 0.463259
0.782153 0.776227 0.470434
0.818152 0.782738 0.477610
0.854151 0.789249 0.484785
0.299398 0.737603 0.394119
0.335397 0.744114 0.401294
0.371397 0.750625 0.408469
0.407396 0.757136 0.415645
0.443395 0.763647 0.422820
0.479394 0.770157 0.429995
0.515393 0.776668 0.437170
0.551392 0.783179 0.444346
0.587391 0.789690 0.451521
0.623390 0.796201 0.458696
0.659389 0.802712 0.465871
0.695388 0.809223 0.473046
0.731387 0.815734 0.480222
0.767386 0.822244 0.487397
0.803385 0.828755 0.494572
0.839384 0.835266 0.501748
0.875383 0.841777 0.508923
0.320631 0.790131 0.418257
0.356630 0.796642 0.425432
0.392629 0.803153 0.432607
0.428628 0.809664 0.439783
0.464627 0.816175 0.446958
0.500626 0.822685 0.454133
0.536625 0.829196 0.461308
0.572624 0.835707 0.468484
0.608623 0.842218 0.475659
0.644622 0.848729 0.482834
0.680622 0.855240 0.490009
0.716621 0.861751 0.497185
0.752620 0.868262 0.504360
0.788619 0.874772 0.511535
0.824618 0.881283 0.518710
0.860617 0.887794 0.525886
0.896616 0.894305 0.533061
0.341863 0.842659 0.442395
0.377862 0.849170 0.449570
0.413862 0.855681 0.456745
0.449861 0.862192 0.463921
0.485860 0.868703 0.471096
0.521859 0.875214 0.478271
0.557858 0.881724 0.485446
0.593857 0.888235 0.492622
0.629856 0.894746 0.499797
0.665855 0.901257 0.506972
0.701854 0.907768 0.514147
0.737853 0.914279 0.521323
0.773852 0.920790 0.528498
0.809851 0.927300 0.535673
0.845850 0.933811 0.542848
0.881849 0.940322 0.550023
0.917848 0.946833 0.557199
0.004287 0.004422 0.092374
0.040286 0.010933 0.099549
0.076285 0.017444 0.106724
0.112284 0.023955 0.113899
0.148283 0.030466 0.121075
0.184282 0.036977 0.128250
0.220281 0.043488 0.135425
0.256280 0.049998 0.142600
0.292279 0.056509 0.149776
0.328278 0.063020 0.156951
0.364277 0.069531 0.164126
0.400277 0.076042 0.171301
0.436276 0.082553 0.178477
0.472275 0.089064 0.185652
0.508274 0.095574 0.192827
0.544273 0.102085 0.200002
0.580272 0.108596 0.207178
0.025519 0.056950 0.116512
0.061518 0.063461 0.123687
0.097518 0.069972 0.130862
0.133517 0.076483 0.138037
0.169516 0.082994 0.145212
0.205515 0.089505 0.152388
0.241514 0.096016 0.159563
0.277513 0.102526 0.166738
0.313512 0.109037 0.173913
0.349511 0.115548 0.181089
0.385510 0.122059 0.188264
0.421509 0.128570 0.195439
0.457508 0.135081 0.202615
0.493507 0.141592 0.209790
0.529506 0.148102 0.216965
0.565505 0.154613 0.224140
0.601504 0.161124 0.231316
0.046752 0.109478 0.140649
0.082751 0.115989 0.147825
0.118750 0.122500 0.155000
0.154749 0.129011 0.162175
0.190748 0.135522 0.169351
0.226747 0.142033 0.176526
0.262746 0.148544 0.183701
0.298745 0.155054 0.190876
0.334744 0.161565 0.198051
0.370743 0.168076 0.205227
0.406743 0.174587 0.212402
0.442742 0.181098 0.219577
0.478741 0.187609 0.226753
0.514740 0.194120 0.233928
0.550739 0.200630 0.241103
0.586738 0.207141 0.248278
0.622737 0.213652 0.255454
0.067984 0.162006 0.164788
0.103983 0.168517 0.171963
0.139983 0.175028 0.179138
0.175982 0.181539 0.186313
0.211981 0.188050 0.193488
0.247980 0.194561 0.200664
0.283979 0.201071 0.207839
0.319978 0.207582 0.215014
0.355977 0.214093 0.222190
0.391976 0.220604 0.229365
0.427975 0.227115 0.236540
0.463974 0.233626 0.243715
0.499973 0.240137 0.250891
0.535972 0.246648 0.258066
0.571971 0.253159 0.265241
0.607970 0.259669 0.272416
0.643969 0.266180 0.279592
0.089217 0.214534 0.188926
0.125216 0.221045 0.196101
0.161215 0.227556 0.203276
0.197214 0.234067 0.210451
0.233213 0.240578 0.217627
0.269212 0.247089 0.224802
0.305211 0.253599 0.231977
0.341210 0.260110 0.239152
0.377209 0.266621 0.246328
0.413208 0.273132 0.253503
0.449207 0.279643 0.260678
0.485207 0.286154 0.267853
0.521206 0.292665 0.275029
0.557205 0.299176 0.282204
0.593204 0.305687 0.289379
0.629203 0.312197 0.296554
0.665202 0.318708 0.303730
0.110449 0.267062 0.213063
0.146448 0.273573 0.220239
0.182447 0.280084 0.227414
0.218447 0.286595 0.234589
0.254446 0.293106 0.241764
0.290445 0.299617 0.248940
0.326444 0.306127 0.256115
0.362443 0.312638 0.263290
0.398442 0.319149 0.270466
0.434441 0.325660 0.277641
0.470440 0.332171 0.284816
0.506439 0.338682 0.291991
0.542438 0.345193 0.299167
0.578437 0.351704 0.306342
0.614436 0.358214 0.313517
0.650435 0.364725 0.320692
0.686434 0.371236 0.327868
0.131682 0.319590 0.237202
0.167681 0.326101 0.244377
0.203680 0.332612 0.251552
0.239679 0.339123 0.258727
0.275678 0.345634 0.265903
0.311677 0.352145 0.273078
0.347676 0.358656 0.280253
0.383675 0.365166 0.287428
0.419674 0.371677 0.294604
0.455673 0.378188 0.301779
0.491672 0.384699 0.308954
0.527672 0.391210 0.316129
0.563671 0.397721 0.323304
0.599670 0.404232 0.330480
0.635669 0.410742 0.337655
0.671668 0.417253 0.344830
0.707667 0.423764 0.352006
0.152914 0.372118 0.261340
0.188913 0.378629 0.268515
0.224912 0.385140 0.275690
0.260912 0.391651 0.282865
0.296911 0.398162 0.290041
0.332910 0.404673 0.297216
0.368909 0.411183 0.304391
0.404908 0.417694 0.311566
0.440907 0.424205 0.318742
0.476906 0.430716 0.325917
0.512905 0.437227 0.333092
0.548904 0.443738 0.340267
0.584903 0.450249 0.347442
0.620902 0.456760 0.354618
0.656901 0.463270 0.361793
0.692900 0.469781 0.368968
0.728899 0.476292 0.376144
0.174147 0.424646 0.285478
0.210146 0.431157 0.292653
0.246145 0.437668 0.299828
0.282144 0.444179 0.307003
0.318143 0.450690 0.314179
0.354142 0.457201 0.321354
0.390141 0.463711 0.328529
0.426140 0.470222 0.335704
0.462139 0.476733 0.342880
0.498138 0.483244 0.350055
0.534138 0.489755 0.357230
0.570137 0.496266 0.364405
0.606136 0.502777 0.371581
0.642135 0.509288 0.378756
0.678134 0.515798 0.385931
0.714133 0.522309 0.393106
0.750132 0.528820 0.400282
0.195379 0.477174 0.309615
0.231378 0.483685 0.316791
0.267377 0.490196 0.323966
0.303377 0.496707 0.331141
0.339376 0.503218 0.338317
0.375375 0.509729 0.345492
0.411374 0.516239 0.352667
0.447373 0.522750 0.359842
0.483372 0.529261 0.367017
0.519371 0.535772 0.374193
0.555370 0.542283 0.381368
0.591369 0.548794 0.388543
0.627368 0.555305 0.395718
0.663367 0.561816 0.402894
0.699366 0.568327 0.410069
0.735365 0.574837 0.417244
0.771364 0.581348 0.424420
0.216612 0.529702 0.333753
0.252611 0.536213 0.340929
0.288610 0.542724 0.348104
0.324609 0.549235 0.355279
0.360608 0.555746 0.362455
0.396607 0.562257 0.369630
0.432606 0.568767 0.376805
0.468605 0.575278 0.383980
0.504604 0.581789 0.391155
0.540603 0.588300 0.398331
0.576602 0.594811 0.405506
0.612602 0.601322 0.412681
0.648601 0.607833 0.419856
0.684600 0.614344 0.427032
0.720599 0.620854 0.434207
0.756598 0.627365 0.441382
0.792597 0.633876 0.448557
0.237844 0.582230 0.357892
0.273843 0.588741 0.365067
0.309842 0.595252 0.372242
0.345842 0.601763 0.379417
0.381841 0.608274 0.386593
0.417840 0.614785 0.393768
0.453839 0.621295 0.400943
0.489838 0.627806 0.408118
0.525837 0.634317 0.415293
0.561836 0.640828 0.422469
0.597835 0.647339 0.429644
0.633834 0.653850 0.436819
0.669833 0.660361 0.443995
0.705832 0.666872 0.451170
0.741831 0.673382 0.458345
0.777830 0.679893 0.465520
0.813829 0.686404 0.472695
0.259077 0.634758 0.382030
0.295076 0.641269 0.389205
0.331075 0.647780 0.396380
0.367074 0.654291 0.403555
0.403073 0.660802 0.410731
0.439072 0.667313 0.417906
0.475071 0.673824 0.425081
0.511070 0.680334 0.432256
0.547069 0.686845 0.439432
0.583068 0.693356 0.446607
0.619067 0.699867 0.453782
0.655067 0.706378 0.460957
0.691066 0.712889 0.468133
0.727065 0.719400 0.475308
0.763064 0.725910 0.482483
0.799063 0.732421 0.489658
0.835062 0.738932 0.496834
0.280309 0.687286 0.406168
0.316308 0.693797 0.413343
0.352307 0.700308 0.420518
0.388307 0.706819 0.427693
0.424306 0.713330 0.434868
0.460305 0.719841 0.442044
0.496304 0.726351 0.449219
0.532303 0.732862 0.456394
0.568302 0.739373 0.463570
0.604301 0.745884 0.470745
0.640300 0.752395 0.477920
0.676299 0.758906 0.485095
0.712298 0.765417 0.492270
0.748297 0.771928 0.499446
0.784296 0.778438 0.506621
0.820295 0.784949 0.513796
0.856294 0.791460 0.520972
0.301542 0.739814 0.430305
0.337541 0.746325 0.437481
0.373540 0.752836 0.444656
0.409539 0.759347 0.451831
0.445538 0.765858 0.459006
0.481537 0.772369 0.466182
0.517536 0.778879 0.473357
0.553535 0.785390 0.480532
0.589534 0.791901 0.487708
0.625533 0.798412 0.494883
0.661532 0.804923 0.502058
0.697532 0.811434 0.509233
0.733531 0.817945 0.516408
0.769530 0.824456 0.523584
0.805529 0.830966 0.530759
0.841528 0.837477 0.537934
0.877527 0.843988 0.545110
0.322774 0.792342 0.454444
0.358773 0.798853 0.461619
0.394772 0.805364 0.468794
0.430772 0.811875 0.475969
0.466771 0.818386 0.483145
0.502770 0.824897 0.490320
0.538769 0.831407 0.497495
0.574768 0.837918 0.504670
0.610767 0.844429 0.511845
0.646766 0.850940 0.519021
0.682765 0.857451 0.526196
0.718764 0.863962 0.533371
0.754763 0.870473 0.540547
0.790762 0.876984 0.547722
0.826761 0.883494 0.554897
0.862760 0.890005 0.562072
0.898759 0.896516 0.569248
0.344007 0.844870 0.478581
0.380006 0.851381 0.485757
0.416005 0.857892 0.492932
0.452004 0.864403 0.500107
0.488003 0.870914 0.507282
0.524002 0.877425 0.514458
0.560001 0.883935 0.521633
0.596000 0.890446 0.528808
0.631999 0.896957 0.535983
0.667998 0.903468 0.543159
0.703997 0.909979 0.550334
0.739997 0.916490 0.557509
0.775996 0.923001 0.564684
0.811995 0.929512 0.571860
0.847994 0.936022 0.579035
0.883993 0.942533 0.586210
0.919992 0.949044 0.593385
0.006430 0.006633 0.128560
0.042429 0.013144 0.135736
0.078428 0.019655 0.142911
0.114428 0.026166 0.150086
0.150427 0.032677 0.157261
0.186426 0.039188 0.164437
0.222425 0.045699 0.171612
0.258424 0.052209 0.178787
0.294423 0.058720 0.185962
0.330422 0.065231 0.193138
0.366421 0.071742 0.200313
0.402420 0.078253 0.207488
0.438419 0.084764 0.214663
0.474418 0.091275 0.221839
0.510417 0.097786 0.229014
0.546416 0.104297 0.236189
0.582415 0.110807 0.243364
0.027663 0.059161 0.152698
0.063662 0.065672 0.159874
