public/luts/cold-noir.cube
# Recut LookBook — cold-noir
LUT_3D_SIZE 9
DOMAIN_MIN 0 0 0
DOMAIN_MAX 1 1 1
0.000000 0.000000 0.020000
0.071998 0.013022 0.034351
0.143996 0.026044 0.048701
0.215994 0.039065 0.063052
0.287993 0.052087 0.077402
0.359991 0.065109 0.091753
0.431989 0.078131 0.106103
0.503987 0.091152 0.120454
0.575985 0.104174 0.134804
0.042465 0.105056 0.068276
0.114463 0.118078 0.082627
0.186461 0.131100 0.096977
0.258459 0.144121 0.111328
0.330457 0.157143 0.125678
0.402456 0.170165 0.140029
0.474454 0.183187 0.154379
0.546452 0.196208 0.168729
0.618450 0.209230 0.183080
0.084930 0.210112 0.116552
0.156928 0.223134 0.130902
0.228926 0.236155 0.145253
0.300924 0.249177 0.159604
0.372922 0.262199 0.173954
0.444921 0.275221 0.188305
0.516919 0.288242 0.202655
0.588917 0.301264 0.217005
0.660915 0.314286 0.231356
0.127395 0.315168 0.164828
0.199393 0.328190 0.179179
0.271391 0.341212 0.193529
0.343389 0.354233 0.207879
0.415388 0.367255 0.222230
0.487386 0.380277 0.236580
0.559384 0.393298 0.250931
0.631382 0.406320 0.265282
0.703380 0.419342 0.279632
0.169860 0.420224 0.213104
0.241858 0.433246 0.227455
0.313856 0.446267 0.241805
0.385854 0.459289 0.256155
0.457852 0.472311 0.270506
0.529851 0.485333 0.284857
0.601849 0.498354 0.299207
0.673847 0.511376 0.313558
0.745845 0.524398 0.327908
0.212325 0.525280 0.261380
0.284323 0.538302 0.275731
0.356321 0.551324 0.290081
0.428319 0.564345 0.304432
0.500317 0.577367 0.318782
0.572316 0.590389 0.333132
0.644314 0.603410 0.347483
0.716312 0.616432 0.361834
0.788310 0.629454 0.376184
0.254790 0.630336 0.309656
0.326788 0.643358 0.324007
0.398786 0.656380 0.338357
0.470784 0.669401 0.352708
0.542782 0.682423 0.367058
0.614781 0.695445 0.381409
0.686779 0.708466 0.395759
0.758777 0.721488 0.410110
0.830775 0.734510 0.424460
0.297255 0.735392 0.357932
0.369253 0.748414 0.372283
0.441251 0.761435 0.386633
0.513249 0.774457 0.400983
0.585247 0.787479 0.415334
0.657246 0.800501 0.429685
0.729244 0.813523 0.444035
0.801242 0.826544 0.458386
0.873240 0.839566 0.472736
0.339720 0.840448 0.406208
0.411718 0.853470 0.420559
0.483716 0.866491 0.434909
0.555714 0.879513 0.449260
0.627712 0.892535 0.463610
0.699711 0.905557 0.477961
0.771709 0.918578 0.492311
0.843707 0.931600 0.506661
0.915705 0.944622 0.521012
0.004287 0.004422 0.092374
0.076285 0.017444 0.106724
0.148283 0.030466 0.121075
0.220281 0.043488 0.135425
0.292279 0.056509 0.149776
0.364277 0.069531 0.164126
0.436276 0.082553 0.178477
0.508274 0.095574 0.192827
0.580272 0.108596 0.207178
0.046752 0.109478 0.140649
0.118750 0.122500 0.155000
0.190748 0.135522 0.169351
0.262746 0.148544 0.183701
0.334744 0.161565 0.198051
0.406743 0.174587 0.212402
0.478741 0.187609 0.226753
0.550739 0.200630 0.241103
0.622737 0.213652 0.255454
0.089217 0.214534 0.188926
0.161215 0.227556 0.203276
0.233213 0.240578 0.217627
0.305211 0.253599 0.231977
0.377209 0.266621 0.246328
0.449207 0.279643 0.260678
0.521206 0.292665 0.275029
0.593204 0.305687 0.289379
0.665202 0.318708 0.303730
0.131682 0.319590 0.237202
0.203680 0.332612 0.251552
0.275678 0.345634 0.265903
0.347676 0.358656 0.280253
0.419674 0.371677 0.294604
0.491672 0.384699 0.308954
0.563671 0.397721 0.323304
0.635669 0.410742 0.337655
0.707667 0.423764 0.352006
0.174147 0.424646 0.285478
0.246145 0.437668 0.299828
0.318143 0.450690 0.314179
0.390141 0.463711 0.328529
0.462139 0.476733 0.342880
0.534138 0.489755 0.357230
0.606136 0.502777 0.371581
0.678134 0.515798 0.385931
0.750132 0.528820 0.400282
0.216612 0.529702 0.333753
0.288610 0.542724 0.348104
0.360608 0.555746 0.362455
0.432606 0.568767 0.376805
0.504604 0.581789 0.391155
0.576602 0.594811 0.405506
0.648601 0.607833 0.419856
0.720599 0.620854 0.434207
0.792597 0.633876 0.448557
0.259077 0.634758 0.382030
0.331075 0.647780 0.396380
0.403073 0.660802 0.410731
0.475071 0.673824 0.425081
0.547069 0.686845 0.439432
0.619067 0.699867 0.453782
0.691066 0.712889 0.468133
0.763064 0.725910 0.482483
0.835062 0.738932 0.496834
0.301542 0.739814 0.430305
0.373540 0.752836 0.444656
0.445538 0.765858 0.459006
0.517536 0.778879 0.473357
0.589534 0.791901 0.487708
0.661532 0.804923 0.502058
0.733531 0.817945 0.516408
0.805529 0.830966 0.530759
0.877527 0.843988 0.545110
0.344007 0.844870 0.478581
0.416005 0.857892 0.492932
0.488003 0.870914 0.507282
0.560001 0.883935 0.521633
0.631999 0.896957 0.535983
0.703997 0.909979 0.550334
0.775996 0.923001 0.564684
0.847994 0.936022 0.579035
0.919992 0.949044 0.593385
0.008574 0.008844 0.164747
0.080572 0.021866 0.179098
0.152570 0.034888 0.193448
0.224568 0.047910 0.207798
0.296566 0.060931 0.222149
0.368564 0.073953 0.236500
0.440562 0.086975 0.250850
0.512561 0.099997 0.265201
0.584559 0.113019 0.279551
0.051039 0.113900 0.213023
0.123037 0.126922 0.227374
0.195035 0.139944 0.241724
0.267033 0.152966 0.256074
0.339031 0.165987 0.270425
0.411029 0.179009 0.284776
0.483028 0.192031 0.299126
0.555026 0.205053 0.313476
0.627024 0.218075 0.327827
0.093504 0.218956 0.261299
0.165502 0.231978 0.275650
0.237500 0.245000 0.290000
0.309498 0.258022 0.304351
0.381496 0.271043 0.318701
0.453494 0.284065 0.333052
0.525493 0.297087 0.347402
0.597491 0.310109 0.361753
0.669489 0.323130 0.376103
0.135969 0.324012 0.309575
0.207967 0.337034 0.323926
0.279965 0.350056 0.338276
0.351963 0.363078 0.352627
0.423961 0.376099 0.366977
0.495959 0.389121 0.381328
0.567958 0.402143 0.395678
0.639956 0.415165 0.410029
0.711954 0.428187 0.424379
0.178434 0.429069 0.357851
0.250432 0.442090 0.372202
0.322430 0.455112 0.386552
0.394428 0.468134 0.400903
0.466426 0.481156 0.415253
0.538424 0.494177 0.429604
0.610422 0.507199 0.443954
0.682421 0.520221 0.458305
0.754419 0.533242 0.472655
0.220899 0.534125 0.406127
0.292897 0.547146 0.420478
0.364895 0.560168 0.434828
0.436893 0.573190 0.449179
0.508891 0.586211 0.463529
0.580889 0.599233 0.477880
0.652887 0.612255 0.492230
0.724886 0.625277 0.506580
0.796884 0.638298 0.520931
0.263364 0.639181 0.454403
0.335362 0.652202 0.468754
0.407360 0.665224 0.483104
0.479358 0.678246 0.497455
0.551356 0.691268 0.511805
0.623354 0.704289 0.526156
0.695352 0.717311 0.540506
0.767351 0.730333 0.554857
0.839349 0.743355 0.569207
0.305829 0.744236 0.502679
0.377827 0.757258 0.517030
0.449825 0.770280 0.531380
0.521823 0.783302 0.545731
0.593821 0.796324 0.560081
0.665819 0.809345 0.574431
0.737817 0.822367 0.588782
0.809816 0.835389 0.603132
0.881814 0.848410 0.617483
0.348294 0.849293 0.550955
0.420292 0.862314 0.565306
0.492290 0.875336 0.579656
0.564288 0.888358 0.594007
0.636286 0.901380 0.608357
0.708284 0.914401 0.622707
0.780282 0.927423 0.637058
0.852281 0.940445 0.651408
0.924279 0.953466 0.665759
0.012861 0.013267 0.237120
0.084859 0.026289 0.251471
0.156857 0.039310 0.265821
0.228855 0.052332 0.280172
0.300853 0.065354 0.294523
0.372851 0.078376 0.308873
0.444849 0.091397 0.323224
0.516847 0.104419 0.337574
0.588846 0.117441 0.351925
0.055326 0.118323 0.285397
0.127324 0.131345 0.299747
0.199322 0.144366 0.314098
0.271320 0.157388 0.328448
0.343318 0.170410 0.342799
0.415316 0.183431 0.357149
0.487314 0.196453 0.371500
0.559312 0.209475 0.385850
0.631311 0.222497 0.400201
0.097791 0.223379 0.333673
0.169789 0.236400 0.348023
0.241787 0.249422 0.362374
0.313785 0.262444 0.376724
0.385783 0.275466 0.391075
0.457781 0.288488 0.405425
0.529779 0.301509 0.419776
0.601777 0.314531 0.434126
0.673776 0.327553 0.448477
0.140256 0.328435 0.381949
0.212254 0.341456 0.396299
0.284252 0.354478 0.410650
0.356250 0.367500 0.425000
0.428248 0.380522 0.439351
0.500246 0.393543 0.453701
0.572244 0.406565 0.468052
0.644243 0.419587 0.482402
0.716241 0.432609 0.496753
0.182721 0.433491 0.430225
0.254719 0.446512 0.444575
0.326717 0.459534 0.458925
0.398715 0.472556 0.473276
0.470713 0.485578 0.487627
0.542711 0.498599 0.501977
0.614709 0.511621 0.516328
0.686707 0.524643 0.530678
0.758706 0.537665 0.545029
0.225186 0.538547 0.478501
0.297184 0.551568 0.492851
0.369182 0.564590 0.507201
0.441180 0.577612 0.521552
0.513178 0.590634 0.535902
0.585176 0.603655 0.550253
0.657174 0.616677 0.564604
0.729172 0.629699 0.578954
0.801171 0.642721 0.593305
0.267651 0.643603 0.526776
0.339649 0.656624 0.541127
0.411647 0.669646 0.555478
0.483645 0.682668 0.569828
0.555643 0.695690 0.584179
0.627641 0.708712 0.598529
0.699639 0.721733 0.612880
0.771637 0.734755 0.627230
0.843636 0.747777 0.641581
0.310116 0.748659 0.575052
0.382114 0.761680 0.589403
0.454112 0.774702 0.603754
0.526110 0.787724 0.618104
0.598108 0.800746 0.632455
0.670106 0.813767 0.646805
0.742104 0.826789 0.661156
0.814102 0.839811 0.675506
0.886101 0.852833 0.689857
0.352581 0.853715 0.623328
0.424579 0.866737 0.637679
0.496577 0.879758 0.652029
0.568575 0.892780 0.666380
0.640573 0.905802 0.680731
0.712571 0.918823 0.695081
0.784569 0.931845 0.709431
0.856567 0.944867 0.723782
0.928566 0.957889 0.738132
0.017147 0.017689 0.309494
0.089146 0.030711 0.323845
0.161144 0.043733 0.338195
0.233142 0.056754 0.352546
0.305140 0.069776 0.366896
0.377138 0.082798 0.381247
0.449136 0.095820 0.395597
0.521134 0.108841 0.409948
0.593132 0.121863 0.424298
0.059612 0.122745 0.357770
0.131611 0.135767 0.372121
0.203609 0.148788 0.386471
0.275607 0.161810 0.400822
0.347605 0.174832 0.415172
0.419603 0.187854 0.429523
0.491601 0.200876 0.443873
0.563599 0.213897 0.458224
0.635597 0.226919 0.472574
0.102077 0.227801 0.406046
0.174076 0.240823 0.420397
0.246074 0.253844 0.434747
0.318072 0.266866 0.449098
0.390070 0.279888 0.463448
0.462068 0.292910 0.477799
0.534066 0.305931 0.492149
0.606064 0.318953 0.506499
0.678063 0.331975 0.520850
0.144542 0.332857 0.454322
0.216541 0.345879 0.468673
0.288539 0.358901 0.483023
0.360537 0.371922 0.497374
0.432535 0.384944 0.511724
0.504533 0.397966 0.526075
0.576531 0.410988 0.540425
0.648529 0.424009 0.554776
0.720527 0.437031 0.569126
0.187007 0.437913 0.502598
0.259006 0.450935 0.516949
0.331004 0.463956 0.531299
0.403002 0.476978 0.545650
0.475000 0.490000 0.560000
0.546998 0.503022 0.574351
0.618996 0.516043 0.588701
0.690994 0.529065 0.603052
0.762992 0.542087 0.617402
0.229472 0.542969 0.550874
0.301471 0.555991 0.565225
0.373469 0.569012 0.579575
0.445467 0.582034 0.593926
0.517465 0.595056 0.608276
0.589463 0.608078 0.622626
0.661461 0.621099 0.636977
0.733459 0.634121 0.651328
0.805457 0.647143 0.665678
0.271937 0.648025 0.599150
0.343936 0.661047 0.613501
0.415934 0.674068 0.627851
0.487932 0.687090 0.642202
0.559930 0.700112 0.656552
0.631928 0.713134 0.670903
0.703926 0.726155 0.685253
0.775924 0.739177 0.699604
0.847922 0.752199 0.713954
0.314402 0.753081 0.647426
0.386401 0.766103 0.661776
0.458399 0.779124 0.676127
0.530397 0.792146 0.690478
0.602395 0.805168 0.704828
0.674393 0.818190 0.719179
0.746391 0.831211 0.733529
0.818389 0.844233 0.747880
0.890387 0.857255 0.762230
0.356867 0.858137 0.695702
0.428866 0.871159 0.710052
0.500864 0.884181 0.724403
0.572862 0.897202 0.738754
0.644860 0.910224 0.753104
0.716858 0.923246 0.767455
0.788856 0.936267 0.781805
0.860854 0.949289 0.796156
0.932852 0.962311 0.810506
0.021434 0.022111 0.381868
0.093432 0.035133 0.396218
0.165431 0.048155 0.410569
0.237429 0.061177 0.424919
0.309427 0.074198 0.439269
0.381425 0.087220 0.453620
0.453423 0.100242 0.467971
0.525421 0.113263 0.482321
0.597419 0.126285 0.496672
0.063899 0.127167 0.430144
0.135898 0.140189 0.444494
0.207896 0.153211 0.458845
0.279894 0.166233 0.473195
0.351892 0.179254 0.487546
0.423890 0.192276 0.501896
0.495888 0.205298 0.516247
0.567886 0.218319 0.530597
0.639884 0.231341 0.544948
0.106364 0.232223 0.478419
0.178362 0.245245 0.492770
0.250361 0.258267 0.507120
0.322359 0.271288 0.521471
0.394357 0.284310 0.535822
0.466355 0.297332 0.550172
0.538353 0.310354 0.564523
0.610351 0.323375 0.578873
0.682349 0.336397 0.593224
0.148829 0.337279 0.526695
0.220827 0.350301 0.541046
0.292826 0.363323 0.555397
0.364824 0.376344 0.569747
0.436822 0.389366 0.584098
0.508820 0.402388 0.598448
0.580818 0.415410 0.612799
0.652816 0.428431 0.627149
0.724814 0.441453 0.641500
0.191294 0.442335 0.574972
0.263292 0.455357 0.589322
0.335291 0.468379 0.603672
0.407289 0.481400 0.618023
0.479287 0.494422 0.632373
0.551285 0.507444 0.646724
0.623283 0.520466 0.661075
0.695281 0.533488 0.675425
0.767279 0.546509 0.689775
0.233759 0.547391 0.623248
0.305757 0.560413 0.637598
0.377756 0.573435 0.651949
0.449754 0.586456 0.666299
0.521752 0.599478 0.680649
0.593750 0.612500 0.695000
0.665748 0.625522 0.709350
0.737746 0.638544 0.723701
0.809744 0.651565 0.738051
0.276224 0.652447 0.671524
0.348222 0.665469 0.685874
0.420221 0.678491 0.700225
0.492219 0.691512 0.714575
0.564217 0.704534 0.728926
0.636215 0.717556 0.743276
0.708213 0.730578 0.757626
0.780211 0.743599 0.771977
0.852209 0.756621 0.786328
0.318689 0.757503 0.719800
0.390687 0.770525 0.734150
0.462686 0.783547 0.748501
0.534684 0.796568 0.762851
0.606682 0.809590 0.777202
0.678680 0.822612 0.791552
0.750678 0.835634 0.805902
0.822676 0.848655 0.820253
0.894674 0.861677 0.834604
0.361154 0.862559 0.768076
0.433152 0.875581 0.782426
0.505151 0.888603 0.796776
0.577149 0.901624 0.811127
0.649147 0.914646 0.825478
0.721145 0.927668 0.839828
0.793143 0.940690 0.854179
0.865141 0.953711 0.868529
0.937139 0.966733 0.882880
0.025721 0.026534 0.454241
0.097719 0.039555 0.468591
0.169717 0.052577 0.482942
0.241716 0.065599 0.497293
0.313714 0.078621 0.511643
0.385712 0.091642 0.525994
0.457710 0.104664 0.540344
0.529708 0.117686 0.554695
0.601706 0.130708 0.569045
0.068186 0.131589 0.502517
0.140184 0.144611 0.516868
0.212182 0.157633 0.531218
0.284181 0.170655 0.545569
0.356179 0.183676 0.559919
0.428177 0.196698 0.574270
0.500175 0.209720 0.588620
0.572173 0.222742 0.602971
0.644171 0.235763 0.617321
0.110651 0.236645 0.550793
0.182649 0.249667 0.565144
0.254647 0.262689 0.579494
0.326646 0.275711 0.593845
0.398644 0.288733 0.608195
0.470642 0.301754 0.622546
0.542640 0.314776 0.636896
0.614638 0.327798 0.651247
0.686636 0.340819 0.665597
0.153116 0.341701 0.599069
0.225114 0.354723 0.613420
0.297113 0.367745 0.627770
0.369111 0.380767 0.642120
0.441109 0.393788 0.656471
0.513107 0.406810 0.670822
0.585105 0.419832 0.685172
0.657103 0.432854 0.699523
0.729101 0.445876 0.713873
0.195581 0.446757 0.647345
0.267579 0.459779 0.661695
0.339577 0.472801 0.676046
0.411576 0.485823 0.690396
0.483574 0.498845 0.704747
0.555572 0.511866 0.719098
0.627570 0.524888 0.733448
0.699568 0.537910 0.747799
0.771566 0.550932 0.762149
0.238046 0.551813 0.695621
0.310044 0.564835 0.709972
0.382043 0.577857 0.724322
0.454041 0.590879 0.738673
0.526039 0.603901 0.753023
0.598037 0.616922 0.767373
0.670035 0.629944 0.781724
0.742033 0.642966 0.796075
0.814031 0.655988 0.810425
0.280511 0.656869 0.743897
0.352509 0.669891 0.758248
0.424507 0.682913 0.772598
0.496506 0.695935 0.786949
0.568504 0.708956 0.801299
0.640502 0.721978 0.815650
0.712500 0.735000 0.830000
0.784498 0.748022 0.844351
0.856496 0.761043 0.858701
0.322976 0.761925 0.792173
0.394974 0.774947 0.806524
0.466972 0.787969 0.820874
0.538971 0.800991 0.835225
0.610969 0.814012 0.849575
0.682967 0.827034 0.863926
0.754965 0.840056 0.878276
0.826963 0.853078 0.892626
0.898961 0.866099 0.906977
0.365441 0.866981 0.840449
0.437439 0.880003 0.854800
0.509437 0.893025 0.869150
0.581436 0.906047 0.883501
0.653434 0.919068 0.897851
0.725432 0.932090 0.912202
0.797430 0.945112 0.926552
0.869428 0.958134 0.940903
0.941426 0.971155 0.955253
0.030008 0.030956 0.526615
0.102006 0.043977 0.540965
0.174004 0.056999 0.555316
0.246003 0.070021 0.569666
0.318001 0.083043 0.584016
0.389999 0.096064 0.598367
0.461997 0.109086 0.612718
0.533995 0.122108 0.627068
0.605993 0.135130 0.641419
0.072473 0.136012 0.574890
0.144471 0.149033 0.589241
0.216469 0.162055 0.603592
0.288467 0.175077 0.617942
0.360466 0.188099 0.632293
0.432464 0.201120 0.646643
0.504462 0.214142 0.660994
0.576460 0.227164 0.675344
0.648458 0.240186 0.689694
0.114938 0.241068 0.623167
0.186936 0.254089 0.637517
0.258934 0.267111 0.651868
0.330932 0.280133 0.666218
0.402931 0.293155 0.680569
0.474929 0.306177 0.694919
0.546927 0.319198 0.709269
0.618925 0.332220 0.723620
0.690923 0.345242 0.737971
0.157403 0.346124 0.671443
0.229401 0.359146 0.685793
0.301399 0.372167 0.700144
0.373397 0.385189 0.714494
0.445396 0.398211 0.728845
0.517394 0.411233 0.743195
0.589392 0.424254 0.757546
0.661390 0.437276 0.771896
0.733388 0.450298 0.786247
0.199868 0.451180 0.719719
0.271866 0.464201 0.734069
0.343864 0.477223 0.748420
0.415862 0.490245 0.762770
0.487861 0.503267 0.777120
0.559859 0.516288 0.791471
0.631857 0.529310 0.805822
0.703855 0.542332 0.820172
0.775853 0.555354 0.834523
0.242333 0.556236 0.767995
0.314331 0.569257 0.782345
0.386329 0.582279 0.796696
0.458327 0.595301 0.811046
0.530326 0.608323 0.825396
0.602324 0.621344 0.839747
0.674322 0.634366 0.854098
0.746320 0.647388 0.868448
0.818318 0.660410 0.882799
0.284798 0.661292 0.816271
0.356796 0.674314 0.830621
0.428794 0.687335 0.844972
0.500792 0.700357 0.859322
0.572791 0.713379 0.873673
0.644789 0.726401 0.888023
0.716787 0.739422 0.902373
0.788785 0.752444 0.916724
0.860783 0.765466 0.931075
0.327263 0.766348 0.864546
0.399261 0.779369 0.878897
0.471259 0.792391 0.893248
0.543257 0.805413 0.907598
0.615256 0.818435 0.921949
0.687254 0.831456 0.936299
0.759252 0.844478 0.950649
0.831250 0.857500 0.965000
0.903248 0.870522 0.979351
0.369728 0.871404 0.912823
0.441726 0.884425 0.927173
0.513724 0.897447 0.941524
0.585722 0.910469 0.955874
0.657721 0.923491 0.970225
0.729719 0.936512 0.984575
0.801717 0.949534 0.998926
0.873715 0.962556 1.000000
0.945713 0.975578 1.000000
0.034295 0.035378 0.598988
0.106293 0.048400 0.613339
0.178291 0.061422 0.627689
0.250289 0.074443 0.642040
0.322288 0.087465 0.656390
0.394286 0.100487 0.670740
0.466284 0.113509 0.685091
0.538282 0.126530 0.699442
0.610280 0.139552 0.713792
0.076760 0.140434 0.647264
0.148758 0.153456 0.661615
0.220756 0.166478 0.675965
0.292754 0.179499 0.690316
0.364752 0.192521 0.704666
0.436751 0.205543 0.719016
0.508749 0.218564 0.733367
0.580747 0.231586 0.747718
0.652745 0.244608 0.762068
0.119225 0.245490 0.695540
0.191223 0.258512 0.709891
0.263221 0.271533 0.724241
0.335219 0.284555 0.738592
0.407217 0.297577 0.752942
0.479216 0.310599 0.767293
0.551214 0.323620 0.781643
0.623212 0.336642 0.795993
0.695210 0.349664 0.810344
0.161690 0.350546 0.743816
0.233688 0.363568 0.758167
0.305686 0.376590 0.772517
0.377684 0.389611 0.786868
0.449682 0.402633 0.801218
0.521681 0.415655 0.815569
0.593679 0.428676 0.829919
0.665677 0.441698 0.844270
0.737675 0.454720 0.858620
0.204155 0.455602 0.792092
0.276153 0.468624 0.806443
0.348151 0.481646 0.820793
0.420149 0.494667 0.835144
0.492147 0.507689 0.849494
0.564146 0.520711 0.863845
0.636144 0.533733 0.878195
0.708142 0.546754 0.892546
0.780140 0.559776 0.906896
0.246620 0.560658 0.840368
0.318618 0.573680 0.854719
0.390616 0.586702 0.869069
0.462614 0.599723 0.883420
0.534612 0.612745 0.897770
0.606611 0.625767 0.912121
0.678609 0.638788 0.926471
0.750607 0.651810 0.940822
0.822605 0.664832 0.955172
0.289085 0.665714 0.888644
0.361083 0.678736 0.902995
0.433081 0.691758 0.917345
0.505079 0.704779 0.931696
0.577078 0.717801 0.946046
0.649076 0.730823 0.960397
0.721074 0.743845 0.974747
0.793072 0.756866 0.989098
0.865070 0.769888 1.000000
0.331550 0.770770 0.936920
0.403548 0.783792 0.951271
0.475546 0.796813 0.965621
0.547544 0.809835 0.979972
0.619542 0.822857 0.994322
0.691541 0.835879 1.000000
0.763539 0.848901 1.000000
0.835537 0.861922 1.000000
0.907535 0.874944 1.000000
0.374015 0.875826 0.985196
0.446013 0.888848 0.999547
0.518011 0.901869 1.000000
0.590009 0.914891 1.000000
0.662007 0.927913 1.000000
0.734006 0.940935 1.000000
0.806004 0.953956 1.000000
0.878002 0.966978 1.000000
0.950000 0.980000 1.000000
