public/luts/high-key.cube
# Recut LookBook — high-key
LUT_3D_SIZE 5
DOMAIN_MIN 0 0 0
DOMAIN_MAX 1 1 1
0.150000 0.150000 0.150000
0.362500 0.150000 0.150000
0.575000 0.150000 0.150000
0.787500 0.150000 0.150000
1.000000 0.150000 0.150000
0.150000 0.362500 0.150000
0.362500 0.362500 0.150000
0.575000 0.362500 0.150000
0.787500 0.362500 0.150000
1.000000 0.362500 0.150000
0.150000 0.575000 0.150000
0.362500 0.575000 0.150000
0.575000 0.575000 0.150000
0.787500 0.575000 0.150000
1.000000 0.575000 0.150000
0.150000 0.787500 0.150000
0.362500 0.787500 0.150000
0.575000 0.787500 0.150000
0.787500 0.787500 0.150000
1.000000 0.787500 0.150000
0.150000 1.000000 0.150000
0.362500 1.000000 0.150000
0.575000 1.000000 0.150000
0.787500 1.000000 0.150000
1.000000 1.000000 0.150000
0.150000 0.150000 0.362500
0.362500 0.150000 0.362500
0.575000 0.150000 0.362500
0.787500 0.150000 0.362500
1.000000 0.150000 0.362500
0.150000 0.362500 0.362500
0.362500 0.362500 0.362500
0.575000 0.362500 0.362500
0.787500 0.362500 0.362500
1.000000 0.362500 0.362500
0.150000 0.575000 0.362500
0.362500 0.575000 0.362500
0.575000 0.575000 0.362500
0.787500 0.575000 0.362500
1.000000 0.575000 0.362500
0.150000 0.787500 0.362500
0.362500 0.787500 0.362500
0.575000 0.787500 0.362500
0.787500 0.787500 0.362500
1.000000 0.787500 0.362500
0.150000 1.000000 0.362500
0.362500 1.000000 0.362500
0.575000 1.000000 0.362500
0.787500 1.000000 0.362500
1.000000 1.000000 0.362500
0.150000 0.150000 0.575000
0.362500 0.150000 0.575000
0.575000 0.150000 0.575000
0.787500 0.150000 0.575000
1.000000 0.150000 0.575000
0.150000 0.362500 0.575000
0.362500 0.362500 0.575000
0.575000 0.362500 0.575000
0.787500 0.362500 0.575000
1.000000 0.362500 0.575000
0.150000 0.575000 0.575000
0.362500 0.575000 0.575000
0.575000 0.575000 0.575000
0.787500 0.575000 0.575000
1.000000 0.575000 0.575000
0.150000 0.787500 0.575000
0.362500 0.787500 0.575000
0.575000 0.787500 0.575000
0.787500 0.787500 0.575000
1.000000 0.787500 0.575000
0.150000 1.000000 0.575000
0.362500 1.000000 0.575000
0.575000 1.000000 0.575000
0.787500 1.000000 0.575000
1.000000 1.000000 0.575000
0.150000 0.150000 0.787500
0.362500 0.150000 0.787500
0.575000 0.150000 0.787500
0.787500 0.150000 0.787500
1.000000 0.150000 0.787500
0.150000 0.362500 0.787500
0.362500 0.362500 0.787500
0.575000 0.362500 0.787500
0.787500 0.362500 0.787500
1.000000 0.362500 0.787500
0.150000 0.575000 0.787500
0.362500 0.575000 0.787500
0.575000 0.575000 0.787500
0.787500 0.575000 0.787500
1.000000 0.575000 0.787500
0.150000 0.787500 0.787500
0.362500 0.787500 0.787500
0.575000 0.787500 0.787500
0.787500 0.787500 0.787500
1.000000 0.787500 0.787500
0.150000 1.000000 0.787500
0.362500 1.000000 0.787500
0.575000 1.000000 0.787500
0.787500 1.000000 0.787500
1.000000 1.000000 0.787500
0.150000 0.150000 1.000000
0.362500 0.150000 1.000000
0.575000 0.150000 1.000000
0.787500 0.150000 1.000000
1.000000 0.150000 1.000000
0.150000 0.362500 1.000000
0.362500 0.362500 1.000000
0.575000 0.362500 1.000000
0.787500 0.362500 1.000000
1.000000 0.362500 1.000000
0.150000 0.575000 1.000000
0.362500 0.575000 1.000000
0.575000 0.575000 1.000000
0.787500 0.575000 1.000000
1.000000 0.575000 1.000000
0.150000 0.787500 1.000000
0.362500 0.787500 1.000000
0.575000 0.787500 1.000000
0.787500 0.787500 1.000000
1.000000 0.787500 1.000000
0.150000 1.000000 1.000000
0.362500 1.000000 1.000000
0.575000 1.000000 1.000000
0.787500 1.000000 1.000000
1.000000 1.000000 1.000000
