public/luts/high-key.cube
# Recut LookBook — high-key
LUT_3D_SIZE 9
DOMAIN_MIN 0 0 0
DOMAIN_MAX 1 1 1
0.150000 0.150000 0.150000
0.256250 0.150000 0.150000
0.362500 0.150000 0.150000
0.468750 0.150000 0.150000
0.575000 0.150000 0.150000
0.681250 0.150000 0.150000
0.787500 0.150000 0.150000
0.893750 0.150000 0.150000
1.000000 0.150000 0.150000
0.150000 0.256250 0.150000
0.256250 0.256250 0.150000
0.362500 0.256250 0.150000
0.468750 0.256250 0.150000
0.575000 0.256250 0.150000
0.681250 0.256250 0.150000
0.787500 0.256250 0.150000
0.893750 0.256250 0.150000
1.000000 0.256250 0.150000
0.150000 0.362500 0.150000
0.256250 0.362500 0.150000
0.362500 0.362500 0.150000
0.468750 0.362500 0.150000
0.575000 0.362500 0.150000
0.681250 0.362500 0.150000
0.787500 0.362500 0.150000
0.893750 0.362500 0.150000
1.000000 0.362500 0.150000
0.150000 0.468750 0.150000
0.256250 0.468750 0.150000
0.362500 0.468750 0.150000
0.468750 0.468750 0.150000
0.575000 0.468750 0.150000
0.681250 0.468750 0.150000
0.787500 0.468750 0.150000
0.893750 0.468750 0.150000
1.000000 0.468750 0.150000
0.150000 0.575000 0.150000
0.256250 0.575000 0.150000
0.362500 0.575000 0.150000
0.468750 0.575000 0.150000
0.575000 0.575000 0.150000
0.681250 0.575000 0.150000
0.787500 0.575000 0.150000
0.893750 0.575000 0.150000
1.000000 0.575000 0.150000
0.150000 0.681250 0.150000
0.256250 0.681250 0.150000
0.362500 0.681250 0.150000
0.468750 0.681250 0.150000
0.575000 0.681250 0.150000
0.681250 0.681250 0.150000
0.787500 0.681250 0.150000
0.893750 0.681250 0.150000
1.000000 0.681250 0.150000
0.150000 0.787500 0.150000
0.256250 0.787500 0.150000
0.362500 0.787500 0.150000
0.468750 0.787500 0.150000
0.575000 0.787500 0.150000
0.681250 0.787500 0.150000
0.787500 0.787500 0.150000
0.893750 0.787500 0.150000
1.000000 0.787500 0.150000
0.150000 0.893750 0.150000
0.256250 0.893750 0.150000
0.362500 0.893750 0.150000
0.468750 0.893750 0.150000
0.575000 0.893750 0.150000
0.681250 0.893750 0.150000
0.787500 0.893750 0.150000
0.893750 0.893750 0.150000
1.000000 0.893750 0.150000
0.150000 1.000000 0.150000
0.256250 1.000000 0.150000
0.362500 1.000000 0.150000
0.468750 1.000000 0.150000
0.575000 1.000000 0.150000
0.681250 1.000000 0.150000
0.787500 1.000000 0.150000
0.893750 1.000000 0.150000
1.000000 1.000000 0.150000
0.150000 0.150000 0.256250
0.256250 0.150000 0.256250
0.362500 0.150000 0.256250
0.468750 0.150000 0.256250
0.575000 0.150000 0.256250
0.681250 0.150000 0.256250
0.787500 0.150000 0.256250
0.893750 0.150000 0.256250
1.000000 0.150000 0.256250
0.150000 0.256250 0.256250
0.256250 0.256250 0.256250
0.362500 0.256250 0.256250
0.468750 0.256250 0.256250
0.575000 0.256250 0.256250
0.681250 0.256250 0.256250
0.787500 0.256250 0.256250
0.893750 0.256250 0.256250
1.000000 0.256250 0.256250
0.150000 0.362500 0.256250
0.256250 0.362500 0.256250
0.362500 0.362500 0.256250
0.468750 0.362500 0.256250
0.575000 0.362500 0.256250
0.681250 0.362500 0.256250
0.787500 0.362500 0.256250
0.893750 0.362500 0.256250
1.000000 0.362500 0.256250
0.150000 0.468750 0.256250
0.256250 0.468750 0.256250
0.362500 0.468750 0.256250
0.468750 0.468750 0.256250
0.575000 0.468750 0.256250
0.681250 0.468750 0.256250
0.787500 0.468750 0.256250
0.893750 0.468750 0.256250
1.000000 0.468750 0.256250
0.150000 0.575000 0.256250
0.256250 0.575000 0.256250
0.362500 0.575000 0.256250
0.468750 0.575000 0.256250
0.575000 0.575000 0.256250
0.681250 0.575000 0.256250
0.787500 0.575000 0.256250
0.893750 0.575000 0.256250
1.000000 0.575000 0.256250
0.150000 0.681250 0.256250
0.256250 0.681250 0.256250
0.362500 0.681250 0.256250
0.468750 0.681250 0.256250
0.575000 0.681250 0.256250
0.681250 0.681250 0.256250
0.787500 0.681250 0.256250
0.893750 0.681250 0.256250
1.000000 0.681250 0.256250
0.150000 0.787500 0.256250
0.256250 0.787500 0.256250
0.362500 0.787500 0.256250
0.468750 0.787500 0.256250
0.575000 0.787500 0.256250
0.681250 0.787500 0.256250
0.787500 0.787500 0.256250
0.893750 0.787500 0.256250
1.000000 0.787500 0.256250
0.150000 0.893750 0.256250
0.256250 0.893750 0.256250
0.362500 0.893750 0.256250
0.468750 0.893750 0.256250
0.575000 0.893750 0.256250
0.681250 0.893750 0.256250
0.787500 0.893750 0.256250
0.893750 0.893750 0.256250
1.000000 0.893750 0.256250
0.150000 1.000000 0.256250
0.256250 1.000000 0.256250
0.362500 1.000000 0.256250
0.468750 1.000000 0.256250
0.575000 1.000000 0.256250
0.681250 1.000000 0.256250
0.787500 1.000000 0.256250
0.893750 1.000000 0.256250
1.000000 1.000000 0.256250
0.150000 0.150000 0.362500
0.256250 0.150000 0.362500
0.362500 0.150000 0.362500
0.468750 0.150000 0.362500
0.575000 0.150000 0.362500
0.681250 0.150000 0.362500
0.787500 0.150000 0.362500
0.893750 0.150000 0.362500
1.000000 0.150000 0.362500
0.150000 0.256250 0.362500
0.256250 0.256250 0.362500
0.362500 0.256250 0.362500
0.468750 0.256250 0.362500
0.575000 0.256250 0.362500
0.681250 0.256250 0.362500
0.787500 0.256250 0.362500
0.893750 0.256250 0.362500
1.000000 0.256250 0.362500
0.150000 0.362500 0.362500
0.256250 0.362500 0.362500
0.362500 0.362500 0.362500
0.468750 0.362500 0.362500
0.575000 0.362500 0.362500
0.681250 0.362500 0.362500
0.787500 0.362500 0.362500
0.893750 0.362500 0.362500
1.000000 0.362500 0.362500
0.150000 0.468750 0.362500
0.256250 0.468750 0.362500
0.362500 0.468750 0.362500
0.468750 0.468750 0.362500
0.575000 0.468750 0.362500
0.681250 0.468750 0.362500
0.787500 0.468750 0.362500
0.893750 0.468750 0.362500
1.000000 0.468750 0.362500
0.150000 0.575000 0.362500
0.256250 0.575000 0.362500
0.362500 0.575000 0.362500
0.468750 0.575000 0.362500
0.575000 0.575000 0.362500
0.681250 0.575000 0.362500
0.787500 0.575000 0.362500
0.893750 0.575000 0.362500
1.000000 0.575000 0.362500
0.150000 0.681250 0.362500
0.256250 0.681250 0.362500
0.362500 0.681250 0.362500
0.468750 0.681250 0.362500
0.575000 0.681250 0.362500
0.681250 0.681250 0.362500
0.787500 0.681250 0.362500
0.893750 0.681250 0.362500
1.000000 0.681250 0.362500
0.150000 0.787500 0.362500
0.256250 0.787500 0.362500
0.362500 0.787500 0.362500
0.468750 0.787500 0.362500
0.575000 0.787500 0.362500
0.681250 0.787500 0.362500
0.787500 0.787500 0.362500
0.893750 0.787500 0.362500
1.000000 0.787500 0.362500
0.150000 0.893750 0.362500
0.256250 0.893750 0.362500
0.362500 0.893750 0.362500
0.468750 0.893750 0.362500
0.575000 0.893750 0.362500
0.681250 0.893750 0.362500
0.787500 0.893750 0.362500
0.893750 0.893750 0.362500
1.000000 0.893750 0.362500
0.150000 1.000000 0.362500
0.256250 1.000000 0.362500
0.362500 1.000000 0.362500
0.468750 1.000000 0.362500
0.575000 1.000000 0.362500
0.681250 1.000000 0.362500
0.787500 1.000000 0.362500
0.893750 1.000000 0.362500
1.000000 1.000000 0.362500
0.150000 0.150000 0.468750
0.256250 0.150000 0.468750
0.362500 0.150000 0.468750
0.468750 0.150000 0.468750
0.575000 0.150000 0.468750
0.681250 0.150000 0.468750
0.787500 0.150000 0.468750
0.893750 0.150000 0.468750
1.000000 0.150000 0.468750
0.150000 0.256250 0.468750
0.256250 0.256250 0.468750
0.362500 0.256250 0.468750
0.468750 0.256250 0.468750
0.575000 0.256250 0.468750
0.681250 0.256250 0.468750
0.787500 0.256250 0.468750
0.893750 0.256250 0.468750
1.000000 0.256250 0.468750
0.150000 0.362500 0.468750
0.256250 0.362500 0.468750
0.362500 0.362500 0.468750
0.468750 0.362500 0.468750
0.575000 0.362500 0.468750
0.681250 0.362500 0.468750
0.787500 0.362500 0.468750
0.893750 0.362500 0.468750
1.000000 0.362500 0.468750
0.150000 0.468750 0.468750
0.256250 0.468750 0.468750
0.362500 0.468750 0.468750
0.468750 0.468750 0.468750
0.575000 0.468750 0.468750
0.681250 0.468750 0.468750
0.787500 0.468750 0.468750
0.893750 0.468750 0.468750
1.000000 0.468750 0.468750
0.150000 0.575000 0.468750
0.256250 0.575000 0.468750
0.362500 0.575000 0.468750
0.468750 0.575000 0.468750
0.575000 0.575000 0.468750
0.681250 0.575000 0.468750
0.787500 0.575000 0.468750
0.893750 0.575000 0.468750
1.000000 0.575000 0.468750
0.150000 0.681250 0.468750
0.256250 0.681250 0.468750
0.362500 0.681250 0.468750
0.468750 0.681250 0.468750
0.575000 0.681250 0.468750
0.681250 0.681250 0.468750
0.787500 0.681250 0.468750
0.893750 0.681250 0.468750
1.000000 0.681250 0.468750
0.150000 0.787500 0.468750
0.256250 0.787500 0.468750
0.362500 0.787500 0.468750
0.468750 0.787500 0.468750
0.575000 0.787500 0.468750
0.681250 0.787500 0.468750
0.787500 0.787500 0.468750
0.893750 0.787500 0.468750
1.000000 0.787500 0.468750
0.150000 0.893750 0.468750
0.256250 0.893750 0.468750
0.362500 0.893750 0.468750
0.468750 0.893750 0.468750
0.575000 0.893750 0.468750
0.681250 0.893750 0.468750
0.787500 0.893750 0.468750
0.893750 0.893750 0.468750
1.000000 0.893750 0.468750
0.150000 1.000000 0.468750
0.256250 1.000000 0.468750
0.362500 1.000000 0.468750
0.468750 1.000000 0.468750
0.575000 1.000000 0.468750
0.681250 1.000000 0.468750
0.787500 1.000000 0.468750
0.893750 1.000000 0.468750
1.000000 1.000000 0.468750
0.150000 0.150000 0.575000
0.256250 0.150000 0.575000
0.362500 0.150000 0.575000
0.468750 0.150000 0.575000
0.575000 0.150000 0.575000
0.681250 0.150000 0.575000
0.787500 0.150000 0.575000
0.893750 0.150000 0.575000
1.000000 0.150000 0.575000
0.150000 0.256250 0.575000
0.256250 0.256250 0.575000
0.362500 0.256250 0.575000
0.468750 0.256250 0.575000
0.575000 0.256250 0.575000
0.681250 0.256250 0.575000
0.787500 0.256250 0.575000
0.893750 0.256250 0.575000
1.000000 0.256250 0.575000
0.150000 0.362500 0.575000
0.256250 0.362500 0.575000
0.362500 0.362500 0.575000
0.468750 0.362500 0.575000
0.575000 0.362500 0.575000
0.681250 0.362500 0.575000
0.787500 0.362500 0.575000
0.893750 0.362500 0.575000
1.000000 0.362500 0.575000
0.150000 0.468750 0.575000
0.256250 0.468750 0.575000
0.362500 0.468750 0.575000
0.468750 0.468750 0.575000
0.575000 0.468750 0.575000
0.681250 0.468750 0.575000
0.787500 0.468750 0.575000
0.893750 0.468750 0.575000
1.000000 0.468750 0.575000
0.150000 0.575000 0.575000
0.256250 0.575000 0.575000
0.362500 0.575000 0.575000
0.468750 0.575000 0.575000
0.575000 0.575000 0.575000
0.681250 0.575000 0.575000
0.787500 0.575000 0.575000
0.893750 0.575000 0.575000
1.000000 0.575000 0.575000
0.150000 0.681250 0.575000
0.256250 0.681250 0.575000
0.362500 0.681250 0.575000
0.468750 0.681250 0.575000
0.575000 0.681250 0.575000
0.681250 0.681250 0.575000
0.787500 0.681250 0.575000
0.893750 0.681250 0.575000
1.000000 0.681250 0.575000
0.150000 0.787500 0.575000
0.256250 0.787500 0.575000
0.362500 0.787500 0.575000
0.468750 0.787500 0.575000
0.575000 0.787500 0.575000
0.681250 0.787500 0.575000
0.787500 0.787500 0.575000
0.893750 0.787500 0.575000
1.000000 0.787500 0.575000
0.150000 0.893750 0.575000
0.256250 0.893750 0.575000
0.362500 0.893750 0.575000
0.468750 0.893750 0.575000
0.575000 0.893750 0.575000
0.681250 0.893750 0.575000
0.787500 0.893750 0.575000
0.893750 0.893750 0.575000
1.000000 0.893750 0.575000
0.150000 1.000000 0.575000
0.256250 1.000000 0.575000
0.362500 1.000000 0.575000
0.468750 1.000000 0.575000
0.575000 1.000000 0.575000
0.681250 1.000000 0.575000
0.787500 1.000000 0.575000
0.893750 1.000000 0.575000
1.000000 1.000000 0.575000
0.150000 0.150000 0.681250
0.256250 0.150000 0.681250
0.362500 0.150000 0.681250
0.468750 0.150000 0.681250
0.575000 0.150000 0.681250
0.681250 0.150000 0.681250
0.787500 0.150000 0.681250
0.893750 0.150000 0.681250
1.000000 0.150000 0.681250
0.150000 0.256250 0.681250
0.256250 0.256250 0.681250
0.362500 0.256250 0.681250
0.468750 0.256250 0.681250
0.575000 0.256250 0.681250
0.681250 0.256250 0.681250
0.787500 0.256250 0.681250
0.893750 0.256250 0.681250
1.000000 0.256250 0.681250
0.150000 0.362500 0.681250
0.256250 0.362500 0.681250
0.362500 0.362500 0.681250
0.468750 0.362500 0.681250
0.575000 0.362500 0.681250
0.681250 0.362500 0.681250
0.787500 0.362500 0.681250
0.893750 0.362500 0.681250
1.000000 0.362500 0.681250
0.150000 0.468750 0.681250
0.256250 0.468750 0.681250
0.362500 0.468750 0.681250
0.468750 0.468750 0.681250
0.575000 0.468750 0.681250
0.681250 0.468750 0.681250
0.787500 0.468750 0.681250
0.893750 0.468750 0.681250
1.000000 0.468750 0.681250
0.150000 0.575000 0.681250
0.256250 0.575000 0.681250
0.362500 0.575000 0.681250
0.468750 0.575000 0.681250
0.575000 0.575000 0.681250
0.681250 0.575000 0.681250
0.787500 0.575000 0.681250
0.893750 0.575000 0.681250
1.000000 0.575000 0.681250
0.150000 0.681250 0.681250
0.256250 0.681250 0.681250
0.362500 0.681250 0.681250
0.468750 0.681250 0.681250
0.575000 0.681250 0.681250
0.681250 0.681250 0.681250
0.787500 0.681250 0.681250
0.893750 0.681250 0.681250
1.000000 0.681250 0.681250
0.150000 0.787500 0.681250
0.256250 0.787500 0.681250
0.362500 0.787500 0.681250
0.468750 0.787500 0.681250
0.575000 0.787500 0.681250
0.681250 0.787500 0.681250
0.787500 0.787500 0.681250
0.893750 0.787500 0.681250
1.000000 0.787500 0.681250
0.150000 0.893750 0.681250
0.256250 0.893750 0.681250
0.362500 0.893750 0.681250
0.468750 0.893750 0.681250
0.575000 0.893750 0.681250
0.681250 0.893750 0.681250
0.787500 0.893750 0.681250
0.893750 0.893750 0.681250
1.000000 0.893750 0.681250
0.150000 1.000000 0.681250
0.256250 1.000000 0.681250
0.362500 1.000000 0.681250
0.468750 1.000000 0.681250
0.575000 1.000000 0.681250
0.681250 1.000000 0.681250
0.787500 1.000000 0.681250
0.893750 1.000000 0.681250
1.000000 1.000000 0.681250
0.150000 0.150000 0.787500
0.256250 0.150000 0.787500
0.362500 0.150000 0.787500
0.468750 0.150000 0.787500
0.575000 0.150000 0.787500
0.681250 0.150000 0.787500
0.787500 0.150000 0.787500
0.893750 0.150000 0.787500
1.000000 0.150000 0.787500
0.150000 0.256250 0.787500
0.256250 0.256250 0.787500
0.362500 0.256250 0.787500
0.468750 0.256250 0.787500
0.575000 0.256250 0.787500
0.681250 0.256250 0.787500
0.787500 0.256250 0.787500
0.893750 0.256250 0.787500
1.000000 0.256250 0.787500
0.150000 0.362500 0.787500
0.256250 0.362500 0.787500
0.362500 0.362500 0.787500
0.468750 0.362500 0.787500
0.575000 0.362500 0.787500
0.681250 0.362500 0.787500
0.787500 0.362500 0.787500
0.893750 0.362500 0.787500
1.000000 0.362500 0.787500
0.150000 0.468750 0.787500
0.256250 0.468750 0.787500
0.362500 0.468750 0.787500
0.468750 0.468750 0.787500
0.575000 0.468750 0.787500
0.681250 0.468750 0.787500
0.787500 0.468750 0.787500
0.893750 0.468750 0.787500
1.000000 0.468750 0.787500
0.150000 0.575000 0.787500
0.256250 0.575000 0.787500
0.362500 0.575000 0.787500
0.468750 0.575000 0.787500
0.575000 0.575000 0.787500
0.681250 0.575000 0.787500
0.787500 0.575000 0.787500
0.893750 0.575000 0.787500
1.000000 0.575000 0.787500
0.150000 0.681250 0.787500
0.256250 0.681250 0.787500
0.362500 0.681250 0.787500
0.468750 0.681250 0.787500
0.575000 0.681250 0.787500
0.681250 0.681250 0.787500
0.787500 0.681250 0.787500
0.893750 0.681250 0.787500
1.000000 0.681250 0.787500
0.150000 0.787500 0.787500
0.256250 0.787500 0.787500
0.362500 0.787500 0.787500
0.468750 0.787500 0.787500
0.575000 0.787500 0.787500
0.681250 0.787500 0.787500
0.787500 0.787500 0.787500
0.893750 0.787500 0.787500
1.000000 0.787500 0.787500
0.150000 0.893750 0.787500
0.256250 0.893750 0.787500
0.362500 0.893750 0.787500
0.468750 0.893750 0.787500
0.575000 0.893750 0.787500
0.681250 0.893750 0.787500
0.787500 0.893750 0.787500
0.893750 0.893750 0.787500
1.000000 0.893750 0.787500
0.150000 1.000000 0.787500
0.256250 1.000000 0.787500
0.362500 1.000000 0.787500
0.468750 1.000000 0.787500
0.575000 1.000000 0.787500
0.681250 1.000000 0.787500
0.787500 1.000000 0.787500
0.893750 1.000000 0.787500
1.000000 1.000000 0.787500
0.150000 0.150000 0.893750
0.256250 0.150000 0.893750
0.362500 0.150000 0.893750
0.468750 0.150000 0.893750
0.575000 0.150000 0.893750
0.681250 0.150000 0.893750
0.787500 0.150000 0.893750
0.893750 0.150000 0.893750
1.000000 0.150000 0.893750
0.150000 0.256250 0.893750
0.256250 0.256250 0.893750
0.362500 0.256250 0.893750
0.468750 0.256250 0.893750
0.575000 0.256250 0.893750
0.681250 0.256250 0.893750
0.787500 0.256250 0.893750
0.893750 0.256250 0.893750
1.000000 0.256250 0.893750
0.150000 0.362500 0.893750
0.256250 0.362500 0.893750
0.362500 0.362500 0.893750
0.468750 0.362500 0.893750
0.575000 0.362500 0.893750
0.681250 0.362500 0.893750
0.787500 0.362500 0.893750
0.893750 0.362500 0.893750
1.000000 0.362500 0.893750
0.150000 0.468750 0.893750
0.256250 0.468750 0.893750
0.362500 0.468750 0.893750
0.468750 0.468750 0.893750
0.575000 0.468750 0.893750
0.681250 0.468750 0.893750
0.787500 0.468750 0.893750
0.893750 0.468750 0.893750
1.000000 0.468750 0.893750
0.150000 0.575000 0.893750
0.256250 0.575000 0.893750
0.362500 0.575000 0.893750
0.468750 0.575000 0.893750
0.575000 0.575000 0.893750
0.681250 0.575000 0.893750
0.787500 0.575000 0.893750
0.893750 0.575000 0.893750
1.000000 0.575000 0.893750
0.150000 0.681250 0.893750
0.256250 0.681250 0.893750
0.362500 0.681250 0.893750
0.468750 0.681250 0.893750
0.575000 0.681250 0.893750
0.681250 0.681250 0.893750
0.787500 0.681250 0.893750
0.893750 0.681250 0.893750
1.000000 0.681250 0.893750
0.150000 0.787500 0.893750
0.256250 0.787500 0.893750
0.362500 0.787500 0.893750
0.468750 0.787500 0.893750
0.575000 0.787500 0.893750
0.681250 0.787500 0.893750
0.787500 0.787500 0.893750
0.893750 0.787500 0.893750
1.000000 0.787500 0.893750
0.150000 0.893750 0.893750
0.256250 0.893750 0.893750
0.362500 0.893750 0.893750
0.468750 0.893750 0.893750
0.575000 0.893750 0.893750
0.681250 0.893750 0.893750
0.787500 0.893750 0.893750
0.893750 0.893750 0.893750
1.000000 0.893750 0.893750
0.150000 1.000000 0.893750
0.256250 1.000000 0.893750
0.362500 1.000000 0.893750
0.468750 1.000000 0.893750
0.575000 1.000000 0.893750
0.681250 1.000000 0.893750
0.787500 1.000000 0.893750
0.893750 1.000000 0.893750
1.000000 1.000000 0.893750
0.150000 0.150000 1.000000
0.256250 0.150000 1.000000
0.362500 0.150000 1.000000
0.468750 0.150000 1.000000
0.575000 0.150000 1.000000
0.681250 0.150000 1.000000
0.787500 0.150000 1.000000
0.893750 0.150000 1.000000
1.000000 0.150000 1.000000
0.150000 0.256250 1.000000
0.256250 0.256250 1.000000
0.362500 0.256250 1.000000
0.468750 0.256250 1.000000
0.575000 0.256250 1.000000
0.681250 0.256250 1.000000
0.787500 0.256250 1.000000
0.893750 0.256250 1.000000
1.000000 0.256250 1.000000
0.150000 0.362500 1.000000
0.256250 0.362500 1.000000
0.362500 0.362500 1.000000
0.468750 0.362500 1.000000
0.575000 0.362500 1.000000
0.681250 0.362500 1.000000
0.787500 0.362500 1.000000
0.893750 0.362500 1.000000
1.000000 0.362500 1.000000
0.150000 0.468750 1.000000
0.256250 0.468750 1.000000
0.362500 0.468750 1.000000
0.468750 0.468750 1.000000
0.575000 0.468750 1.000000
0.681250 0.468750 1.000000
0.787500 0.468750 1.000000
0.893750 0.468750 1.000000
1.000000 0.468750 1.000000
0.150000 0.575000 1.000000
0.256250 0.575000 1.000000
0.362500 0.575000 1.000000
0.468750 0.575000 1.000000
0.575000 0.575000 1.000000
0.681250 0.575000 1.000000
0.787500 0.575000 1.000000
0.893750 0.575000 1.000000
1.000000 0.575000 1.000000
0.150000 0.681250 1.000000
0.256250 0.681250 1.000000
0.362500 0.681250 1.000000
0.468750 0.681250 1.000000
0.575000 0.681250 1.000000
0.681250 0.681250 1.000000
0.787500 0.681250 1.000000
0.893750 0.681250 1.000000
1.000000 0.681250 1.000000
0.150000 0.787500 1.000000
0.256250 0.787500 1.000000
0.362500 0.787500 1.000000
0.468750 0.787500 1.000000
0.575000 0.787500 1.000000
0.681250 0.787500 1.000000
0.787500 0.787500 1.000000
0.893750 0.787500 1.000000
1.000000 0.787500 1.000000
0.150000 0.893750 1.000000
0.256250 0.893750 1.000000
0.362500 0.893750 1.000000
0.468750 0.893750 1.000000
0.575000 0.893750 1.000000
0.681250 0.893750 1.000000
0.787500 0.893750 1.000000
0.893750 0.893750 1.000000
1.000000 0.893750 1.000000
0.150000 1.000000 1.000000
0.256250 1.000000 1.000000
0.362500 1.000000 1.000000
0.468750 1.000000 1.000000
0.575000 1.000000 1.000000
0.681250 1.000000 1.000000
0.787500 1.000000 1.000000
0.893750 1.000000 1.000000
1.000000 1.000000 1.000000
