public/luts/high-key.cube
# Recut LookBook — high-key
LUT_3D_SIZE 17
DOMAIN_MIN 0 0 0
DOMAIN_MAX 1 1 1
0.150000 0.150000 0.150000
0.203125 0.150000 0.150000
0.256250 0.150000 0.150000
0.309375 0.150000 0.150000
0.362500 0.150000 0.150000
0.415625 0.150000 0.150000
0.468750 0.150000 0.150000
0.521875 0.150000 0.150000
0.575000 0.150000 0.150000
0.628125 0.150000 0.150000
0.681250 0.150000 0.150000
0.734375 0.150000 0.150000
0.787500 0.150000 0.150000
0.840625 0.150000 0.150000
0.893750 0.150000 0.150000
0.946875 0.150000 0.150000
1.000000 0.150000 0.150000
0.150000 0.203125 0.150000
0.203125 0.203125 0.150000
0.256250 0.203125 0.150000
0.309375 0.203125 0.150000
0.362500 0.203125 0.150000
0.415625 0.203125 0.150000
0.468750 0.203125 0.150000
0.521875 0.203125 0.150000
0.575000 0.203125 0.150000
0.628125 0.203125 0.150000
0.681250 0.203125 0.150000
0.734375 0.203125 0.150000
0.787500 0.203125 0.150000
0.840625 0.203125 0.150000
0.893750 0.203125 0.150000
0.946875 0.203125 0.150000
1.000000 0.203125 0.150000
0.150000 0.256250 0.150000
0.203125 0.256250 0.150000
0.256250 0.256250 0.150000
0.309375 0.256250 0.150000
0.362500 0.256250 0.150000
0.415625 0.256250 0.150000
0.468750 0.256250 0.150000
0.521875 0.256250 0.150000
0.575000 0.256250 0.150000
0.628125 0.256250 0.150000
0.681250 0.256250 0.150000
0.734375 0.256250 0.150000
0.787500 0.256250 0.150000
0.840625 0.256250 0.150000
0.893750 0.256250 0.150000
0.946875 0.256250 0.150000
1.000000 0.256250 0.150000
0.150000 0.309375 0.150000
0.203125 0.309375 0.150000
0.256250 0.309375 0.150000
0.309375 0.309375 0.150000
0.362500 0.309375 0.150000
0.415625 0.309375 0.150000
0.468750 0.309375 0.150000
0.521875 0.309375 0.150000
0.575000 0.309375 0.150000
0.628125 0.309375 0.150000
0.681250 0.309375 0.150000
0.734375 0.309375 0.150000
0.787500 0.309375 0.150000
0.840625 0.309375 0.150000
0.893750 0.309375 0.150000
0.946875 0.309375 0.150000
1.000000 0.309375 0.150000
0.150000 0.362500 0.150000
0.203125 0.362500 0.150000
0.256250 0.362500 0.150000
0.309375 0.362500 0.150000
0.362500 0.362500 0.150000
0.415625 0.362500 0.150000
0.468750 0.362500 0.150000
0.521875 0.362500 0.150000
0.575000 0.362500 0.150000
0.628125 0.362500 0.150000
0.681250 0.362500 0.150000
0.734375 0.362500 0.150000
0.787500 0.362500 0.150000
0.840625 0.362500 0.150000
0.893750 0.362500 0.150000
0.946875 0.362500 0.150000
1.000000 0.362500 0.150000
0.150000 0.415625 0.150000
0.203125 0.415625 0.150000
0.256250 0.415625 0.150000
0.309375 0.415625 0.150000
0.362500 0.415625 0.150000
0.415625 0.415625 0.150000
0.468750 0.415625 0.150000
0.521875 0.415625 0.150000
0.575000 0.415625 0.150000
0.628125 0.415625 0.150000
0.681250 0.415625 0.150000
0.734375 0.415625 0.150000
0.787500 0.415625 0.150000
0.840625 0.415625 0.150000
0.893750 0.415625 0.150000
0.946875 0.415625 0.150000
1.000000 0.415625 0.150000
0.150000 0.468750 0.150000
0.203125 0.468750 0.150000
0.256250 0.468750 0.150000
0.309375 0.468750 0.150000
0.362500 0.468750 0.150000
0.415625 0.468750 0.150000
0.468750 0.468750 0.150000
0.521875 0.468750 0.150000
0.575000 0.468750 0.150000
0.628125 0.468750 0.150000
0.681250 0.468750 0.150000
0.734375 0.468750 0.150000
0.787500 0.468750 0.150000
0.840625 0.468750 0.150000
0.893750 0.468750 0.150000
0.946875 0.468750 0.150000
1.000000 0.468750 0.150000
0.150000 0.521875 0.150000
0.203125 0.521875 0.150000
0.256250 0.521875 0.150000
0.309375 0.521875 0.150000
0.362500 0.521875 0.150000
0.415625 0.521875 0.150000
0.468750 0.521875 0.150000
0.521875 0.521875 0.150000
0.575000 0.521875 0.150000
0.628125 0.521875 0.150000
0.681250 0.521875 0.150000
0.734375 0.521875 0.150000
0.787500 0.521875 0.150000
0.840625 0.521875 0.150000
0.893750 0.521875 0.150000
0.946875 0.521875 0.150000
1.000000 0.521875 0.150000
0.150000 0.575000 0.150000
0.203125 0.575000 0.150000
0.256250 0.575000 0.150000
0.309375 0.575000 0.150000
0.362500 0.575000 0.150000
0.415625 0.575000 0.150000
0.468750 0.575000 0.150000
0.521875 0.575000 0.150000
0.575000 0.575000 0.150000
0.628125 0.575000 0.150000
0.681250 0.575000 0.150000
0.734375 0.575000 0.150000
0.787500 0.575000 0.150000
0.840625 0.575000 0.150000
0.893750 0.575000 0.150000
0.946875 0.575000 0.150000
1.000000 0.575000 0.150000
0.150000 0.628125 0.150000
0.203125 0.628125 0.150000
0.256250 0.628125 0.150000
0.309375 0.628125 0.150000
0.362500 0.628125 0.150000
0.415625 0.628125 0.150000
0.468750 0.628125 0.150000
0.521875 0.628125 0.150000
0.575000 0.628125 0.150000
0.628125 0.628125 0.150000
0.681250 0.628125 0.150000
0.734375 0.628125 0.150000
0.787500 0.628125 0.150000
0.840625 0.628125 0.150000
0.893750 0.628125 0.150000
0.946875 0.628125 0.150000
1.000000 0.628125 0.150000
0.150000 0.681250 0.150000
0.203125 0.681250 0.150000
0.256250 0.681250 0.150000
0.309375 0.681250 0.150000
0.362500 0.681250 0.150000
0.415625 0.681250 0.150000
0.468750 0.681250 0.150000
0.521875 0.681250 0.150000
0.575000 0.681250 0.150000
0.628125 0.681250 0.150000
0.681250 0.681250 0.150000
0.734375 0.681250 0.150000
0.787500 0.681250 0.150000
0.840625 0.681250 0.150000
0.893750 0.681250 0.150000
0.946875 0.681250 0.150000
1.000000 0.681250 0.150000
0.150000 0.734375 0.150000
0.203125 0.734375 0.150000
0.256250 0.734375 0.150000
0.309375 0.734375 0.150000
0.362500 0.734375 0.150000
0.415625 0.734375 0.150000
0.468750 0.734375 0.150000
0.521875 0.734375 0.150000
0.575000 0.734375 0.150000
0.628125 0.734375 0.150000
0.681250 0.734375 0.150000
0.734375 0.734375 0.150000
0.787500 0.734375 0.150000
0.840625 0.734375 0.150000
0.893750 0.734375 0.150000
0.946875 0.734375 0.150000
1.000000 0.734375 0.150000
0.150000 0.787500 0.150000
0.203125 0.787500 0.150000
0.256250 0.787500 0.150000
0.309375 0.787500 0.150000
0.362500 0.787500 0.150000
0.415625 0.787500 0.150000
0.468750 0.787500 0.150000
0.521875 0.787500 0.150000
0.575000 0.787500 0.150000
0.628125 0.787500 0.150000
0.681250 0.787500 0.150000
0.734375 0.787500 0.150000
0.787500 0.787500 0.150000
0.840625 0.787500 0.150000
0.893750 0.787500 0.150000
0.946875 0.787500 0.150000
1.000000 0.787500 0.150000
0.150000 0.840625 0.150000
0.203125 0.840625 0.150000
0.256250 0.840625 0.150000
0.309375 0.840625 0.150000
0.362500 0.840625 0.150000
0.415625 0.840625 0.150000
0.468750 0.840625 0.150000
0.521875 0.840625 0.150000
0.575000 0.840625 0.150000
0.628125 0.840625 0.150000
0.681250 0.840625 0.150000
0.734375 0.840625 0.150000
0.787500 0.840625 0.150000
0.840625 0.840625 0.150000
0.893750 0.840625 0.150000
0.946875 0.840625 0.150000
1.000000 0.840625 0.150000
0.150000 0.893750 0.150000
0.203125 0.893750 0.150000
0.256250 0.893750 0.150000
0.309375 0.893750 0.150000
0.362500 0.893750 0.150000
0.415625 0.893750 0.150000
0.468750 0.893750 0.150000
0.521875 0.893750 0.150000
0.575000 0.893750 0.150000
0.628125 0.893750 0.150000
0.681250 0.893750 0.150000
0.734375 0.893750 0.150000
0.787500 0.893750 0.150000
0.840625 0.893750 0.150000
0.893750 0.893750 0.150000
0.946875 0.893750 0.150000
1.000000 0.893750 0.150000
0.150000 0.946875 0.150000
0.203125 0.946875 0.150000
0.256250 0.946875 0.150000
0.309375 0.946875 0.150000
0.362500 0.946875 0.150000
0.415625 0.946875 0.150000
0.468750 0.946875 0.150000
0.521875 0.946875 0.150000
0.575000 0.946875 0.150000
0.628125 0.946875 0.150000
0.681250 0.946875 0.150000
0.734375 0.946875 0.150000
0.787500 0.946875 0.150000
0.840625 0.946875 0.150000
0.893750 0.946875 0.150000
0.946875 0.946875 0.150000
1.000000 0.946875 0.150000
0.150000 1.000000 0.150000
0.203125 1.000000 0.150000
0.256250 1.000000 0.150000
0.309375 1.000000 0.150000
0.362500 1.000000 0.150000
0.415625 1.000000 0.150000
0.468750 1.000000 0.150000
0.521875 1.000000 0.150000
0.575000 1.000000 0.150000
0.628125 1.000000 0.150000
0.681250 1.000000 0.150000
0.734375 1.000000 0.150000
0.787500 1.000000 0.150000
0.840625 1.000000 0.150000
0.893750 1.000000 0.150000
0.946875 1.000000 0.150000
1.000000 1.000000 0.150000
0.150000 0.150000 0.203125
0.203125 0.150000 0.203125
0.256250 0.150000 0.203125
0.309375 0.150000 0.203125
0.362500 0.150000 0.203125
0.415625 0.150000 0.203125
0.468750 0.150000 0.203125
0.521875 0.150000 0.203125
0.575000 0.150000 0.203125
0.628125 0.150000 0.203125
0.681250 0.150000 0.203125
0.734375 0.150000 0.203125
0.787500 0.150000 0.203125
0.840625 0.150000 0.203125
0.893750 0.150000 0.203125
0.946875 0.150000 0.203125
1.000000 0.150000 0.203125
0.150000 0.203125 0.203125
0.203125 0.203125 0.203125
0.256250 0.203125 0.203125
0.309375 0.203125 0.203125
0.362500 0.203125 0.203125
0.415625 0.203125 0.203125
0.468750 0.203125 0.203125
0.521875 0.203125 0.203125
0.575000 0.203125 0.203125
0.628125 0.203125 0.203125
0.681250 0.203125 0.203125
0.734375 0.203125 0.203125
0.787500 0.203125 0.203125
0.840625 0.203125 0.203125
0.893750 0.203125 0.203125
0.946875 0.203125 0.203125
1.000000 0.203125 0.203125
0.150000 0.256250 0.203125
0.203125 0.256250 0.203125
0.256250 0.256250 0.203125
0.309375 0.256250 0.203125
0.362500 0.256250 0.203125
0.415625 0.256250 0.203125
0.468750 0.256250 0.203125
0.521875 0.256250 0.203125
0.575000 0.256250 0.203125
0.628125 0.256250 0.203125
0.681250 0.256250 0.203125
0.734375 0.256250 0.203125
0.787500 0.256250 0.203125
0.840625 0.256250 0.203125
0.893750 0.256250 0.203125
0.946875 0.256250 0.203125
1.000000 0.256250 0.203125
0.150000 0.309375 0.203125
0.203125 0.309375 0.203125
0.256250 0.309375 0.203125
0.309375 0.309375 0.203125
0.362500 0.309375 0.203125
0.415625 0.309375 0.203125
0.468750 0.309375 0.203125
0.521875 0.309375 0.203125
0.575000 0.309375 0.203125
0.628125 0.309375 0.203125
0.681250 0.309375 0.203125
0.734375 0.309375 0.203125
0.787500 0.309375 0.203125
0.840625 0.309375 0.203125
0.893750 0.309375 0.203125
0.946875 0.309375 0.203125
1.000000 0.309375 0.203125
0.150000 0.362500 0.203125
0.203125 0.362500 0.203125
0.256250 0.362500 0.203125
0.309375 0.362500 0.203125
0.362500 0.362500 0.203125
0.415625 0.362500 0.203125
0.468750 0.362500 0.203125
0.521875 0.362500 0.203125
0.575000 0.362500 0.203125
0.628125 0.362500 0.203125
0.681250 0.362500 0.203125
0.734375 0.362500 0.203125
0.787500 0.362500 0.203125
0.840625 0.362500 0.203125
0.893750 0.362500 0.203125
0.946875 0.362500 0.203125
1.000000 0.362500 0.203125
0.150000 0.415625 0.203125
0.203125 0.415625 0.203125
0.256250 0.415625 0.203125
0.309375 0.415625 0.203125
0.362500 0.415625 0.203125
0.415625 0.415625 0.203125
0.468750 0.415625 0.203125
0.521875 0.415625 0.203125
0.575000 0.415625 0.203125
0.628125 0.415625 0.203125
0.681250 0.415625 0.203125
0.734375 0.415625 0.203125
0.787500 0.415625 0.203125
0.840625 0.415625 0.203125
0.893750 0.415625 0.203125
0.946875 0.415625 0.203125
1.000000 0.415625 0.203125
0.150000 0.468750 0.203125
0.203125 0.468750 0.203125
0.256250 0.468750 0.203125
0.309375 0.468750 0.203125
0.362500 0.468750 0.203125
0.415625 0.468750 0.203125
0.468750 0.468750 0.203125
0.521875 0.468750 0.203125
0.575000 0.468750 0.203125
0.628125 0.468750 0.203125
0.681250 0.468750 0.203125
0.734375 0.468750 0.203125
0.787500 0.468750 0.203125
0.840625 0.468750 0.203125
0.893750 0.468750 0.203125
0.946875 0.468750 0.203125
1.000000 0.468750 0.203125
0.150000 0.521875 0.203125
0.203125 0.521875 0.203125
0.256250 0.521875 0.203125
0.309375 0.521875 0.203125
0.362500 0.521875 0.203125
0.415625 0.521875 0.203125
0.468750 0.521875 0.203125
0.521875 0.521875 0.203125
0.575000 0.521875 0.203125
0.628125 0.521875 0.203125
0.681250 0.521875 0.203125
0.734375 0.521875 0.203125
0.787500 0.521875 0.203125
0.840625 0.521875 0.203125
0.893750 0.521875 0.203125
0.946875 0.521875 0.203125
1.000000 0.521875 0.203125
0.150000 0.575000 0.203125
0.203125 0.575000 0.203125
0.256250 0.575000 0.203125
0.309375 0.575000 0.203125
0.362500 0.575000 0.203125
0.415625 0.575000 0.203125
0.468750 0.575000 0.203125
0.521875 0.575000 0.203125
0.575000 0.575000 0.203125
0.628125 0.575000 0.203125
0.681250 0.575000 0.203125
0.734375 0.575000 0.203125
0.787500 0.575000 0.203125
0.840625 0.575000 0.203125
0.893750 0.575000 0.203125
0.946875 0.575000 0.203125
1.000000 0.575000 0.203125
0.150000 0.628125 0.203125
0.203125 0.628125 0.203125
0.256250 0.628125 0.203125
0.309375 0.628125 0.203125
0.362500 0.628125 0.203125
0.415625 0.628125 0.203125
0.468750 0.628125 0.203125
0.521875 0.628125 0.203125
0.575000 0.628125 0.203125
0.628125 0.628125 0.203125
0.681250 0.628125 0.203125
0.734375 0.628125 0.203125
0.787500 0.628125 0.203125
0.840625 0.628125 0.203125
0.893750 0.628125 0.203125
0.946875 0.628125 0.203125
1.000000 0.628125 0.203125
0.150000 0.681250 0.203125
0.203125 0.681250 0.203125
0.256250 0.681250 0.203125
0.309375 0.681250 0.203125
0.362500 0.681250 0.203125
0.415625 0.681250 0.203125
0.468750 0.681250 0.203125
0.521875 0.681250 0.203125
0.575000 0.681250 0.203125
0.628125 0.681250 0.203125
0.681250 0.681250 0.203125
0.734375 0.681250 0.203125
0.787500 0.681250 0.203125
0.840625 0.681250 0.203125
0.893750 0.681250 0.203125
0.946875 0.681250 0.203125
1.000000 0.681250 0.203125
0.150000 0.734375 0.203125
0.203125 0.734375 0.203125
0.256250 0.734375 0.203125
0.309375 0.734375 0.203125
0.362500 0.734375 0.203125
0.415625 0.734375 0.203125
0.468750 0.734375 0.203125
0.521875 0.734375 0.203125
0.575000 0.734375 0.203125
0.628125 0.734375 0.203125
0.681250 0.734375 0.203125
0.734375 0.734375 0.203125
0.787500 0.734375 0.203125
0.840625 0.734375 0.203125
0.893750 0.734375 0.203125
0.946875 0.734375 0.203125
1.000000 0.734375 0.203125
0.150000 0.787500 0.203125
0.203125 0.787500 0.203125
0.256250 0.787500 0.203125
0.309375 0.787500 0.203125
0.362500 0.787500 0.203125
0.415625 0.787500 0.203125
0.468750 0.787500 0.203125
0.521875 0.787500 0.203125
0.575000 0.787500 0.203125
0.628125 0.787500 0.203125
0.681250 0.787500 0.203125
0.734375 0.787500 0.203125
0.787500 0.787500 0.203125
0.840625 0.787500 0.203125
0.893750 0.787500 0.203125
0.946875 0.787500 0.203125
1.000000 0.787500 0.203125
0.150000 0.840625 0.203125
0.203125 0.840625 0.203125
0.256250 0.840625 0.203125
0.309375 0.840625 0.203125
0.362500 0.840625 0.203125
0.415625 0.840625 0.203125
0.468750 0.840625 0.203125
0.521875 0.840625 0.203125
0.575000 0.840625 0.203125
0.628125 0.840625 0.203125
0.681250 0.840625 0.203125
0.734375 0.840625 0.203125
0.787500 0.840625 0.203125
0.840625 0.840625 0.203125
0.893750 0.840625 0.203125
0.946875 0.840625 0.203125
1.000000 0.840625 0.203125
0.150000 0.893750 0.203125
0.203125 0.893750 0.203125
0.256250 0.893750 0.203125
0.309375 0.893750 0.203125
0.362500 0.893750 0.203125
0.415625 0.893750 0.203125
0.468750 0.893750 0.203125
0.521875 0.893750 0.203125
0.575000 0.893750 0.203125
0.628125 0.893750 0.203125
0.681250 0.893750 0.203125
0.734375 0.893750 0.203125
0.787500 0.893750 0.203125
0.840625 0.893750 0.203125
0.893750 0.893750 0.203125
0.946875 0.893750 0.203125
1.000000 0.893750 0.203125
0.150000 0.946875 0.203125
0.203125 0.946875 0.203125
0.256250 0.946875 0.203125
0.309375 0.946875 0.203125
0.362500 0.946875 0.203125
0.415625 0.946875 0.203125
0.468750 0.946875 0.203125
0.521875 0.946875 0.203125
0.575000 0.946875 0.203125
0.628125 0.946875 0.203125
0.681250 0.946875 0.203125
0.734375 0.946875 0.203125
0.787500 0.946875 0.203125
0.840625 0.946875 0.203125
0.893750 0.946875 0.203125
0.946875 0.946875 0.203125
1.000000 0.946875 0.203125
0.150000 1.000000 0.203125
0.203125 1.000000 0.203125
0.256250 1.000000 0.203125
0.309375 1.000000 0.203125
0.362500 1.000000 0.203125
0.415625 1.000000 0.203125
0.468750 1.000000 0.203125
0.521875 1.000000 0.203125
0.575000 1.000000 0.203125
0.628125 1.000000 0.203125
0.681250 1.000000 0.203125
0.734375 1.000000 0.203125
0.787500 1.000000 0.203125
0.840625 1.000000 0.203125
0.893750 1.000000 0.203125
0.946875 1.000000 0.203125
1.000000 1.000000 0.203125
0.150000 0.150000 0.256250
0.203125 0.150000 0.256250
0.256250 0.150000 0.256250
0.309375 0.150000 0.256250
0.362500 0.150000 0.256250
0.415625 0.150000 0.256250
0.468750 0.150000 0.256250
0.521875 0.150000 0.256250
0.575000 0.150000 0.256250
0.628125 0.150000 0.256250
0.681250 0.150000 0.256250
0.734375 0.150000 0.256250
0.787500 0.150000 0.256250
0.840625 0.150000 0.256250
0.893750 0.150000 0.256250
0.946875 0.150000 0.256250
1.000000 0.150000 0.256250
0.150000 0.203125 0.256250
0.203125 0.203125 0.256250
0.256250 0.203125 0.256250
0.309375 0.203125 0.256250
0.362500 0.203125 0.256250
0.415625 0.203125 0.256250
0.468750 0.203125 0.256250
0.521875 0.203125 0.256250
0.575000 0.203125 0.256250
0.628125 0.203125 0.256250
0.681250 0.203125 0.256250
0.734375 0.203125 0.256250
0.787500 0.203125 0.256250
0.840625 0.203125 0.256250
0.893750 0.203125 0.256250
0.946875 0.203125 0.256250
1.000000 0.203125 0.256250
0.150000 0.256250 0.256250
0.203125 0.256250 0.256250
0.256250 0.256250 0.256250
0.309375 0.256250 0.256250
0.362500 0.256250 0.256250
0.415625 0.256250 0.256250
0.468750 0.256250 0.256250
0.521875 0.256250 0.256250
0.575000 0.256250 0.256250
0.628125 0.256250 0.256250
0.681250 0.256250 0.256250
0.734375 0.256250 0.256250
0.787500 0.256250 0.256250
0.840625 0.256250 0.256250
0.893750 0.256250 0.256250
0.946875 0.256250 0.256250
1.000000 0.256250 0.256250
0.150000 0.309375 0.256250
0.203125 0.309375 0.256250
0.256250 0.309375 0.256250
0.309375 0.309375 0.256250
0.362500 0.309375 0.256250
0.415625 0.309375 0.256250
0.468750 0.309375 0.256250
0.521875 0.309375 0.256250
0.575000 0.309375 0.256250
0.628125 0.309375 0.256250
0.681250 0.309375 0.256250
0.734375 0.309375 0.256250
0.787500 0.309375 0.256250
0.840625 0.309375 0.256250
0.893750 0.309375 0.256250
0.946875 0.309375 0.256250
1.000000 0.309375 0.256250
0.150000 0.362500 0.256250
0.203125 0.362500 0.256250
0.256250 0.362500 0.256250
0.309375 0.362500 0.256250
0.362500 0.362500 0.256250
0.415625 0.362500 0.256250
0.468750 0.362500 0.256250
0.521875 0.362500 0.256250
0.575000 0.362500 0.256250
0.628125 0.362500 0.256250
0.681250 0.362500 0.256250
0.734375 0.362500 0.256250
0.787500 0.362500 0.256250
0.840625 0.362500 0.256250
0.893750 0.362500 0.256250
0.946875 0.362500 0.256250
1.000000 0.362500 0.256250
0.150000 0.415625 0.256250
0.203125 0.415625 0.256250
0.256250 0.415625 0.256250
0.309375 0.415625 0.256250
0.362500 0.415625 0.256250
0.415625 0.415625 0.256250
0.468750 0.415625 0.256250
0.521875 0.415625 0.256250
0.575000 0.415625 0.256250
0.628125 0.415625 0.256250
0.681250 0.415625 0.256250
0.734375 0.415625 0.256250
0.787500 0.415625 0.256250
0.840625 0.415625 0.256250
0.893750 0.415625 0.256250
0.946875 0.415625 0.256250
1.000000 0.415625 0.256250
0.150000 0.468750 0.256250
0.203125 0.468750 0.256250
0.256250 0.468750 0.256250
0.309375 0.468750 0.256250
0.362500 0.468750 0.256250
0.415625 0.468750 0.256250
0.468750 0.468750 0.256250
0.521875 0.468750 0.256250
0.575000 0.468750 0.256250
0.628125 0.468750 0.256250
0.681250 0.468750 0.256250
0.734375 0.468750 0.256250
0.787500 0.468750 0.256250
0.840625 0.468750 0.256250
0.893750 0.468750 0.256250
0.946875 0.468750 0.256250
1.000000 0.468750 0.256250
0.150000 0.521875 0.256250
0.203125 0.521875 0.256250
0.256250 0.521875 0.256250
0.309375 0.521875 0.256250
0.362500 0.521875 0.256250
0.415625 0.521875 0.256250
0.468750 0.521875 0.256250
0.521875 0.521875 0.256250
0.575000 0.521875 0.256250
0.628125 0.521875 0.256250
0.681250 0.521875 0.256250
0.734375 0.521875 0.256250
0.787500 0.521875 0.256250
0.840625 0.521875 0.256250
0.893750 0.521875 0.256250
0.946875 0.521875 0.256250
1.000000 0.521875 0.256250
0.150000 0.575000 0.256250
0.203125 0.575000 0.256250
0.256250 0.575000 0.256250
0.309375 0.575000 0.256250
0.362500 0.575000 0.256250
0.415625 0.575000 0.256250
0.468750 0.575000 0.256250
0.521875 0.575000 0.256250
0.575000 0.575000 0.256250
0.628125 0.575000 0.256250
0.681250 0.575000 0.256250
0.734375 0.575000 0.256250
0.787500 0.575000 0.256250
0.840625 0.575000 0.256250
0.893750 0.575000 0.256250
0.946875 0.575000 0.256250
1.000000 0.575000 0.256250
0.150000 0.628125 0.256250
0.203125 0.628125 0.256250
0.256250 0.628125 0.256250
0.309375 0.628125 0.256250
0.362500 0.628125 0.256250
0.415625 0.628125 0.256250
0.468750 0.628125 0.256250
0.521875 0.628125 0.256250
0.575000 0.628125 0.256250
0.628125 0.628125 0.256250
0.681250 0.628125 0.256250
0.734375 0.628125 0.256250
0.787500 0.628125 0.256250
0.840625 0.628125 0.256250
0.893750 0.628125 0.256250
0.946875 0.628125 0.256250
1.000000 0.628125 0.256250
0.150000 0.681250 0.256250
0.203125 0.681250 0.256250
0.256250 0.681250 0.256250
0.309375 0.681250 0.256250
0.362500 0.681250 0.256250
0.415625 0.681250 0.256250
0.468750 0.681250 0.256250
0.521875 0.681250 0.256250
0.575000 0.681250 0.256250
0.628125 0.681250 0.256250
0.681250 0.681250 0.256250
0.734375 0.681250 0.256250
0.787500 0.681250 0.256250
0.840625 0.681250 0.256250
0.893750 0.681250 0.256250
0.946875 0.681250 0.256250
1.000000 0.681250 0.256250
0.150000 0.734375 0.256250
0.203125 0.734375 0.256250
0.256250 0.734375 0.256250
0.309375 0.734375 0.256250
0.362500 0.734375 0.256250
0.415625 0.734375 0.256250
0.468750 0.734375 0.256250
0.521875 0.734375 0.256250
0.575000 0.734375 0.256250
0.628125 0.734375 0.256250
0.681250 0.734375 0.256250
0.734375 0.734375 0.256250
0.787500 0.734375 0.256250
0.840625 0.734375 0.256250
0.893750 0.734375 0.256250
0.946875 0.734375 0.256250
1.000000 0.734375 0.256250
0.150000 0.787500 0.256250
0.203125 0.787500 0.256250
0.256250 0.787500 0.256250
0.309375 0.787500 0.256250
0.362500 0.787500 0.256250
0.415625 0.787500 0.256250
0.468750 0.787500 0.256250
0.521875 0.787500 0.256250
0.575000 0.787500 0.256250
0.628125 0.787500 0.256250
0.681250 0.787500 0.256250
0.734375 0.787500 0.256250
0.787500 0.787500 0.256250
0.840625 0.787500 0.256250
0.893750 0.787500 0.256250
0.946875 0.787500 0.256250
1.000000 0.787500 0.256250
0.150000 0.840625 0.256250
0.203125 0.840625 0.256250
0.256250 0.840625 0.256250
0.309375 0.840625 0.256250
0.362500 0.840625 0.256250
0.415625 0.840625 0.256250
0.468750 0.840625 0.256250
0.521875 0.840625 0.256250
0.575000 0.840625 0.256250
0.628125 0.840625 0.256250
0.681250 0.840625 0.256250
0.734375 0.840625 0.256250
0.787500 0.840625 0.256250
0.840625 0.840625 0.256250
0.893750 0.840625 0.256250
0.946875 0.840625 0.256250
1.000000 0.840625 0.256250
0.150000 0.893750 0.256250
0.203125 0.893750 0.256250
0.256250 0.893750 0.256250
0.309375 0.893750 0.256250
0.362500 0.893750 0.256250
0.415625 0.893750 0.256250
0.468750 0.893750 0.256250
0.521875 0.893750 0.256250
0.575000 0.893750 0.256250
0.628125 0.893750 0.256250
0.681250 0.893750 0.256250
0.734375 0.893750 0.256250
0.787500 0.893750 0.256250
0.840625 0.893750 0.256250
0.893750 0.893750 0.256250
0.946875 0.893750 0.256250
1.000000 0.893750 0.256250
0.150000 0.946875 0.256250
0.203125 0.946875 0.256250
0.256250 0.946875 0.256250
0.309375 0.946875 0.256250
0.362500 0.946875 0.256250
0.415625 0.946875 0.256250
0.468750 0.946875 0.256250
0.521875 0.946875 0.256250
0.575000 0.946875 0.256250
0.628125 0.946875 0.256250
0.681250 0.946875 0.256250
0.734375 0.946875 0.256250
0.787500 0.946875 0.256250
0.840625 0.946875 0.256250
0.893750 0.946875 0.256250
0.946875 0.946875 0.256250
1.000000 0.946875 0.256250
0.150000 1.000000 0.256250
0.203125 1.000000 0.256250
0.256250 1.000000 0.256250
0.309375 1.000000 0.256250
0.362500 1.000000 0.256250
0.415625 1.000000 0.256250
0.468750 1.000000 0.256250
0.521875 1.000000 0.256250
0.575000 1.000000 0.256250
0.628125 1.000000 0.256250
0.681250 1.000000 0.256250
0.734375 1.000000 0.256250
0.787500 1.000000 0.256250
0.840625 1.000000 0.256250
0.893750 1.000000 0.256250
0.946875 1.000000 0.256250
1.000000 1.000000 0.256250
0.150000 0.150000 0.309375
0.203125 0.150000 0.309375
0.256250 0.150000 0.309375
0.309375 0.150000 0.309375
0.362500 0.150000 0.309375
0.415625 0.150000 0.309375
0.468750 0.150000 0.309375
0.521875 0.150000 0.309375
0.575000 0.150000 0.309375
0.628125 0.150000 0.309375
0.681250 0.150000 0.309375
0.734375 0.150000 0.309375
0.787500 0.150000 0.309375
0.840625 0.150000 0.309375
0.893750 0.150000 0.309375
0.946875 0.150000 0.309375
1.000000 0.150000 0.309375
0.150000 0.203125 0.309375
0.203125 0.203125 0.309375
