public/luts/kodak-2383.cube
# Recut LookBook — kodak-2383
LUT_3D_SIZE 5
DOMAIN_MIN 0 0 0
DOMAIN_MAX 1 1 1
0.000000 0.000000 0.000000
0.232500 0.000000 0.000000
0.520000 0.000000 0.000000
0.807500 0.000000 0.000000
1.000000 0.000000 0.000000
0.000000 0.220000 0.000000
0.232500 0.220000 0.000000
0.520000 0.220000 0.000000
0.807500 0.220000 0.000000
1.000000 0.220000 0.000000
0.000000 0.500000 0.000000
0.232500 0.500000 0.000000
0.520000 0.500000 0.000000
0.807500 0.500000 0.000000
1.000000 0.500000 0.000000
0.000000 0.780000 0.000000
0.232500 0.780000 0.000000
0.520000 0.780000 0.000000
0.807500 0.780000 0.000000
1.000000 0.780000 0.000000
0.000000 1.000000 0.000000
0.232500 1.000000 0.000000
0.520000 1.000000 0.000000
0.807500 1.000000 0.000000
1.000000 1.000000 0.000000
0.000000 0.000000 0.200000
0.232500 0.000000 0.200000
0.520000 0.000000 0.200000
0.807500 0.000000 0.200000
1.000000 0.000000 0.200000
0.000000 0.220000 0.200000
0.232500 0.220000 0.200000
0.520000 0.220000 0.200000
0.807500 0.220000 0.200000
1.000000 0.220000 0.200000
0.000000 0.500000 0.200000
0.232500 0.500000 0.200000
0.520000 0.500000 0.200000
0.807500 0.500000 0.200000
1.000000 0.500000 0.200000
0.000000 0.780000 0.200000
0.232500 0.780000 0.200000
0.520000 0.780000 0.200000
0.807500 0.780000 0.200000
1.000000 0.780000 0.200000
0.000000 1.000000 0.200000
0.232500 1.000000 0.200000
0.520000 1.000000 0.200000
0.807500 1.000000 0.200000
1.000000 1.000000 0.200000
0.000000 0.000000 0.480000
0.232500 0.000000 0.480000
0.520000 0.000000 0.480000
0.807500 0.000000 0.480000
1.000000 0.000000 0.480000
0.000000 0.220000 0.480000
0.232500 0.220000 0.480000
0.520000 0.220000 0.480000
0.807500 0.220000 0.480000
1.000000 0.220000 0.480000
0.000000 0.500000 0.480000
0.232500 0.500000 0.480000
0.520000 0.500000 0.480000
0.807500 0.500000 0.480000
1.000000 0.500000 0.480000
0.000000 0.780000 0.480000
0.232500 0.780000 0.480000
0.520000 0.780000 0.480000
0.807500 0.780000 0.480000
1.000000 0.780000 0.480000
0.000000 1.000000 0.480000
0.232500 1.000000 0.480000
0.520000 1.000000 0.480000
0.807500 1.000000 0.480000
1.000000 1.000000 0.480000
0.000000 0.000000 0.760000
0.232500 0.000000 0.760000
0.520000 0.000000 0.760000
0.807500 0.000000 0.760000
1.000000 0.000000 0.760000
0.000000 0.220000 0.760000
0.232500 0.220000 0.760000
0.520000 0.220000 0.760000
0.807500 0.220000 0.760000
1.000000 0.220000 0.760000
0.000000 0.500000 0.760000
0.232500 0.500000 0.760000
0.520000 0.500000 0.760000
0.807500 0.500000 0.760000
1.000000 0.500000 0.760000
0.000000 0.780000 0.760000
0.232500 0.780000 0.760000
0.520000 0.780000 0.760000
0.807500 0.780000 0.760000
1.000000 0.780000 0.760000
0.000000 1.000000 0.760000
0.232500 1.000000 0.760000
0.520000 1.000000 0.760000
0.807500 1.000000 0.760000
1.000000 1.000000 0.760000
0.000000 0.000000 1.000000
0.232500 0.000000 1.000000
0.520000 0.000000 1.000000
0.807500 0.000000 1.000000
1.000000 0.000000 1.000000
0.000000 0.220000 1.000000
0.232500 0.220000 1.000000
0.520000 0.220000 1.000000
0.807500 0.220000 1.000000
1.000000 0.220000 1.000000
0.000000 0.500000 1.000000
0.232500 0.500000 1.000000
0.520000 0.500000 1.000000
0.807500 0.500000 1.000000
1.000000 0.500000 1.000000
0.000000 0.780000 1.000000
0.232500 0.780000 1.000000
0.520000 0.780000 1.000000
0.807500 0.780000 1.000000
1.000000 0.780000 1.000000
0.000000 1.000000 1.000000
0.232500 1.000000 1.000000
0.520000 1.000000 1.000000
0.807500 1.000000 1.000000
1.000000 1.000000 1.000000
