public/luts/kodak-2383.cube
# Recut LookBook — kodak-2383
LUT_3D_SIZE 17
DOMAIN_MIN 0 0 0
DOMAIN_MAX 1 1 1
0.000000 0.000000 0.000000
0.016875 0.000000 0.000000
0.088750 0.000000 0.000000
0.160625 0.000000 0.000000
0.232500 0.000000 0.000000
0.304375 0.000000 0.000000
0.376250 0.000000 0.000000
0.448125 0.000000 0.000000
0.520000 0.000000 0.000000
0.591875 0.000000 0.000000
0.663750 0.000000 0.000000
0.735625 0.000000 0.000000
0.807500 0.000000 0.000000
0.879375 0.000000 0.000000
0.951250 0.000000 0.000000
1.000000 0.000000 0.000000
1.000000 0.000000 0.000000
0.000000 0.010000 0.000000
0.016875 0.010000 0.000000
0.088750 0.010000 0.000000
0.160625 0.010000 0.000000
0.232500 0.010000 0.000000
0.304375 0.010000 0.000000
0.376250 0.010000 0.000000
0.448125 0.010000 0.000000
0.520000 0.010000 0.000000
0.591875 0.010000 0.000000
0.663750 0.010000 0.000000
0.735625 0.010000 0.000000
0.807500 0.010000 0.000000
0.879375 0.010000 0.000000
0.951250 0.010000 0.000000
1.000000 0.010000 0.000000
1.000000 0.010000 0.000000
0.000000 0.080000 0.000000
0.016875 0.080000 0.000000
0.088750 0.080000 0.000000
0.160625 0.080000 0.000000
0.232500 0.080000 0.000000
0.304375 0.080000 0.000000
0.376250 0.080000 0.000000
0.448125 0.080000 0.000000
0.520000 0.080000 0.000000
0.591875 0.080000 0.000000
0.663750 0.080000 0.000000
0.735625 0.080000 0.000000
0.807500 0.080000 0.000000
0.879375 0.080000 0.000000
0.951250 0.080000 0.000000
1.000000 0.080000 0.000000
1.000000 0.080000 0.000000
0.000000 0.150000 0.000000
0.016875 0.150000 0.000000
0.088750 0.150000 0.000000
0.160625 0.150000 0.000000
0.232500 0.150000 0.000000
0.304375 0.150000 0.000000
0.376250 0.150000 0.000000
0.448125 0.150000 0.000000
0.520000 0.150000 0.000000
0.591875 0.150000 0.000000
0.663750 0.150000 0.000000
0.735625 0.150000 0.000000
0.807500 0.150000 0.000000
0.879375 0.150000 0.000000
0.951250 0.150000 0.000000
1.000000 0.150000 0.000000
1.000000 0.150000 0.000000
0.000000 0.220000 0.000000
0.016875 0.220000 0.000000
0.088750 0.220000 0.000000
0.160625 0.220000 0.000000
0.232500 0.220000 0.000000
0.304375 0.220000 0.000000
0.376250 0.220000 0.000000
0.448125 0.220000 0.000000
0.520000 0.220000 0.000000
0.591875 0.220000 0.000000
0.663750 0.220000 0.000000
0.735625 0.220000 0.000000
0.807500 0.220000 0.000000
0.879375 0.220000 0.000000
0.951250 0.220000 0.000000
1.000000 0.220000 0.000000
1.000000 0.220000 0.000000
0.000000 0.290000 0.000000
0.016875 0.290000 0.000000
0.088750 0.290000 0.000000
0.160625 0.290000 0.000000
0.232500 0.290000 0.000000
0.304375 0.290000 0.000000
0.376250 0.290000 0.000000
0.448125 0.290000 0.000000
0.520000 0.290000 0.000000
0.591875 0.290000 0.000000
0.663750 0.290000 0.000000
0.735625 0.290000 0.000000
0.807500 0.290000 0.000000
0.879375 0.290000 0.000000
0.951250 0.290000 0.000000
1.000000 0.290000 0.000000
1.000000 0.290000 0.000000
0.000000 0.360000 0.000000
0.016875 0.360000 0.000000
0.088750 0.360000 0.000000
0.160625 0.360000 0.000000
0.232500 0.360000 0.000000
0.304375 0.360000 0.000000
0.376250 0.360000 0.000000
0.448125 0.360000 0.000000
0.520000 0.360000 0.000000
0.591875 0.360000 0.000000
0.663750 0.360000 0.000000
0.735625 0.360000 0.000000
0.807500 0.360000 0.000000
0.879375 0.360000 0.000000
0.951250 0.360000 0.000000
1.000000 0.360000 0.000000
1.000000 0.360000 0.000000
0.000000 0.430000 0.000000
0.016875 0.430000 0.000000
0.088750 0.430000 0.000000
0.160625 0.430000 0.000000
0.232500 0.430000 0.000000
0.304375 0.430000 0.000000
0.376250 0.430000 0.000000
0.448125 0.430000 0.000000
0.520000 0.430000 0.000000
0.591875 0.430000 0.000000
0.663750 0.430000 0.000000
0.735625 0.430000 0.000000
0.807500 0.430000 0.000000
0.879375 0.430000 0.000000
0.951250 0.430000 0.000000
1.000000 0.430000 0.000000
1.000000 0.430000 0.000000
0.000000 0.500000 0.000000
0.016875 0.500000 0.000000
0.088750 0.500000 0.000000
0.160625 0.500000 0.000000
0.232500 0.500000 0.000000
0.304375 0.500000 0.000000
0.376250 0.500000 0.000000
0.448125 0.500000 0.000000
0.520000 0.500000 0.000000
0.591875 0.500000 0.000000
0.663750 0.500000 0.000000
0.735625 0.500000 0.000000
0.807500 0.500000 0.000000
0.879375 0.500000 0.000000
0.951250 0.500000 0.000000
1.000000 0.500000 0.000000
1.000000 0.500000 0.000000
0.000000 0.570000 0.000000
0.016875 0.570000 0.000000
0.088750 0.570000 0.000000
0.160625 0.570000 0.000000
0.232500 0.570000 0.000000
0.304375 0.570000 0.000000
0.376250 0.570000 0.000000
0.448125 0.570000 0.000000
0.520000 0.570000 0.000000
0.591875 0.570000 0.000000
0.663750 0.570000 0.000000
0.735625 0.570000 0.000000
0.807500 0.570000 0.000000
0.879375 0.570000 0.000000
0.951250 0.570000 0.000000
1.000000 0.570000 0.000000
1.000000 0.570000 0.000000
0.000000 0.640000 0.000000
0.016875 0.640000 0.000000
0.088750 0.640000 0.000000
0.160625 0.640000 0.000000
0.232500 0.640000 0.000000
0.304375 0.640000 0.000000
0.376250 0.640000 0.000000
0.448125 0.640000 0.000000
0.520000 0.640000 0.000000
0.591875 0.640000 0.000000
0.663750 0.640000 0.000000
0.735625 0.640000 0.000000
0.807500 0.640000 0.000000
0.879375 0.640000 0.000000
0.951250 0.640000 0.000000
1.000000 0.640000 0.000000
1.000000 0.640000 0.000000
0.000000 0.710000 0.000000
0.016875 0.710000 0.000000
0.088750 0.710000 0.000000
0.160625 0.710000 0.000000
0.232500 0.710000 0.000000
0.304375 0.710000 0.000000
0.376250 0.710000 0.000000
0.448125 0.710000 0.000000
0.520000 0.710000 0.000000
0.591875 0.710000 0.000000
0.663750 0.710000 0.000000
0.735625 0.710000 0.000000
0.807500 0.710000 0.000000
0.879375 0.710000 0.000000
0.951250 0.710000 0.000000
1.000000 0.710000 0.000000
1.000000 0.710000 0.000000
0.000000 0.780000 0.000000
0.016875 0.780000 0.000000
0.088750 0.780000 0.000000
0.160625 0.780000 0.000000
0.232500 0.780000 0.000000
0.304375 0.780000 0.000000
0.376250 0.780000 0.000000
0.448125 0.780000 0.000000
0.520000 0.780000 0.000000
0.591875 0.780000 0.000000
0.663750 0.780000 0.000000
0.735625 0.780000 0.000000
0.807500 0.780000 0.000000
0.879375 0.780000 0.000000
0.951250 0.780000 0.000000
1.000000 0.780000 0.000000
1.000000 0.780000 0.000000
0.000000 0.850000 0.000000
0.016875 0.850000 0.000000
0.088750 0.850000 0.000000
0.160625 0.850000 0.000000
0.232500 0.850000 0.000000
0.304375 0.850000 0.000000
0.376250 0.850000 0.000000
0.448125 0.850000 0.000000
0.520000 0.850000 0.000000
0.591875 0.850000 0.000000
0.663750 0.850000 0.000000
0.735625 0.850000 0.000000
0.807500 0.850000 0.000000
0.879375 0.850000 0.000000
0.951250 0.850000 0.000000
1.000000 0.850000 0.000000
1.000000 0.850000 0.000000
0.000000 0.920000 0.000000
0.016875 0.920000 0.000000
0.088750 0.920000 0.000000
0.160625 0.920000 0.000000
0.232500 0.920000 0.000000
0.304375 0.920000 0.000000
0.376250 0.920000 0.000000
0.448125 0.920000 0.000000
0.520000 0.920000 0.000000
0.591875 0.920000 0.000000
0.663750 0.920000 0.000000
0.735625 0.920000 0.000000
0.807500 0.920000 0.000000
0.879375 0.920000 0.000000
0.951250 0.920000 0.000000
1.000000 0.920000 0.000000
1.000000 0.920000 0.000000
0.000000 0.990000 0.000000
0.016875 0.990000 0.000000
0.088750 0.990000 0.000000
0.160625 0.990000 0.000000
0.232500 0.990000 0.000000
0.304375 0.990000 0.000000
0.376250 0.990000 0.000000
0.448125 0.990000 0.000000
0.520000 0.990000 0.000000
0.591875 0.990000 0.000000
0.663750 0.990000 0.000000
0.735625 0.990000 0.000000
0.807500 0.990000 0.000000
0.879375 0.990000 0.000000
0.951250 0.990000 0.000000
1.000000 0.990000 0.000000
1.000000 0.990000 0.000000
0.000000 1.000000 0.000000
0.016875 1.000000 0.000000
0.088750 1.000000 0.000000
0.160625 1.000000 0.000000
0.232500 1.000000 0.000000
0.304375 1.000000 0.000000
0.376250 1.000000 0.000000
0.448125 1.000000 0.000000
0.520000 1.000000 0.000000
0.591875 1.000000 0.000000
0.663750 1.000000 0.000000
0.735625 1.000000 0.000000
0.807500 1.000000 0.000000
0.879375 1.000000 0.000000
0.951250 1.000000 0.000000
1.000000 1.000000 0.000000
1.000000 1.000000 0.000000
0.000000 0.000000 0.000000
0.016875 0.000000 0.000000
0.088750 0.000000 0.000000
0.160625 0.000000 0.000000
0.232500 0.000000 0.000000
0.304375 0.000000 0.000000
0.376250 0.000000 0.000000
0.448125 0.000000 0.000000
0.520000 0.000000 0.000000
0.591875 0.000000 0.000000
0.663750 0.000000 0.000000
0.735625 0.000000 0.000000
0.807500 0.000000 0.000000
0.879375 0.000000 0.000000
0.951250 0.000000 0.000000
1.000000 0.000000 0.000000
1.000000 0.000000 0.000000
0.000000 0.010000 0.000000
0.016875 0.010000 0.000000
0.088750 0.010000 0.000000
0.160625 0.010000 0.000000
0.232500 0.010000 0.000000
0.304375 0.010000 0.000000
0.376250 0.010000 0.000000
0.448125 0.010000 0.000000
0.520000 0.010000 0.000000
0.591875 0.010000 0.000000
0.663750 0.010000 0.000000
0.735625 0.010000 0.000000
0.807500 0.010000 0.000000
0.879375 0.010000 0.000000
0.951250 0.010000 0.000000
1.000000 0.010000 0.000000
1.000000 0.010000 0.000000
0.000000 0.080000 0.000000
0.016875 0.080000 0.000000
0.088750 0.080000 0.000000
0.160625 0.080000 0.000000
0.232500 0.080000 0.000000
0.304375 0.080000 0.000000
0.376250 0.080000 0.000000
0.448125 0.080000 0.000000
0.520000 0.080000 0.000000
0.591875 0.080000 0.000000
0.663750 0.080000 0.000000
0.735625 0.080000 0.000000
0.807500 0.080000 0.000000
0.879375 0.080000 0.000000
0.951250 0.080000 0.000000
1.000000 0.080000 0.000000
1.000000 0.080000 0.000000
0.000000 0.150000 0.000000
0.016875 0.150000 0.000000
0.088750 0.150000 0.000000
0.160625 0.150000 0.000000
0.232500 0.150000 0.000000
0.304375 0.150000 0.000000
0.376250 0.150000 0.000000
0.448125 0.150000 0.000000
0.520000 0.150000 0.000000
0.591875 0.150000 0.000000
0.663750 0.150000 0.000000
0.735625 0.150000 0.000000
0.807500 0.150000 0.000000
0.879375 0.150000 0.000000
0.951250 0.150000 0.000000
1.000000 0.150000 0.000000
1.000000 0.150000 0.000000
0.000000 0.220000 0.000000
0.016875 0.220000 0.000000
0.088750 0.220000 0.000000
0.160625 0.220000 0.000000
0.232500 0.220000 0.000000
0.304375 0.220000 0.000000
0.376250 0.220000 0.000000
0.448125 0.220000 0.000000
0.520000 0.220000 0.000000
0.591875 0.220000 0.000000
0.663750 0.220000 0.000000
0.735625 0.220000 0.000000
0.807500 0.220000 0.000000
0.879375 0.220000 0.000000
0.951250 0.220000 0.000000
1.000000 0.220000 0.000000
1.000000 0.220000 0.000000
0.000000 0.290000 0.000000
0.016875 0.290000 0.000000
0.088750 0.290000 0.000000
0.160625 0.290000 0.000000
0.232500 0.290000 0.000000
0.304375 0.290000 0.000000
0.376250 0.290000 0.000000
0.448125 0.290000 0.000000
0.520000 0.290000 0.000000
0.591875 0.290000 0.000000
0.663750 0.290000 0.000000
0.735625 0.290000 0.000000
0.807500 0.290000 0.000000
0.879375 0.290000 0.000000
0.951250 0.290000 0.000000
1.000000 0.290000 0.000000
1.000000 0.290000 0.000000
0.000000 0.360000 0.000000
0.016875 0.360000 0.000000
0.088750 0.360000 0.000000
0.160625 0.360000 0.000000
0.232500 0.360000 0.000000
0.304375 0.360000 0.000000
0.376250 0.360000 0.000000
0.448125 0.360000 0.000000
0.520000 0.360000 0.000000
0.591875 0.360000 0.000000
0.663750 0.360000 0.000000
0.735625 0.360000 0.000000
0.807500 0.360000 0.000000
0.879375 0.360000 0.000000
0.951250 0.360000 0.000000
1.000000 0.360000 0.000000
1.000000 0.360000 0.000000
0.000000 0.430000 0.000000
0.016875 0.430000 0.000000
0.088750 0.430000 0.000000
0.160625 0.430000 0.000000
0.232500 0.430000 0.000000
0.304375 0.430000 0.000000
0.376250 0.430000 0.000000
0.448125 0.430000 0.000000
0.520000 0.430000 0.000000
0.591875 0.430000 0.000000
0.663750 0.430000 0.000000
0.735625 0.430000 0.000000
0.807500 0.430000 0.000000
0.879375 0.430000 0.000000
0.951250 0.430000 0.000000
1.000000 0.430000 0.000000
1.000000 0.430000 0.000000
0.000000 0.500000 0.000000
0.016875 0.500000 0.000000
0.088750 0.500000 0.000000
0.160625 0.500000 0.000000
0.232500 0.500000 0.000000
0.304375 0.500000 0.000000
0.376250 0.500000 0.000000
0.448125 0.500000 0.000000
0.520000 0.500000 0.000000
0.591875 0.500000 0.000000
0.663750 0.500000 0.000000
0.735625 0.500000 0.000000
0.807500 0.500000 0.000000
0.879375 0.500000 0.000000
0.951250 0.500000 0.000000
1.000000 0.500000 0.000000
1.000000 0.500000 0.000000
0.000000 0.570000 0.000000
0.016875 0.570000 0.000000
0.088750 0.570000 0.000000
0.160625 0.570000 0.000000
0.232500 0.570000 0.000000
0.304375 0.570000 0.000000
0.376250 0.570000 0.000000
0.448125 0.570000 0.000000
0.520000 0.570000 0.000000
0.591875 0.570000 0.000000
0.663750 0.570000 0.000000
0.735625 0.570000 0.000000
0.807500 0.570000 0.000000
0.879375 0.570000 0.000000
0.951250 0.570000 0.000000
1.000000 0.570000 0.000000
1.000000 0.570000 0.000000
0.000000 0.640000 0.000000
0.016875 0.640000 0.000000
0.088750 0.640000 0.000000
0.160625 0.640000 0.000000
0.232500 0.640000 0.000000
0.304375 0.640000 0.000000
0.376250 0.640000 0.000000
0.448125 0.640000 0.000000
0.520000 0.640000 0.000000
0.591875 0.640000 0.000000
0.663750 0.640000 0.000000
0.735625 0.640000 0.000000
0.807500 0.640000 0.000000
0.879375 0.640000 0.000000
0.951250 0.640000 0.000000
1.000000 0.640000 0.000000
1.000000 0.640000 0.000000
0.000000 0.710000 0.000000
0.016875 0.710000 0.000000
0.088750 0.710000 0.000000
0.160625 0.710000 0.000000
0.232500 0.710000 0.000000
0.304375 0.710000 0.000000
0.376250 0.710000 0.000000
0.448125 0.710000 0.000000
0.520000 0.710000 0.000000
0.591875 0.710000 0.000000
0.663750 0.710000 0.000000
0.735625 0.710000 0.000000
0.807500 0.710000 0.000000
0.879375 0.710000 0.000000
0.951250 0.710000 0.000000
1.000000 0.710000 0.000000
1.000000 0.710000 0.000000
0.000000 0.780000 0.000000
0.016875 0.780000 0.000000
0.088750 0.780000 0.000000
0.160625 0.780000 0.000000
0.232500 0.780000 0.000000
0.304375 0.780000 0.000000
0.376250 0.780000 0.000000
0.448125 0.780000 0.000000
0.520000 0.780000 0.000000
0.591875 0.780000 0.000000
0.663750 0.780000 0.000000
0.735625 0.780000 0.000000
0.807500 0.780000 0.000000
0.879375 0.780000 0.000000
0.951250 0.780000 0.000000
1.000000 0.780000 0.000000
1.000000 0.780000 0.000000
0.000000 0.850000 0.000000
0.016875 0.850000 0.000000
0.088750 0.850000 0.000000
0.160625 0.850000 0.000000
0.232500 0.850000 0.000000
0.304375 0.850000 0.000000
0.376250 0.850000 0.000000
0.448125 0.850000 0.000000
0.520000 0.850000 0.000000
0.591875 0.850000 0.000000
0.663750 0.850000 0.000000
0.735625 0.850000 0.000000
0.807500 0.850000 0.000000
0.879375 0.850000 0.000000
0.951250 0.850000 0.000000
1.000000 0.850000 0.000000
1.000000 0.850000 0.000000
0.000000 0.920000 0.000000
0.016875 0.920000 0.000000
0.088750 0.920000 0.000000
0.160625 0.920000 0.000000
0.232500 0.920000 0.000000
0.304375 0.920000 0.000000
0.376250 0.920000 0.000000
0.448125 0.920000 0.000000
0.520000 0.920000 0.000000
0.591875 0.920000 0.000000
0.663750 0.920000 0.000000
0.735625 0.920000 0.000000
0.807500 0.920000 0.000000
0.879375 0.920000 0.000000
0.951250 0.920000 0.000000
1.000000 0.920000 0.000000
1.000000 0.920000 0.000000
0.000000 0.990000 0.000000
0.016875 0.990000 0.000000
0.088750 0.990000 0.000000
0.160625 0.990000 0.000000
0.232500 0.990000 0.000000
0.304375 0.990000 0.000000
0.376250 0.990000 0.000000
0.448125 0.990000 0.000000
0.520000 0.990000 0.000000
0.591875 0.990000 0.000000
0.663750 0.990000 0.000000
0.735625 0.990000 0.000000
0.807500 0.990000 0.000000
0.879375 0.990000 0.000000
0.951250 0.990000 0.000000
1.000000 0.990000 0.000000
1.000000 0.990000 0.000000
0.000000 1.000000 0.000000
0.016875 1.000000 0.000000
0.088750 1.000000 0.000000
0.160625 1.000000 0.000000
0.232500 1.000000 0.000000
0.304375 1.000000 0.000000
0.376250 1.000000 0.000000
0.448125 1.000000 0.000000
0.520000 1.000000 0.000000
0.591875 1.000000 0.000000
0.663750 1.000000 0.000000
0.735625 1.000000 0.000000
0.807500 1.000000 0.000000
0.879375 1.000000 0.000000
0.951250 1.000000 0.000000
1.000000 1.000000 0.000000
1.000000 1.000000 0.000000
0.000000 0.000000 0.060000
0.016875 0.000000 0.060000
0.088750 0.000000 0.060000
0.160625 0.000000 0.060000
0.232500 0.000000 0.060000
0.304375 0.000000 0.060000
0.376250 0.000000 0.060000
0.448125 0.000000 0.060000
0.520000 0.000000 0.060000
0.591875 0.000000 0.060000
0.663750 0.000000 0.060000
0.735625 0.000000 0.060000
0.807500 0.000000 0.060000
0.879375 0.000000 0.060000
0.951250 0.000000 0.060000
1.000000 0.000000 0.060000
1.000000 0.000000 0.060000
0.000000 0.010000 0.060000
0.016875 0.010000 0.060000
0.088750 0.010000 0.060000
0.160625 0.010000 0.060000
0.232500 0.010000 0.060000
0.304375 0.010000 0.060000
0.376250 0.010000 0.060000
0.448125 0.010000 0.060000
0.520000 0.010000 0.060000
0.591875 0.010000 0.060000
0.663750 0.010000 0.060000
0.735625 0.010000 0.060000
0.807500 0.010000 0.060000
0.879375 0.010000 0.060000
0.951250 0.010000 0.060000
1.000000 0.010000 0.060000
1.000000 0.010000 0.060000
0.000000 0.080000 0.060000
0.016875 0.080000 0.060000
0.088750 0.080000 0.060000
0.160625 0.080000 0.060000
0.232500 0.080000 0.060000
0.304375 0.080000 0.060000
0.376250 0.080000 0.060000
0.448125 0.080000 0.060000
0.520000 0.080000 0.060000
0.591875 0.080000 0.060000
0.663750 0.080000 0.060000
0.735625 0.080000 0.060000
0.807500 0.080000 0.060000
0.879375 0.080000 0.060000
0.951250 0.080000 0.060000
1.000000 0.080000 0.060000
1.000000 0.080000 0.060000
0.000000 0.150000 0.060000
0.016875 0.150000 0.060000
0.088750 0.150000 0.060000
0.160625 0.150000 0.060000
0.232500 0.150000 0.060000
0.304375 0.150000 0.060000
0.376250 0.150000 0.060000
0.448125 0.150000 0.060000
0.520000 0.150000 0.060000
0.591875 0.150000 0.060000
0.663750 0.150000 0.060000
0.735625 0.150000 0.060000
0.807500 0.150000 0.060000
0.879375 0.150000 0.060000
0.951250 0.150000 0.060000
1.000000 0.150000 0.060000
1.000000 0.150000 0.060000
0.000000 0.220000 0.060000
0.016875 0.220000 0.060000
0.088750 0.220000 0.060000
0.160625 0.220000 0.060000
0.232500 0.220000 0.060000
0.304375 0.220000 0.060000
0.376250 0.220000 0.060000
0.448125 0.220000 0.060000
0.520000 0.220000 0.060000
0.591875 0.220000 0.060000
0.663750 0.220000 0.060000
0.735625 0.220000 0.060000
0.807500 0.220000 0.060000
0.879375 0.220000 0.060000
0.951250 0.220000 0.060000
1.000000 0.220000 0.060000
1.000000 0.220000 0.060000
0.000000 0.290000 0.060000
0.016875 0.290000 0.060000
0.088750 0.290000 0.060000
0.160625 0.290000 0.060000
0.232500 0.290000 0.060000
0.304375 0.290000 0.060000
0.376250 0.290000 0.060000
0.448125 0.290000 0.060000
0.520000 0.290000 0.060000
0.591875 0.290000 0.060000
0.663750 0.290000 0.060000
0.735625 0.290000 0.060000
0.807500 0.290000 0.060000
0.879375 0.290000 0.060000
0.951250 0.290000 0.060000
1.000000 0.290000 0.060000
1.000000 0.290000 0.060000
0.000000 0.360000 0.060000
0.016875 0.360000 0.060000
0.088750 0.360000 0.060000
0.160625 0.360000 0.060000
0.232500 0.360000 0.060000
0.304375 0.360000 0.060000
0.376250 0.360000 0.060000
0.448125 0.360000 0.060000
0.520000 0.360000 0.060000
0.591875 0.360000 0.060000
0.663750 0.360000 0.060000
0.735625 0.360000 0.060000
0.807500 0.360000 0.060000
0.879375 0.360000 0.060000
0.951250 0.360000 0.060000
1.000000 0.360000 0.060000
1.000000 0.360000 0.060000
0.000000 0.430000 0.060000
0.016875 0.430000 0.060000
0.088750 0.430000 0.060000
0.160625 0.430000 0.060000
0.232500 0.430000 0.060000
0.304375 0.430000 0.060000
0.376250 0.430000 0.060000
0.448125 0.430000 0.060000
0.520000 0.430000 0.060000
0.591875 0.430000 0.060000
0.663750 0.430000 0.060000
0.735625 0.430000 0.060000
0.807500 0.430000 0.060000
0.879375 0.430000 0.060000
0.951250 0.430000 0.060000
1.000000 0.430000 0.060000
1.000000 0.430000 0.060000
0.000000 0.500000 0.060000
0.016875 0.500000 0.060000
0.088750 0.500000 0.060000
0.160625 0.500000 0.060000
0.232500 0.500000 0.060000
0.304375 0.500000 0.060000
0.376250 0.500000 0.060000
0.448125 0.500000 0.060000
0.520000 0.500000 0.060000
0.591875 0.500000 0.060000
0.663750 0.500000 0.060000
0.735625 0.500000 0.060000
0.807500 0.500000 0.060000
0.879375 0.500000 0.060000
0.951250 0.500000 0.060000
1.000000 0.500000 0.060000
1.000000 0.500000 0.060000
0.000000 0.570000 0.060000
0.016875 0.570000 0.060000
0.088750 0.570000 0.060000
0.160625 0.570000 0.060000
0.232500 0.570000 0.060000
0.304375 0.570000 0.060000
0.376250 0.570000 0.060000
0.448125 0.570000 0.060000
0.520000 0.570000 0.060000
0.591875 0.570000 0.060000
0.663750 0.570000 0.060000
0.735625 0.570000 0.060000
0.807500 0.570000 0.060000
0.879375 0.570000 0.060000
0.951250 0.570000 0.060000
1.000000 0.570000 0.060000
1.000000 0.570000 0.060000
0.000000 0.640000 0.060000
0.016875 0.640000 0.060000
0.088750 0.640000 0.060000
0.160625 0.640000 0.060000
0.232500 0.640000 0.060000
0.304375 0.640000 0.060000
0.376250 0.640000 0.060000
0.448125 0.640000 0.060000
0.520000 0.640000 0.060000
0.591875 0.640000 0.060000
0.663750 0.640000 0.060000
0.735625 0.640000 0.060000
0.807500 0.640000 0.060000
0.879375 0.640000 0.060000
0.951250 0.640000 0.060000
1.000000 0.640000 0.060000
1.000000 0.640000 0.060000
0.000000 0.710000 0.060000
0.016875 0.710000 0.060000
0.088750 0.710000 0.060000
0.160625 0.710000 0.060000
0.232500 0.710000 0.060000
0.304375 0.710000 0.060000
0.376250 0.710000 0.060000
0.448125 0.710000 0.060000
0.520000 0.710000 0.060000
0.591875 0.710000 0.060000
0.663750 0.710000 0.060000
0.735625 0.710000 0.060000
0.807500 0.710000 0.060000
0.879375 0.710000 0.060000
0.951250 0.710000 0.060000
1.000000 0.710000 0.060000
1.000000 0.710000 0.060000
0.000000 0.780000 0.060000
0.016875 0.780000 0.060000
0.088750 0.780000 0.060000
0.160625 0.780000 0.060000
0.232500 0.780000 0.060000
0.304375 0.780000 0.060000
0.376250 0.780000 0.060000
0.448125 0.780000 0.060000
0.520000 0.780000 0.060000
0.591875 0.780000 0.060000
0.663750 0.780000 0.060000
0.735625 0.780000 0.060000
0.807500 0.780000 0.060000
0.879375 0.780000 0.060000
0.951250 0.780000 0.060000
1.000000 0.780000 0.060000
1.000000 0.780000 0.060000
0.000000 0.850000 0.060000
0.016875 0.850000 0.060000
0.088750 0.850000 0.060000
0.160625 0.850000 0.060000
0.232500 0.850000 0.060000
0.304375 0.850000 0.060000
0.376250 0.850000 0.060000
0.448125 0.850000 0.060000
0.520000 0.850000 0.060000
0.591875 0.850000 0.060000
0.663750 0.850000 0.060000
0.735625 0.850000 0.060000
0.807500 0.850000 0.060000
0.879375 0.850000 0.060000
0.951250 0.850000 0.060000
1.000000 0.850000 0.060000
1.000000 0.850000 0.060000
0.000000 0.920000 0.060000
0.016875 0.920000 0.060000
0.088750 0.920000 0.060000
0.160625 0.920000 0.060000
0.232500 0.920000 0.060000
0.304375 0.920000 0.060000
0.376250 0.920000 0.060000
0.448125 0.920000 0.060000
0.520000 0.920000 0.060000
0.591875 0.920000 0.060000
0.663750 0.920000 0.060000
0.735625 0.920000 0.060000
0.807500 0.920000 0.060000
0.879375 0.920000 0.060000
0.951250 0.920000 0.060000
1.000000 0.920000 0.060000
1.000000 0.920000 0.060000
0.000000 0.990000 0.060000
0.016875 0.990000 0.060000
0.088750 0.990000 0.060000
0.160625 0.990000 0.060000
0.232500 0.990000 0.060000
0.304375 0.990000 0.060000
0.376250 0.990000 0.060000
0.448125 0.990000 0.060000
0.520000 0.990000 0.060000
0.591875 0.990000 0.060000
0.663750 0.990000 0.060000
0.735625 0.990000 0.060000
0.807500 0.990000 0.060000
0.879375 0.990000 0.060000
0.951250 0.990000 0.060000
1.000000 0.990000 0.060000
1.000000 0.990000 0.060000
0.000000 1.000000 0.060000
0.016875 1.000000 0.060000
0.088750 1.000000 0.060000
0.160625 1.000000 0.060000
0.232500 1.000000 0.060000
0.304375 1.000000 0.060000
0.376250 1.000000 0.060000
0.448125 1.000000 0.060000
0.520000 1.000000 0.060000
0.591875 1.000000 0.060000
0.663750 1.000000 0.060000
0.735625 1.000000 0.060000
0.807500 1.000000 0.060000
0.879375 1.000000 0.060000
0.951250 1.000000 0.060000
1.000000 1.000000 0.060000
1.000000 1.000000 0.060000
0.000000 0.000000 0.130000
0.016875 0.000000 0.130000
0.088750 0.000000 0.130000
0.160625 0.000000 0.130000
0.232500 0.000000 0.130000
0.304375 0.000000 0.130000
0.376250 0.000000 0.130000
0.448125 0.000000 0.130000
0.520000 0.000000 0.130000
0.591875 0.000000 0.130000
0.663750 0.000000 0.130000
0.735625 0.000000 0.130000
0.807500 0.000000 0.130000
0.879375 0.000000 0.130000
0.951250 0.000000 0.130000
1.000000 0.000000 0.130000
1.000000 0.000000 0.130000
0.000000 0.010000 0.130000
