public/luts/kodak-2383.cube
# Recut LookBook — kodak-2383
LUT_3D_SIZE 9
DOMAIN_MIN 0 0 0
DOMAIN_MAX 1 1 1
0.000000 0.000000 0.000000
0.088750 0.000000 0.000000
0.232500 0.000000 0.000000
0.376250 0.000000 0.000000
0.520000 0.000000 0.000000
0.663750 0.000000 0.000000
0.807500 0.000000 0.000000
0.951250 0.000000 0.000000
1.000000 0.000000 0.000000
0.000000 0.080000 0.000000
0.088750 0.080000 0.000000
0.232500 0.080000 0.000000
0.376250 0.080000 0.000000
0.520000 0.080000 0.000000
0.663750 0.080000 0.000000
0.807500 0.080000 0.000000
0.951250 0.080000 0.000000
1.000000 0.080000 0.000000
0.000000 0.220000 0.000000
0.088750 0.220000 0.000000
0.232500 0.220000 0.000000
0.376250 0.220000 0.000000
0.520000 0.220000 0.000000
0.663750 0.220000 0.000000
0.807500 0.220000 0.000000
0.951250 0.220000 0.000000
1.000000 0.220000 0.000000
0.000000 0.360000 0.000000
0.088750 0.360000 0.000000
0.232500 0.360000 0.000000
0.376250 0.360000 0.000000
0.520000 0.360000 0.000000
0.663750 0.360000 0.000000
0.807500 0.360000 0.000000
0.951250 0.360000 0.000000
1.000000 0.360000 0.000000
0.000000 0.500000 0.000000
0.088750 0.500000 0.000000
0.232500 0.500000 0.000000
0.376250 0.500000 0.000000
0.520000 0.500000 0.000000
0.663750 0.500000 0.000000
0.807500 0.500000 0.000000
0.951250 0.500000 0.000000
1.000000 0.500000 0.000000
0.000000 0.640000 0.000000
0.088750 0.640000 0.000000
0.232500 0.640000 0.000000
0.376250 0.640000 0.000000
0.520000 0.640000 0.000000
0.663750 0.640000 0.000000
0.807500 0.640000 0.000000
0.951250 0.640000 0.000000
1.000000 0.640000 0.000000
0.000000 0.780000 0.000000
0.088750 0.780000 0.000000
0.232500 0.780000 0.000000
0.376250 0.780000 0.000000
0.520000 0.780000 0.000000
0.663750 0.780000 0.000000
0.807500 0.780000 0.000000
0.951250 0.780000 0.000000
1.000000 0.780000 0.000000
0.000000 0.920000 0.000000
0.088750 0.920000 0.000000
0.232500 0.920000 0.000000
0.376250 0.920000 0.000000
0.520000 0.920000 0.000000
0.663750 0.920000 0.000000
0.807500 0.920000 0.000000
0.951250 0.920000 0.000000
1.000000 0.920000 0.000000
0.000000 1.000000 0.000000
0.088750 1.000000 0.000000
0.232500 1.000000 0.000000
0.376250 1.000000 0.000000
0.520000 1.000000 0.000000
0.663750 1.000000 0.000000
0.807500 1.000000 0.000000
0.951250 1.000000 0.000000
1.000000 1.000000 0.000000
0.000000 0.000000 0.060000
0.088750 0.000000 0.060000
0.232500 0.000000 0.060000
0.376250 0.000000 0.060000
0.520000 0.000000 0.060000
0.663750 0.000000 0.060000
0.807500 0.000000 0.060000
0.951250 0.000000 0.060000
1.000000 0.000000 0.060000
0.000000 0.080000 0.060000
0.088750 0.080000 0.060000
0.232500 0.080000 0.060000
0.376250 0.080000 0.060000
0.520000 0.080000 0.060000
0.663750 0.080000 0.060000
0.807500 0.080000 0.060000
0.951250 0.080000 0.060000
1.000000 0.080000 0.060000
0.000000 0.220000 0.060000
0.088750 0.220000 0.060000
0.232500 0.220000 0.060000
0.376250 0.220000 0.060000
0.520000 0.220000 0.060000
0.663750 0.220000 0.060000
0.807500 0.220000 0.060000
0.951250 0.220000 0.060000
1.000000 0.220000 0.060000
0.000000 0.360000 0.060000
0.088750 0.360000 0.060000
0.232500 0.360000 0.060000
0.376250 0.360000 0.060000
0.520000 0.360000 0.060000
0.663750 0.360000 0.060000
0.807500 0.360000 0.060000
0.951250 0.360000 0.060000
1.000000 0.360000 0.060000
0.000000 0.500000 0.060000
0.088750 0.500000 0.060000
0.232500 0.500000 0.060000
0.376250 0.500000 0.060000
0.520000 0.500000 0.060000
0.663750 0.500000 0.060000
0.807500 0.500000 0.060000
0.951250 0.500000 0.060000
1.000000 0.500000 0.060000
0.000000 0.640000 0.060000
0.088750 0.640000 0.060000
0.232500 0.640000 0.060000
0.376250 0.640000 0.060000
0.520000 0.640000 0.060000
0.663750 0.640000 0.060000
0.807500 0.640000 0.060000
0.951250 0.640000 0.060000
1.000000 0.640000 0.060000
0.000000 0.780000 0.060000
0.088750 0.780000 0.060000
0.232500 0.780000 0.060000
0.376250 0.780000 0.060000
0.520000 0.780000 0.060000
0.663750 0.780000 0.060000
0.807500 0.780000 0.060000
0.951250 0.780000 0.060000
1.000000 0.780000 0.060000
0.000000 0.920000 0.060000
0.088750 0.920000 0.060000
0.232500 0.920000 0.060000
0.376250 0.920000 0.060000
0.520000 0.920000 0.060000
0.663750 0.920000 0.060000
0.807500 0.920000 0.060000
0.951250 0.920000 0.060000
1.000000 0.920000 0.060000
0.000000 1.000000 0.060000
0.088750 1.000000 0.060000
0.232500 1.000000 0.060000
0.376250 1.000000 0.060000
0.520000 1.000000 0.060000
0.663750 1.000000 0.060000
0.807500 1.000000 0.060000
0.951250 1.000000 0.060000
1.000000 1.000000 0.060000
0.000000 0.000000 0.200000
0.088750 0.000000 0.200000
0.232500 0.000000 0.200000
0.376250 0.000000 0.200000
0.520000 0.000000 0.200000
0.663750 0.000000 0.200000
0.807500 0.000000 0.200000
0.951250 0.000000 0.200000
1.000000 0.000000 0.200000
0.000000 0.080000 0.200000
0.088750 0.080000 0.200000
0.232500 0.080000 0.200000
0.376250 0.080000 0.200000
0.520000 0.080000 0.200000
0.663750 0.080000 0.200000
0.807500 0.080000 0.200000
0.951250 0.080000 0.200000
1.000000 0.080000 0.200000
0.000000 0.220000 0.200000
0.088750 0.220000 0.200000
0.232500 0.220000 0.200000
0.376250 0.220000 0.200000
0.520000 0.220000 0.200000
0.663750 0.220000 0.200000
0.807500 0.220000 0.200000
0.951250 0.220000 0.200000
1.000000 0.220000 0.200000
0.000000 0.360000 0.200000
0.088750 0.360000 0.200000
0.232500 0.360000 0.200000
0.376250 0.360000 0.200000
0.520000 0.360000 0.200000
0.663750 0.360000 0.200000
0.807500 0.360000 0.200000
0.951250 0.360000 0.200000
1.000000 0.360000 0.200000
0.000000 0.500000 0.200000
0.088750 0.500000 0.200000
0.232500 0.500000 0.200000
0.376250 0.500000 0.200000
0.520000 0.500000 0.200000
0.663750 0.500000 0.200000
0.807500 0.500000 0.200000
0.951250 0.500000 0.200000
1.000000 0.500000 0.200000
0.000000 0.640000 0.200000
0.088750 0.640000 0.200000
0.232500 0.640000 0.200000
0.376250 0.640000 0.200000
0.520000 0.640000 0.200000
0.663750 0.640000 0.200000
0.807500 0.640000 0.200000
0.951250 0.640000 0.200000
1.000000 0.640000 0.200000
0.000000 0.780000 0.200000
0.088750 0.780000 0.200000
0.232500 0.780000 0.200000
0.376250 0.780000 0.200000
0.520000 0.780000 0.200000
0.663750 0.780000 0.200000
0.807500 0.780000 0.200000
0.951250 0.780000 0.200000
1.000000 0.780000 0.200000
0.000000 0.920000 0.200000
0.088750 0.920000 0.200000
0.232500 0.920000 0.200000
0.376250 0.920000 0.200000
0.520000 0.920000 0.200000
0.663750 0.920000 0.200000
0.807500 0.920000 0.200000
0.951250 0.920000 0.200000
1.000000 0.920000 0.200000
0.000000 1.000000 0.200000
0.088750 1.000000 0.200000
0.232500 1.000000 0.200000
0.376250 1.000000 0.200000
0.520000 1.000000 0.200000
0.663750 1.000000 0.200000
0.807500 1.000000 0.200000
0.951250 1.000000 0.200000
1.000000 1.000000 0.200000
0.000000 0.000000 0.340000
0.088750 0.000000 0.340000
0.232500 0.000000 0.340000
0.376250 0.000000 0.340000
0.520000 0.000000 0.340000
0.663750 0.000000 0.340000
0.807500 0.000000 0.340000
0.951250 0.000000 0.340000
1.000000 0.000000 0.340000
0.000000 0.080000 0.340000
0.088750 0.080000 0.340000
0.232500 0.080000 0.340000
0.376250 0.080000 0.340000
0.520000 0.080000 0.340000
0.663750 0.080000 0.340000
0.807500 0.080000 0.340000
0.951250 0.080000 0.340000
1.000000 0.080000 0.340000
0.000000 0.220000 0.340000
0.088750 0.220000 0.340000
0.232500 0.220000 0.340000
0.376250 0.220000 0.340000
0.520000 0.220000 0.340000
0.663750 0.220000 0.340000
0.807500 0.220000 0.340000
0.951250 0.220000 0.340000
1.000000 0.220000 0.340000
0.000000 0.360000 0.340000
0.088750 0.360000 0.340000
0.232500 0.360000 0.340000
0.376250 0.360000 0.340000
0.520000 0.360000 0.340000
0.663750 0.360000 0.340000
0.807500 0.360000 0.340000
0.951250 0.360000 0.340000
1.000000 0.360000 0.340000
0.000000 0.500000 0.340000
0.088750 0.500000 0.340000
0.232500 0.500000 0.340000
0.376250 0.500000 0.340000
0.520000 0.500000 0.340000
0.663750 0.500000 0.340000
0.807500 0.500000 0.340000
0.951250 0.500000 0.340000
1.000000 0.500000 0.340000
0.000000 0.640000 0.340000
0.088750 0.640000 0.340000
0.232500 0.640000 0.340000
0.376250 0.640000 0.340000
0.520000 0.640000 0.340000
0.663750 0.640000 0.340000
0.807500 0.640000 0.340000
0.951250 0.640000 0.340000
1.000000 0.640000 0.340000
0.000000 0.780000 0.340000
0.088750 0.780000 0.340000
0.232500 0.780000 0.340000
0.376250 0.780000 0.340000
0.520000 0.780000 0.340000
0.663750 0.780000 0.340000
0.807500 0.780000 0.340000
0.951250 0.780000 0.340000
1.000000 0.780000 0.340000
0.000000 0.920000 0.340000
0.088750 0.920000 0.340000
0.232500 0.920000 0.340000
0.376250 0.920000 0.340000
0.520000 0.920000 0.340000
0.663750 0.920000 0.340000
0.807500 0.920000 0.340000
0.951250 0.920000 0.340000
1.000000 0.920000 0.340000
0.000000 1.000000 0.340000
0.088750 1.000000 0.340000
0.232500 1.000000 0.340000
0.376250 1.000000 0.340000
0.520000 1.000000 0.340000
0.663750 1.000000 0.340000
0.807500 1.000000 0.340000
0.951250 1.000000 0.340000
1.000000 1.000000 0.340000
0.000000 0.000000 0.480000
0.088750 0.000000 0.480000
0.232500 0.000000 0.480000
0.376250 0.000000 0.480000
0.520000 0.000000 0.480000
0.663750 0.000000 0.480000
0.807500 0.000000 0.480000
0.951250 0.000000 0.480000
1.000000 0.000000 0.480000
0.000000 0.080000 0.480000
0.088750 0.080000 0.480000
0.232500 0.080000 0.480000
0.376250 0.080000 0.480000
0.520000 0.080000 0.480000
0.663750 0.080000 0.480000
0.807500 0.080000 0.480000
0.951250 0.080000 0.480000
1.000000 0.080000 0.480000
0.000000 0.220000 0.480000
0.088750 0.220000 0.480000
0.232500 0.220000 0.480000
0.376250 0.220000 0.480000
0.520000 0.220000 0.480000
0.663750 0.220000 0.480000
0.807500 0.220000 0.480000
0.951250 0.220000 0.480000
1.000000 0.220000 0.480000
0.000000 0.360000 0.480000
0.088750 0.360000 0.480000
0.232500 0.360000 0.480000
0.376250 0.360000 0.480000
0.520000 0.360000 0.480000
0.663750 0.360000 0.480000
0.807500 0.360000 0.480000
0.951250 0.360000 0.480000
1.000000 0.360000 0.480000
0.000000 0.500000 0.480000
0.088750 0.500000 0.480000
0.232500 0.500000 0.480000
0.376250 0.500000 0.480000
0.520000 0.500000 0.480000
0.663750 0.500000 0.480000
0.807500 0.500000 0.480000
0.951250 0.500000 0.480000
1.000000 0.500000 0.480000
0.000000 0.640000 0.480000
0.088750 0.640000 0.480000
0.232500 0.640000 0.480000
0.376250 0.640000 0.480000
0.520000 0.640000 0.480000
0.663750 0.640000 0.480000
0.807500 0.640000 0.480000
0.951250 0.640000 0.480000
1.000000 0.640000 0.480000
0.000000 0.780000 0.480000
0.088750 0.780000 0.480000
0.232500 0.780000 0.480000
0.376250 0.780000 0.480000
0.520000 0.780000 0.480000
0.663750 0.780000 0.480000
0.807500 0.780000 0.480000
0.951250 0.780000 0.480000
1.000000 0.780000 0.480000
0.000000 0.920000 0.480000
0.088750 0.920000 0.480000
0.232500 0.920000 0.480000
0.376250 0.920000 0.480000
0.520000 0.920000 0.480000
0.663750 0.920000 0.480000
0.807500 0.920000 0.480000
0.951250 0.920000 0.480000
1.000000 0.920000 0.480000
0.000000 1.000000 0.480000
0.088750 1.000000 0.480000
0.232500 1.000000 0.480000
0.376250 1.000000 0.480000
0.520000 1.000000 0.480000
0.663750 1.000000 0.480000
0.807500 1.000000 0.480000
0.951250 1.000000 0.480000
1.000000 1.000000 0.480000
0.000000 0.000000 0.620000
0.088750 0.000000 0.620000
0.232500 0.000000 0.620000
0.376250 0.000000 0.620000
0.520000 0.000000 0.620000
0.663750 0.000000 0.620000
0.807500 0.000000 0.620000
0.951250 0.000000 0.620000
1.000000 0.000000 0.620000
0.000000 0.080000 0.620000
0.088750 0.080000 0.620000
0.232500 0.080000 0.620000
0.376250 0.080000 0.620000
0.520000 0.080000 0.620000
0.663750 0.080000 0.620000
0.807500 0.080000 0.620000
0.951250 0.080000 0.620000
1.000000 0.080000 0.620000
0.000000 0.220000 0.620000
0.088750 0.220000 0.620000
0.232500 0.220000 0.620000
0.376250 0.220000 0.620000
0.520000 0.220000 0.620000
0.663750 0.220000 0.620000
0.807500 0.220000 0.620000
0.951250 0.220000 0.620000
1.000000 0.220000 0.620000
0.000000 0.360000 0.620000
0.088750 0.360000 0.620000
0.232500 0.360000 0.620000
0.376250 0.360000 0.620000
0.520000 0.360000 0.620000
0.663750 0.360000 0.620000
0.807500 0.360000 0.620000
0.951250 0.360000 0.620000
1.000000 0.360000 0.620000
0.000000 0.500000 0.620000
0.088750 0.500000 0.620000
0.232500 0.500000 0.620000
0.376250 0.500000 0.620000
0.520000 0.500000 0.620000
0.663750 0.500000 0.620000
0.807500 0.500000 0.620000
0.951250 0.500000 0.620000
1.000000 0.500000 0.620000
0.000000 0.640000 0.620000
0.088750 0.640000 0.620000
0.232500 0.640000 0.620000
0.376250 0.640000 0.620000
0.520000 0.640000 0.620000
0.663750 0.640000 0.620000
0.807500 0.640000 0.620000
0.951250 0.640000 0.620000
1.000000 0.640000 0.620000
0.000000 0.780000 0.620000
0.088750 0.780000 0.620000
0.232500 0.780000 0.620000
0.376250 0.780000 0.620000
0.520000 0.780000 0.620000
0.663750 0.780000 0.620000
0.807500 0.780000 0.620000
0.951250 0.780000 0.620000
1.000000 0.780000 0.620000
0.000000 0.920000 0.620000
0.088750 0.920000 0.620000
0.232500 0.920000 0.620000
0.376250 0.920000 0.620000
0.520000 0.920000 0.620000
0.663750 0.920000 0.620000
0.807500 0.920000 0.620000
0.951250 0.920000 0.620000
1.000000 0.920000 0.620000
0.000000 1.000000 0.620000
0.088750 1.000000 0.620000
0.232500 1.000000 0.620000
0.376250 1.000000 0.620000
0.520000 1.000000 0.620000
0.663750 1.000000 0.620000
0.807500 1.000000 0.620000
0.951250 1.000000 0.620000
1.000000 1.000000 0.620000
0.000000 0.000000 0.760000
0.088750 0.000000 0.760000
0.232500 0.000000 0.760000
0.376250 0.000000 0.760000
0.520000 0.000000 0.760000
0.663750 0.000000 0.760000
0.807500 0.000000 0.760000
0.951250 0.000000 0.760000
1.000000 0.000000 0.760000
0.000000 0.080000 0.760000
0.088750 0.080000 0.760000
0.232500 0.080000 0.760000
0.376250 0.080000 0.760000
0.520000 0.080000 0.760000
0.663750 0.080000 0.760000
0.807500 0.080000 0.760000
0.951250 0.080000 0.760000
1.000000 0.080000 0.760000
0.000000 0.220000 0.760000
0.088750 0.220000 0.760000
0.232500 0.220000 0.760000
0.376250 0.220000 0.760000
0.520000 0.220000 0.760000
0.663750 0.220000 0.760000
0.807500 0.220000 0.760000
0.951250 0.220000 0.760000
1.000000 0.220000 0.760000
0.000000 0.360000 0.760000
0.088750 0.360000 0.760000
0.232500 0.360000 0.760000
0.376250 0.360000 0.760000
0.520000 0.360000 0.760000
0.663750 0.360000 0.760000
0.807500 0.360000 0.760000
0.951250 0.360000 0.760000
1.000000 0.360000 0.760000
0.000000 0.500000 0.760000
0.088750 0.500000 0.760000
0.232500 0.500000 0.760000
0.376250 0.500000 0.760000
0.520000 0.500000 0.760000
0.663750 0.500000 0.760000
0.807500 0.500000 0.760000
0.951250 0.500000 0.760000
1.000000 0.500000 0.760000
0.000000 0.640000 0.760000
0.088750 0.640000 0.760000
0.232500 0.640000 0.760000
0.376250 0.640000 0.760000
0.520000 0.640000 0.760000
0.663750 0.640000 0.760000
0.807500 0.640000 0.760000
0.951250 0.640000 0.760000
1.000000 0.640000 0.760000
0.000000 0.780000 0.760000
0.088750 0.780000 0.760000
0.232500 0.780000 0.760000
0.376250 0.780000 0.760000
0.520000 0.780000 0.760000
0.663750 0.780000 0.760000
0.807500 0.780000 0.760000
0.951250 0.780000 0.760000
1.000000 0.780000 0.760000
0.000000 0.920000 0.760000
0.088750 0.920000 0.760000
0.232500 0.920000 0.760000
0.376250 0.920000 0.760000
0.520000 0.920000 0.760000
0.663750 0.920000 0.760000
0.807500 0.920000 0.760000
0.951250 0.920000 0.760000
1.000000 0.920000 0.760000
0.000000 1.000000 0.760000
0.088750 1.000000 0.760000
0.232500 1.000000 0.760000
0.376250 1.000000 0.760000
0.520000 1.000000 0.760000
0.663750 1.000000 0.760000
0.807500 1.000000 0.760000
0.951250 1.000000 0.760000
1.000000 1.000000 0.760000
0.000000 0.000000 0.900000
0.088750 0.000000 0.900000
0.232500 0.000000 0.900000
0.376250 0.000000 0.900000
0.520000 0.000000 0.900000
0.663750 0.000000 0.900000
0.807500 0.000000 0.900000
0.951250 0.000000 0.900000
1.000000 0.000000 0.900000
0.000000 0.080000 0.900000
0.088750 0.080000 0.900000
0.232500 0.080000 0.900000
0.376250 0.080000 0.900000
0.520000 0.080000 0.900000
0.663750 0.080000 0.900000
0.807500 0.080000 0.900000
0.951250 0.080000 0.900000
1.000000 0.080000 0.900000
0.000000 0.220000 0.900000
0.088750 0.220000 0.900000
0.232500 0.220000 0.900000
0.376250 0.220000 0.900000
0.520000 0.220000 0.900000
0.663750 0.220000 0.900000
0.807500 0.220000 0.900000
0.951250 0.220000 0.900000
1.000000 0.220000 0.900000
0.000000 0.360000 0.900000
0.088750 0.360000 0.900000
0.232500 0.360000 0.900000
0.376250 0.360000 0.900000
0.520000 0.360000 0.900000
0.663750 0.360000 0.900000
0.807500 0.360000 0.900000
0.951250 0.360000 0.900000
1.000000 0.360000 0.900000
0.000000 0.500000 0.900000
0.088750 0.500000 0.900000
0.232500 0.500000 0.900000
0.376250 0.500000 0.900000
0.520000 0.500000 0.900000
0.663750 0.500000 0.900000
0.807500 0.500000 0.900000
0.951250 0.500000 0.900000
1.000000 0.500000 0.900000
0.000000 0.640000 0.900000
0.088750 0.640000 0.900000
0.232500 0.640000 0.900000
0.376250 0.640000 0.900000
0.520000 0.640000 0.900000
0.663750 0.640000 0.900000
0.807500 0.640000 0.900000
0.951250 0.640000 0.900000
1.000000 0.640000 0.900000
0.000000 0.780000 0.900000
0.088750 0.780000 0.900000
0.232500 0.780000 0.900000
0.376250 0.780000 0.900000
0.520000 0.780000 0.900000
0.663750 0.780000 0.900000
0.807500 0.780000 0.900000
0.951250 0.780000 0.900000
1.000000 0.780000 0.900000
0.000000 0.920000 0.900000
0.088750 0.920000 0.900000
0.232500 0.920000 0.900000
0.376250 0.920000 0.900000
0.520000 0.920000 0.900000
0.663750 0.920000 0.900000
0.807500 0.920000 0.900000
0.951250 0.920000 0.900000
1.000000 0.920000 0.900000
0.000000 1.000000 0.900000
0.088750 1.000000 0.900000
0.232500 1.000000 0.900000
0.376250 1.000000 0.900000
0.520000 1.000000 0.900000
0.663750 1.000000 0.900000
0.807500 1.000000 0.900000
0.951250 1.000000 0.900000
1.000000 1.000000 0.900000
0.000000 0.000000 1.000000
0.088750 0.000000 1.000000
0.232500 0.000000 1.000000
0.376250 0.000000 1.000000
0.520000 0.000000 1.000000
0.663750 0.000000 1.000000
0.807500 0.000000 1.000000
0.951250 0.000000 1.000000
1.000000 0.000000 1.000000
0.000000 0.080000 1.000000
0.088750 0.080000 1.000000
0.232500 0.080000 1.000000
0.376250 0.080000 1.000000
0.520000 0.080000 1.000000
0.663750 0.080000 1.000000
0.807500 0.080000 1.000000
0.951250 0.080000 1.000000
1.000000 0.080000 1.000000
0.000000 0.220000 1.000000
0.088750 0.220000 1.000000
0.232500 0.220000 1.000000
0.376250 0.220000 1.000000
0.520000 0.220000 1.000000
0.663750 0.220000 1.000000
0.807500 0.220000 1.000000
0.951250 0.220000 1.000000
1.000000 0.220000 1.000000
0.000000 0.360000 1.000000
0.088750 0.360000 1.000000
0.232500 0.360000 1.000000
0.376250 0.360000 1.000000
0.520000 0.360000 1.000000
0.663750 0.360000 1.000000
0.807500 0.360000 1.000000
0.951250 0.360000 1.000000
1.000000 0.360000 1.000000
0.000000 0.500000 1.000000
0.088750 0.500000 1.000000
0.232500 0.500000 1.000000
0.376250 0.500000 1.000000
0.520000 0.500000 1.000000
0.663750 0.500000 1.000000
0.807500 0.500000 1.000000
0.951250 0.500000 1.000000
1.000000 0.500000 1.000000
0.000000 0.640000 1.000000
0.088750 0.640000 1.000000
0.232500 0.640000 1.000000
0.376250 0.640000 1.000000
0.520000 0.640000 1.000000
0.663750 0.640000 1.000000
0.807500 0.640000 1.000000
0.951250 0.640000 1.000000
1.000000 0.640000 1.000000
0.000000 0.780000 1.000000
0.088750 0.780000 1.000000
0.232500 0.780000 1.000000
0.376250 0.780000 1.000000
0.520000 0.780000 1.000000
0.663750 0.780000 1.000000
0.807500 0.780000 1.000000
0.951250 0.780000 1.000000
1.000000 0.780000 1.000000
0.000000 0.920000 1.000000
0.088750 0.920000 1.000000
0.232500 0.920000 1.000000
0.376250 0.920000 1.000000
0.520000 0.920000 1.000000
0.663750 0.920000 1.000000
0.807500 0.920000 1.000000
0.951250 0.920000 1.000000
1.000000 0.920000 1.000000
0.000000 1.000000 1.000000
0.088750 1.000000 1.000000
0.232500 1.000000 1.000000
0.376250 1.000000 1.000000
0.520000 1.000000 1.000000
0.663750 1.000000 1.000000
0.807500 1.000000 1.000000
0.951250 1.000000 1.000000
1.000000 1.000000 1.000000
