public/luts/sepia.cube
# Recut LookBook — sepia
LUT_3D_SIZE 9
DOMAIN_MIN 0 0 0
DOMAIN_MAX 1 1 1
0.050000 0.000000 0.000000
0.078435 0.023918 0.018603
0.106871 0.047835 0.037205
0.135306 0.071753 0.055807
0.163741 0.095670 0.074410
0.192176 0.119588 0.093013
0.220612 0.143505 0.111615
0.249047 0.167423 0.130217
0.277482 0.191340 0.148820
0.145658 0.080460 0.062580
0.174093 0.104377 0.081182
0.202529 0.128295 0.099785
0.230964 0.152213 0.118387
0.259399 0.176130 0.136990
0.287834 0.200048 0.155592
0.316270 0.223965 0.174195
0.344705 0.247882 0.192797
0.373140 0.271800 0.211400
0.241316 0.160920 0.125160
0.269751 0.184837 0.143762
0.298187 0.208755 0.162365
0.326622 0.232673 0.180968
0.355057 0.256590 0.199570
0.383492 0.280508 0.218173
0.411928 0.304425 0.236775
0.440363 0.328342 0.255377
0.468798 0.352260 0.273980
0.336974 0.241380 0.187740
0.365409 0.265298 0.206342
0.393845 0.289215 0.224945
0.422280 0.313132 0.243547
0.450715 0.337050 0.262150
0.479150 0.360967 0.280753
0.507586 0.384885 0.299355
0.536021 0.408803 0.317957
0.564456 0.432720 0.336560
0.432632 0.321840 0.250320
0.461067 0.345757 0.268922
0.489502 0.369675 0.287525
0.517938 0.393592 0.306127
0.546373 0.417510 0.324730
0.574808 0.441428 0.343332
0.603244 0.465345 0.361935
0.631679 0.489263 0.380537
0.660114 0.513180 0.399140
0.528290 0.402300 0.312900
0.556725 0.426217 0.331502
0.585161 0.450135 0.350105
0.613596 0.474052 0.368707
0.642031 0.497970 0.387310
0.670466 0.521887 0.405912
0.698902 0.545805 0.424515
0.727337 0.569723 0.443117
0.755772 0.593640 0.461720
0.623948 0.482760 0.375480
0.652383 0.506678 0.394083
0.680819 0.530595 0.412685
0.709254 0.554513 0.431287
0.737689 0.578430 0.449890
0.766124 0.602348 0.468493
0.794560 0.626265 0.487095
0.822995 0.650182 0.505697
0.851430 0.674100 0.524300
0.719606 0.563220 0.438060
0.748041 0.587137 0.456662
0.776477 0.611055 0.475265
0.804912 0.634972 0.493867
0.833347 0.658890 0.512470
0.861782 0.682808 0.531072
0.890217 0.706725 0.549675
0.918653 0.730642 0.568277
0.947088 0.754560 0.586880
0.815264 0.643680 0.500640
0.843699 0.667597 0.519242
0.872135 0.691515 0.537845
0.900570 0.715433 0.556447
0.929005 0.739350 0.575050
0.957440 0.763267 0.593652
0.985876 0.787185 0.612255
1.000000 0.811102 0.630857
1.000000 0.835020 0.649460
0.059657 0.008122 0.006317
0.088092 0.032040 0.024920
0.116527 0.055958 0.043522
0.144963 0.079875 0.062125
0.173398 0.103793 0.080728
0.201833 0.127710 0.099330
0.230268 0.151628 0.117932
0.258704 0.175545 0.136535
0.287139 0.199463 0.155138
0.155315 0.088582 0.068898
0.183750 0.112500 0.087500
0.212185 0.136418 0.106103
0.240621 0.160335 0.124705
0.269056 0.184252 0.143307
0.297491 0.208170 0.161910
0.325926 0.232088 0.180512
0.354361 0.256005 0.199115
0.382797 0.279923 0.217717
0.250973 0.169042 0.131477
0.279408 0.192960 0.150080
0.307843 0.216878 0.168682
0.336279 0.240795 0.187285
0.364714 0.264713 0.205888
0.393149 0.288630 0.224490
0.421584 0.312548 0.243092
0.450019 0.336465 0.261695
0.478455 0.360382 0.280297
0.346631 0.249503 0.194057
0.375066 0.273420 0.212660
0.403501 0.297338 0.231263
0.431937 0.321255 0.249865
0.460372 0.345172 0.268467
0.488807 0.369090 0.287070
0.517242 0.393008 0.305672
0.545678 0.416925 0.324275
0.574113 0.440843 0.342878
0.442289 0.329962 0.256637
0.470724 0.353880 0.275240
0.499159 0.377797 0.293842
0.527594 0.401715 0.312445
0.556030 0.425632 0.331047
0.584465 0.449550 0.349650
0.612900 0.473467 0.368252
0.641336 0.497385 0.386855
0.669771 0.521303 0.405457
0.537947 0.410422 0.319217
0.566382 0.434340 0.337820
0.594817 0.458257 0.356422
0.623252 0.482175 0.375025
0.651688 0.506092 0.393627
0.680123 0.530010 0.412230
0.708558 0.553927 0.430832
0.736993 0.577845 0.449435
0.765429 0.601762 0.468037
0.633605 0.490882 0.381797
0.662040 0.514800 0.400400
0.690475 0.538717 0.419002
0.718911 0.562635 0.437605
0.747346 0.586553 0.456207
0.775781 0.610470 0.474810
0.804216 0.634387 0.493412
0.832651 0.658305 0.512015
0.861087 0.682222 0.530617
0.729263 0.571342 0.444377
0.757698 0.595260 0.462980
0.786133 0.619177 0.481582
0.814569 0.643095 0.500185
0.843004 0.667012 0.518787
0.871439 0.690930 0.537390
0.899874 0.714847 0.555992
0.928309 0.738765 0.574595
0.956745 0.762682 0.593197
0.824921 0.651802 0.506957
0.853356 0.675720 0.525560
0.881791 0.699637 0.544162
0.910227 0.723555 0.562765
0.938662 0.747472 0.581367
0.967097 0.771390 0.599970
0.995532 0.795307 0.618572
1.000000 0.819225 0.637175
1.000000 0.843142 0.655777
0.069314 0.016245 0.012635
0.097749 0.040162 0.031237
0.126184 0.064080 0.049840
0.154619 0.087998 0.068442
0.183055 0.111915 0.087045
0.211490 0.135833 0.105648
0.239925 0.159750 0.124250
0.268360 0.183668 0.142852
0.296796 0.207585 0.161455
0.164971 0.096705 0.075215
0.193407 0.120623 0.093817
0.221842 0.144540 0.112420
0.250277 0.168458 0.131022
0.278713 0.192375 0.149625
0.307148 0.216293 0.168228
0.335583 0.240210 0.186830
0.364018 0.264128 0.205432
0.392454 0.288045 0.224035
0.260630 0.177165 0.137795
0.289065 0.201082 0.156397
0.317500 0.225000 0.175000
0.345935 0.248918 0.193603
0.374371 0.272835 0.212205
0.402806 0.296753 0.230808
0.431241 0.320670 0.249410
0.459676 0.344587 0.268012
0.488111 0.368505 0.286615
0.356288 0.257625 0.200375
0.384723 0.281543 0.218977
0.413158 0.305460 0.237580
0.441593 0.329377 0.256182
0.470029 0.353295 0.274785
0.498464 0.377213 0.293388
0.526899 0.401130 0.311990
0.555334 0.425048 0.330592
0.583770 0.448965 0.349195
0.451946 0.338085 0.262955
0.480381 0.362003 0.281557
0.508816 0.385920 0.300160
0.537251 0.409837 0.318762
0.565687 0.433755 0.337365
0.594122 0.457673 0.355967
0.622557 0.481590 0.374570
0.650992 0.505507 0.393172
0.679428 0.529425 0.411775
0.547604 0.418545 0.325535
0.576039 0.442462 0.344137
0.604474 0.466380 0.362740
0.632909 0.490297 0.381342
0.661345 0.514215 0.399945
0.689780 0.538132 0.418547
0.718215 0.562050 0.437150
0.746650 0.585967 0.455752
0.775086 0.609885 0.474355
0.643262 0.499005 0.388115
0.671697 0.522923 0.406718
0.700132 0.546840 0.425320
0.728567 0.570758 0.443922
0.757003 0.594675 0.462525
0.785438 0.618593 0.481128
0.813873 0.642510 0.499730
0.842308 0.666428 0.518332
0.870744 0.690345 0.536935
0.738919 0.579465 0.450695
0.767355 0.603382 0.469297
0.795790 0.627300 0.487900
0.824225 0.651218 0.506502
0.852661 0.675135 0.525105
0.881096 0.699052 0.543708
0.909531 0.722970 0.562310
0.937966 0.746887 0.580912
0.966402 0.770805 0.599515
0.834578 0.659925 0.513275
0.863013 0.683843 0.531877
0.891448 0.707760 0.550480
0.919883 0.731677 0.569082
0.948318 0.755595 0.587685
0.976754 0.779512 0.606287
1.000000 0.803430 0.624890
1.000000 0.827348 0.643492
1.000000 0.851265 0.662095
0.078970 0.024368 0.018953
0.107406 0.048285 0.037555
0.135841 0.072203 0.056157
0.164276 0.096120 0.074760
0.192711 0.120038 0.093363
0.221147 0.143955 0.111965
0.249582 0.167873 0.130568
0.278017 0.191790 0.149170
0.306452 0.215708 0.167773
0.174628 0.104828 0.081532
0.203064 0.128745 0.100135
0.231499 0.152663 0.118738
0.259934 0.176580 0.137340
0.288369 0.200497 0.155942
0.316805 0.224415 0.174545
0.345240 0.248333 0.193147
0.373675 0.272250 0.211750
0.402110 0.296168 0.230352
0.270286 0.185287 0.144112
0.298722 0.209205 0.162715
0.327157 0.233123 0.181317
0.355592 0.257040 0.199920
0.384027 0.280958 0.218523
0.412463 0.304875 0.237125
0.440898 0.328793 0.255727
0.469333 0.352710 0.274330
0.497768 0.376628 0.292932
0.365944 0.265748 0.206693
0.394380 0.289665 0.225295
0.422815 0.313583 0.243898
0.451250 0.337500 0.262500
0.479685 0.361418 0.281102
0.508121 0.385335 0.299705
0.536556 0.409253 0.318307
0.564991 0.433170 0.336910
0.593426 0.457087 0.355512
0.461602 0.346208 0.269272
0.490038 0.370125 0.287875
0.518473 0.394042 0.306477
0.546908 0.417960 0.325080
0.575343 0.441877 0.343683
0.603778 0.465795 0.362285
0.632214 0.489712 0.380887
0.660649 0.513630 0.399490
0.689084 0.537548 0.418092
0.557260 0.426667 0.331852
0.585696 0.450585 0.350455
0.614131 0.474502 0.369057
0.642566 0.498420 0.387660
0.671001 0.522337 0.406262
0.699436 0.546255 0.424865
0.727872 0.570172 0.443467
0.756307 0.594090 0.462070
0.784742 0.618007 0.480672
0.652918 0.507127 0.394432
0.681354 0.531045 0.413035
0.709789 0.554963 0.431637
0.738224 0.578880 0.450240
0.766659 0.602797 0.468842
0.795095 0.626715 0.487445
0.823530 0.650632 0.506047
0.851965 0.674550 0.524650
0.880400 0.698468 0.543252
0.748576 0.587587 0.457012
0.777011 0.611505 0.475615
0.805447 0.635422 0.494217
0.833882 0.659340 0.512820
0.862317 0.683257 0.531422
0.890753 0.707175 0.550025
0.919188 0.731092 0.568627
0.947623 0.755010 0.587230
0.976058 0.778927 0.605832
0.844234 0.668047 0.519592
0.872669 0.691965 0.538195
0.901105 0.715882 0.556797
0.929540 0.739800 0.575400
0.957975 0.763717 0.594002
0.986410 0.787635 0.612605
1.000000 0.811552 0.631207
1.000000 0.835470 0.649810
1.000000 0.859387 0.668412
0.088627 0.032490 0.025270
0.117062 0.056408 0.043873
0.145498 0.080325 0.062475
0.173933 0.104243 0.081077
0.202368 0.128160 0.099680
0.230803 0.152078 0.118282
0.259239 0.175995 0.136885
0.287674 0.199912 0.155487
0.316109 0.223830 0.174090
0.184285 0.112950 0.087850
0.212720 0.136868 0.106452
0.241156 0.160785 0.125055
0.269591 0.184702 0.143657
0.298026 0.208620 0.162260
0.326461 0.232538 0.180863
0.354897 0.256455 0.199465
0.383332 0.280373 0.218067
0.411767 0.304290 0.236670
0.279943 0.193410 0.150430
0.308378 0.217327 0.169032
0.336814 0.241245 0.187635
0.365249 0.265163 0.206238
0.393684 0.289080 0.224840
0.422119 0.312998 0.243443
0.450555 0.336915 0.262045
0.478990 0.360833 0.280647
0.507425 0.384750 0.299250
0.375601 0.273870 0.213010
0.404036 0.297788 0.231612
0.432472 0.321705 0.250215
0.460907 0.345622 0.268817
0.489342 0.369540 0.287420
0.517777 0.393458 0.306023
0.546212 0.417375 0.324625
0.574648 0.441293 0.343227
0.603083 0.465210 0.361830
0.471259 0.354330 0.275590
0.499694 0.378248 0.294192
0.528130 0.402165 0.312795
0.556565 0.426082 0.331397
0.585000 0.450000 0.350000
0.613435 0.473918 0.368602
0.641871 0.497835 0.387205
0.670306 0.521753 0.405807
0.698741 0.545670 0.424410
0.566917 0.434790 0.338170
0.595352 0.458707 0.356772
0.623788 0.482625 0.375375
0.652223 0.506543 0.393977
0.680658 0.530460 0.412580
0.709093 0.554377 0.431182
0.737529 0.578295 0.449785
0.765964 0.602213 0.468387
0.794399 0.626130 0.486990
0.662575 0.515250 0.400750
0.691010 0.539168 0.419353
0.719446 0.563085 0.437955
0.747881 0.587003 0.456558
0.776316 0.610920 0.475160
0.804751 0.634838 0.493763
0.833187 0.658755 0.512365
0.861622 0.682673 0.530967
0.890057 0.706590 0.549570
0.758233 0.595710 0.463330
0.786668 0.619627 0.481932
0.815104 0.643545 0.500535
0.843539 0.667462 0.519137
0.871974 0.691380 0.537740
0.900409 0.715298 0.556342
0.928844 0.739215 0.574945
0.957280 0.763132 0.593547
0.985715 0.787050 0.612150
0.853891 0.676170 0.525910
0.882326 0.700087 0.544512
0.910762 0.724005 0.563115
0.939197 0.747923 0.581717
0.967632 0.771840 0.600320
0.996067 0.795758 0.618922
1.000000 0.819675 0.637525
1.000000 0.843592 0.656127
1.000000 0.867510 0.674730
0.098284 0.040613 0.031587
0.126719 0.064530 0.050190
0.155154 0.088447 0.068792
0.183590 0.112365 0.087395
0.212025 0.136283 0.105997
0.240460 0.160200 0.124600
0.268895 0.184118 0.143202
0.297330 0.208035 0.161805
0.325766 0.231952 0.180407
0.193942 0.121073 0.094168
0.222377 0.144990 0.112770
0.250812 0.168908 0.131373
0.279248 0.192825 0.149975
0.307683 0.216742 0.168577
0.336118 0.240660 0.187180
0.364553 0.264578 0.205782
0.392989 0.288495 0.224385
0.421424 0.312413 0.242987
0.289600 0.201533 0.156747
0.318035 0.225450 0.175350
0.346470 0.249367 0.193952
0.374906 0.273285 0.212555
0.403341 0.297202 0.231157
0.431776 0.321120 0.249760
0.460211 0.345038 0.268363
0.488646 0.368955 0.286965
0.517082 0.392872 0.305567
0.385258 0.281992 0.219327
0.413693 0.305910 0.237930
0.442128 0.329827 0.256532
0.470564 0.353745 0.275135
0.498999 0.377663 0.293737
0.527434 0.401580 0.312340
0.555869 0.425497 0.330942
0.584305 0.449415 0.349545
0.612740 0.473332 0.368147
0.480916 0.362453 0.281907
0.509351 0.386370 0.300510
0.537786 0.410287 0.319112
0.566222 0.434205 0.337715
0.594657 0.458122 0.356317
0.623092 0.482040 0.374920
0.651527 0.505957 0.393522
0.679963 0.529875 0.412125
0.708398 0.553793 0.430727
0.576574 0.442912 0.344487
0.605009 0.466830 0.363090
0.633444 0.490747 0.381692
0.661880 0.514665 0.400295
0.690315 0.538582 0.418897
0.718750 0.562500 0.437500
0.747185 0.586417 0.456102
0.775621 0.610335 0.474705
0.804056 0.634252 0.493307
0.672232 0.523373 0.407067
0.700667 0.547290 0.425670
0.729102 0.571207 0.444272
0.757538 0.595125 0.462875
0.785973 0.619043 0.481478
0.814408 0.642960 0.500080
0.842843 0.666878 0.518682
0.871279 0.690795 0.537285
0.899714 0.714712 0.555887
0.767890 0.603832 0.469647
0.796325 0.627750 0.488250
0.824760 0.651667 0.506852
0.853195 0.675585 0.525455
0.881631 0.699502 0.544057
0.910066 0.723420 0.562660
0.938501 0.747337 0.581262
0.966936 0.771255 0.599865
0.995372 0.795172 0.618467
0.863548 0.684292 0.532227
0.891983 0.708210 0.550830
0.920418 0.732127 0.569432
0.948854 0.756045 0.588035
0.977289 0.779962 0.606637
1.000000 0.803880 0.625240
1.000000 0.827797 0.643842
1.000000 0.851715 0.662445
1.000000 0.875632 0.681047
0.107941 0.048735 0.037905
0.136376 0.072653 0.056508
0.164811 0.096570 0.075110
0.193246 0.120488 0.093713
0.221682 0.144405 0.112315
0.250117 0.168323 0.130918
0.278552 0.192240 0.149520
0.306987 0.216158 0.168122
0.335423 0.240075 0.186725
0.203599 0.129195 0.100485
0.232034 0.153113 0.119087
0.260469 0.177030 0.137690
0.288904 0.200948 0.156293
0.317339 0.224865 0.174895
0.345775 0.248783 0.193498
0.374210 0.272700 0.212100
0.402645 0.296617 0.230702
0.431080 0.320535 0.249305
0.299256 0.209655 0.163065
0.327692 0.233573 0.181667
0.356127 0.257490 0.200270
0.384562 0.281408 0.218872
0.412998 0.305325 0.237475
0.441433 0.329243 0.256078
0.469868 0.353160 0.274680
0.498303 0.377078 0.293282
0.526738 0.400995 0.311885
0.394915 0.290115 0.225645
0.423350 0.314033 0.244248
0.451785 0.337950 0.262850
0.480220 0.361867 0.281452
0.508656 0.385785 0.300055
0.537091 0.409703 0.318657
0.565526 0.433620 0.337260
0.593961 0.457538 0.355862
0.622397 0.481455 0.374465
0.490572 0.370575 0.288225
0.519008 0.394492 0.306827
0.547443 0.418410 0.325430
0.575878 0.442327 0.344032
0.604314 0.466245 0.362635
0.632749 0.490163 0.381238
0.661184 0.514080 0.399840
0.689619 0.537998 0.418442
0.718055 0.561915 0.437045
0.586231 0.451035 0.350805
0.614666 0.474952 0.369407
0.643101 0.498870 0.388010
0.671536 0.522788 0.406612
0.699971 0.546705 0.425215
0.728407 0.570622 0.443817
0.756842 0.594540 0.462420
0.785277 0.618457 0.481022
0.813713 0.642375 0.499625
0.681889 0.531495 0.413385
0.710324 0.555413 0.431988
0.738759 0.579330 0.450590
0.767194 0.603248 0.469193
0.795630 0.627165 0.487795
0.824065 0.651083 0.506398
0.852500 0.675000 0.525000
0.880935 0.698918 0.543602
0.909371 0.722835 0.562205
0.777547 0.611955 0.475965
0.805982 0.635872 0.494567
0.834417 0.659790 0.513170
0.862852 0.683708 0.531772
0.891288 0.707625 0.550375
0.919723 0.731542 0.568978
0.948158 0.755460 0.587580
0.976593 0.779377 0.606182
1.000000 0.803295 0.624785
0.873205 0.692415 0.538545
0.901640 0.716333 0.557147
0.930075 0.740250 0.575750
0.958510 0.764167 0.594352
0.986946 0.788085 0.612955
1.000000 0.812002 0.631557
1.000000 0.835920 0.650160
1.000000 0.859838 0.668762
1.000000 0.883755 0.687365
0.117597 0.056857 0.044222
0.146033 0.080775 0.062825
0.174468 0.104692 0.081427
0.202903 0.128610 0.100030
0.231338 0.152527 0.118632
0.259773 0.176445 0.137235
0.288209 0.200363 0.155837
0.316644 0.224280 0.174440
0.345079 0.248197 0.193042
0.213255 0.137317 0.106802
0.241690 0.161235 0.125405
0.270126 0.185152 0.144007
0.298561 0.209070 0.162610
0.326996 0.232987 0.181212
0.355432 0.256905 0.199815
0.383867 0.280823 0.218417
0.412302 0.304740 0.237020
0.440737 0.328657 0.255622
0.308913 0.217778 0.169382
0.337348 0.241695 0.187985
0.365784 0.265612 0.206587
0.394219 0.289530 0.225190
0.422654 0.313447 0.243792
0.451090 0.337365 0.262395
0.479525 0.361283 0.280997
0.507960 0.385200 0.299600
0.536395 0.409117 0.318202
0.404571 0.298237 0.231962
0.433007 0.322155 0.250565
0.461442 0.346073 0.269168
0.489877 0.369990 0.287770
0.518312 0.393907 0.306372
0.546748 0.417825 0.324975
0.575183 0.441742 0.343577
0.603618 0.465660 0.362180
0.632053 0.489577 0.380782
0.500229 0.378697 0.294542
0.528664 0.402615 0.313145
0.557100 0.426532 0.331747
0.585535 0.450450 0.350350
0.613970 0.474367 0.368952
0.642406 0.498285 0.387555
0.670841 0.522203 0.406157
0.699276 0.546120 0.424760
0.727711 0.570038 0.443362
0.595887 0.459157 0.357122
0.624323 0.483075 0.375725
0.652758 0.506992 0.394327
0.681193 0.530910 0.412930
0.709628 0.554827 0.431532
0.738063 0.578745 0.450135
0.766499 0.602662 0.468737
0.794934 0.626580 0.487340
0.823369 0.650497 0.505942
0.691545 0.539617 0.419702
0.719981 0.563535 0.438305
0.748416 0.587453 0.456907
0.776851 0.611370 0.475510
0.805286 0.635288 0.494113
0.833722 0.659205 0.512715
0.862157 0.683122 0.531317
0.890592 0.707040 0.549920
0.919027 0.730958 0.568522
0.787203 0.620077 0.482282
0.815639 0.643995 0.500885
0.844074 0.667912 0.519487
0.872509 0.691830 0.538090
0.900944 0.715747 0.556692
0.929380 0.739665 0.575295
0.957815 0.763582 0.593897
0.986250 0.787500 0.612500
1.000000 0.811417 0.631102
0.882861 0.700537 0.544862
0.911297 0.724455 0.563465
0.939732 0.748372 0.582067
0.968167 0.772290 0.600670
0.996602 0.796207 0.619272
1.000000 0.820125 0.637875
1.000000 0.844042 0.656477
1.000000 0.867960 0.675080
1.000000 0.891877 0.693682
0.127254 0.064980 0.050540
0.155689 0.088898 0.069142
0.184125 0.112815 0.087745
0.212560 0.136733 0.106347
0.240995 0.160650 0.124950
0.269430 0.184568 0.143552
0.297866 0.208485 0.162155
0.326301 0.232402 0.180757
0.354736 0.256320 0.199360
0.222912 0.145440 0.113120
0.251347 0.169357 0.131722
0.279782 0.193275 0.150325
0.308218 0.217193 0.168928
0.336653 0.241110 0.187530
0.365088 0.265027 0.206132
0.393524 0.288945 0.224735
0.421959 0.312862 0.243337
0.450394 0.336780 0.261940
0.318570 0.225900 0.175700
0.347005 0.249817 0.194302
0.375440 0.273735 0.212905
0.403876 0.297652 0.231507
0.432311 0.321570 0.250110
0.460746 0.345488 0.268713
0.489181 0.369405 0.287315
0.517617 0.393322 0.305917
0.546052 0.417240 0.324520
0.414228 0.306360 0.238280
0.442663 0.330278 0.256882
0.471099 0.354195 0.275485
0.499534 0.378112 0.294087
0.527969 0.402030 0.312690
0.556404 0.425948 0.331292
0.584840 0.449865 0.349895
0.613275 0.473783 0.368497
0.641710 0.497700 0.387100
0.509886 0.386820 0.300860
0.538321 0.410737 0.319462
0.566756 0.434655 0.338065
0.595192 0.458572 0.356667
0.623627 0.482490 0.375270
0.652062 0.506408 0.393873
0.680498 0.530325 0.412475
0.708933 0.554243 0.431078
0.737368 0.578160 0.449680
0.605544 0.467280 0.363440
0.633979 0.491198 0.382043
0.662415 0.515115 0.400645
0.690850 0.539033 0.419247
0.719285 0.562950 0.437850
0.747720 0.586867 0.456452
0.776156 0.610785 0.475055
0.804591 0.634703 0.493657
0.833026 0.658620 0.512260
0.701202 0.547740 0.426020
0.729637 0.571658 0.444622
0.758073 0.595575 0.463225
0.786508 0.619493 0.481828
0.814943 0.643410 0.500430
0.843378 0.667328 0.519033
0.871814 0.691245 0.537635
0.900249 0.715163 0.556237
0.928684 0.739080 0.574840
0.796860 0.628200 0.488600
0.825295 0.652118 0.507203
0.853731 0.676035 0.525805
0.882166 0.699952 0.544407
0.910601 0.723870 0.563010
0.939036 0.747788 0.581612
0.967472 0.771705 0.600215
0.995907 0.795623 0.618817
1.000000 0.819540 0.637420
0.892518 0.708660 0.551180
0.920953 0.732577 0.569782
0.949389 0.756495 0.588385
0.977824 0.780413 0.606988
1.000000 0.804330 0.625590
1.000000 0.828248 0.644192
1.000000 0.852165 0.662795
1.000000 0.876082 0.681397
1.000000 0.900000 0.700000
