public/luts/sepia.cube
# Recut LookBook — sepia
LUT_3D_SIZE 17
DOMAIN_MIN 0 0 0
DOMAIN_MAX 1 1 1
0.050000 0.000000 0.000000
0.064218 0.011959 0.009301
0.078435 0.023918 0.018603
0.092653 0.035876 0.027904
0.106871 0.047835 0.037205
0.121088 0.059794 0.046506
0.135306 0.071753 0.055807
0.149523 0.083711 0.065109
0.163741 0.095670 0.074410
0.177959 0.107629 0.083711
0.192176 0.119588 0.093013
0.206394 0.131546 0.102314
0.220612 0.143505 0.111615
0.234829 0.155464 0.120916
0.249047 0.167423 0.130217
0.263264 0.179381 0.139519
0.277482 0.191340 0.148820
0.097829 0.040230 0.031290
0.112047 0.052189 0.040591
0.126264 0.064148 0.049892
0.140482 0.076106 0.059194
0.154699 0.088065 0.068495
0.168917 0.100024 0.077796
0.183135 0.111983 0.087097
0.197352 0.123941 0.096399
0.211570 0.135900 0.105700
0.225788 0.147859 0.115001
0.240005 0.159818 0.124302
0.254223 0.171776 0.133604
0.268441 0.183735 0.142905
0.282658 0.195694 0.152206
0.296876 0.207652 0.161507
0.311093 0.219611 0.170809
0.325311 0.231570 0.180110
0.145658 0.080460 0.062580
0.159876 0.092419 0.071881
0.174093 0.104377 0.081182
0.188311 0.116336 0.090484
0.202529 0.128295 0.099785
0.216746 0.140254 0.109086
0.230964 0.152213 0.118387
0.245181 0.164171 0.127689
0.259399 0.176130 0.136990
0.273617 0.188089 0.146291
0.287834 0.200048 0.155592
0.302052 0.212006 0.164894
0.316270 0.223965 0.174195
0.330487 0.235924 0.183496
0.344705 0.247882 0.192797
0.358922 0.259841 0.202099
0.373140 0.271800 0.211400
0.193487 0.120690 0.093870
0.207705 0.132649 0.103171
0.221922 0.144608 0.112473
0.236140 0.156566 0.121774
0.250358 0.168525 0.131075
0.264575 0.180484 0.140376
0.278793 0.192442 0.149677
0.293010 0.204401 0.158979
0.307228 0.216360 0.168280
0.321446 0.228319 0.177581
0.335663 0.240278 0.186883
0.349881 0.252236 0.196184
0.364098 0.264195 0.205485
0.378316 0.276154 0.214786
0.392534 0.288112 0.224087
0.406751 0.300071 0.233389
0.420969 0.312030 0.242690
0.241316 0.160920 0.125160
0.255534 0.172879 0.134461
0.269751 0.184837 0.143762
0.283969 0.196796 0.153064
0.298187 0.208755 0.162365
0.312404 0.220714 0.171666
0.326622 0.232673 0.180968
0.340839 0.244631 0.190269
0.355057 0.256590 0.199570
0.369275 0.268549 0.208871
0.383492 0.280508 0.218173
0.397710 0.292466 0.227474
0.411928 0.304425 0.236775
0.426145 0.316384 0.246076
0.440363 0.328342 0.255377
0.454580 0.340301 0.264679
0.468798 0.352260 0.273980
0.289145 0.201150 0.156450
0.303363 0.213109 0.165751
0.317580 0.225068 0.175052
0.331798 0.237026 0.184354
0.346015 0.248985 0.193655
0.360233 0.260944 0.202956
0.374451 0.272902 0.212257
0.388668 0.284861 0.221559
0.402886 0.296820 0.230860
0.417104 0.308779 0.240161
0.431321 0.320738 0.249462
0.445539 0.332696 0.258764
0.459757 0.344655 0.268065
0.473974 0.356614 0.277366
0.488192 0.368572 0.286667
0.502409 0.380531 0.295969
0.516627 0.392490 0.305270
0.336974 0.241380 0.187740
0.351192 0.253339 0.197041
0.365409 0.265298 0.206342
0.379627 0.277256 0.215644
0.393845 0.289215 0.224945
0.408062 0.301174 0.234246
0.422280 0.313132 0.243547
0.436497 0.325091 0.252849
0.450715 0.337050 0.262150
0.464933 0.349009 0.271451
0.479150 0.360967 0.280753
0.493368 0.372926 0.290054
0.507586 0.384885 0.299355
0.521803 0.396844 0.308656
0.536021 0.408803 0.317957
0.550238 0.420761 0.327259
0.564456 0.432720 0.336560
0.384803 0.281610 0.219030
0.399021 0.293569 0.228331
0.413238 0.305528 0.237632
0.427456 0.317486 0.246934
0.441673 0.329445 0.256235
0.455891 0.341404 0.265536
0.470109 0.353362 0.274837
0.484326 0.365321 0.284139
0.498544 0.377280 0.293440
0.512762 0.389239 0.302741
0.526979 0.401197 0.312042
0.541197 0.413156 0.321344
0.555415 0.425115 0.330645
0.569632 0.437074 0.339946
0.583850 0.449032 0.349247
0.598067 0.460991 0.358549
0.612285 0.472950 0.367850
0.432632 0.321840 0.250320
0.446850 0.333799 0.259621
0.461067 0.345757 0.268922
0.475285 0.357716 0.278224
0.489502 0.369675 0.287525
0.503720 0.381634 0.296826
0.517938 0.393592 0.306127
0.532155 0.405551 0.315429
0.546373 0.417510 0.324730
0.560591 0.429469 0.334031
0.574808 0.441428 0.343332
0.589026 0.453386 0.352634
0.603244 0.465345 0.361935
0.617461 0.477304 0.371236
0.631679 0.489263 0.380537
0.645896 0.501221 0.389839
0.660114 0.513180 0.399140
0.480461 0.362070 0.281610
0.494679 0.374029 0.290911
0.508896 0.385988 0.300212
0.523114 0.397946 0.309514
0.537332 0.409905 0.318815
0.551549 0.421864 0.328116
0.565767 0.433822 0.337417
0.579984 0.445781 0.346719
0.594202 0.457740 0.356020
0.608420 0.469699 0.365321
0.622637 0.481657 0.374622
0.636855 0.493616 0.383924
0.651073 0.505575 0.393225
0.665290 0.517534 0.402526
0.679508 0.529493 0.411827
0.693725 0.541451 0.421129
0.707943 0.553410 0.430430
0.528290 0.402300 0.312900
0.542508 0.414259 0.322201
0.556725 0.426217 0.331502
0.570943 0.438176 0.340804
0.585161 0.450135 0.350105
0.599378 0.462094 0.359406
0.613596 0.474052 0.368707
0.627813 0.486011 0.378009
0.642031 0.497970 0.387310
0.656249 0.509929 0.396611
0.670466 0.521887 0.405912
0.684684 0.533846 0.415214
0.698902 0.545805 0.424515
0.713119 0.557764 0.433816
0.727337 0.569723 0.443117
0.741554 0.581681 0.452419
0.755772 0.593640 0.461720
0.576119 0.442530 0.344190
0.590337 0.454489 0.353491
0.604554 0.466447 0.362792
0.618772 0.478406 0.372094
0.632989 0.490365 0.381395
0.647207 0.502324 0.390696
0.661425 0.514282 0.399997
0.675642 0.526241 0.409299
0.689860 0.538200 0.418600
0.704078 0.550159 0.427901
0.718295 0.562118 0.437202
0.732513 0.574076 0.446504
0.746731 0.586035 0.455805
0.760948 0.597994 0.465106
0.775166 0.609952 0.474407
0.789383 0.621911 0.483709
0.803601 0.633870 0.493010
0.623948 0.482760 0.375480
0.638166 0.494719 0.384781
0.652383 0.506678 0.394083
0.666601 0.518636 0.403384
0.680819 0.530595 0.412685
0.695036 0.542554 0.421986
0.709254 0.554513 0.431287
0.723471 0.566471 0.440589
0.737689 0.578430 0.449890
0.751907 0.590389 0.459191
0.766124 0.602348 0.468493
0.780342 0.614306 0.477794
0.794560 0.626265 0.487095
0.808777 0.638224 0.496396
0.822995 0.650182 0.505697
0.837212 0.662141 0.514999
0.851430 0.674100 0.524300
0.671777 0.522990 0.406770
0.685995 0.534949 0.416071
0.700212 0.546907 0.425372
0.714430 0.558866 0.434674
0.728648 0.570825 0.443975
0.742865 0.582784 0.453276
0.757083 0.594743 0.462577
0.771300 0.606701 0.471879
0.785518 0.618660 0.481180
0.799736 0.630619 0.490481
0.813953 0.642578 0.499782
0.828171 0.654536 0.509084
0.842388 0.666495 0.518385
0.856606 0.678454 0.527686
0.870824 0.690412 0.536987
0.885041 0.702371 0.546289
0.899259 0.714330 0.555590
0.719606 0.563220 0.438060
0.733824 0.575179 0.447361
0.748041 0.587137 0.456662
0.762259 0.599096 0.465964
0.776477 0.611055 0.475265
0.790694 0.623014 0.484566
0.804912 0.634972 0.493867
0.819129 0.646931 0.503169
0.833347 0.658890 0.512470
0.847565 0.670849 0.521771
0.861782 0.682808 0.531072
0.876000 0.694766 0.540374
0.890217 0.706725 0.549675
0.904435 0.718684 0.558976
0.918653 0.730642 0.568277
0.932870 0.742601 0.577579
0.947088 0.754560 0.586880
0.767435 0.603450 0.469350
0.781653 0.615409 0.478651
0.795870 0.627367 0.487952
0.810088 0.639326 0.497254
0.824306 0.651285 0.506555
0.838523 0.663244 0.515856
0.852741 0.675203 0.525157
0.866958 0.687161 0.534459
0.881176 0.699120 0.543760
0.895394 0.711079 0.553061
0.909611 0.723037 0.562362
0.923829 0.734996 0.571664
0.938047 0.746955 0.580965
0.952264 0.758914 0.590266
0.966482 0.770872 0.599567
0.980699 0.782831 0.608869
0.994917 0.794790 0.618170
0.815264 0.643680 0.500640
0.829482 0.655639 0.509941
0.843699 0.667597 0.519242
0.857917 0.679556 0.528544
0.872135 0.691515 0.537845
0.886352 0.703474 0.547146
0.900570 0.715433 0.556447
0.914787 0.727391 0.565749
0.929005 0.739350 0.575050
0.943223 0.751309 0.584351
0.957440 0.763267 0.593652
0.971658 0.775226 0.602954
0.985876 0.787185 0.612255
1.000000 0.799144 0.621556
1.000000 0.811102 0.630857
1.000000 0.823061 0.640159
1.000000 0.835020 0.649460
0.054828 0.004061 0.003159
0.069046 0.016020 0.012460
0.083264 0.027979 0.021761
0.097481 0.039938 0.031062
0.111699 0.051896 0.040364
0.125917 0.063855 0.049665
0.140134 0.075814 0.058966
0.154352 0.087773 0.068267
0.168569 0.099731 0.077569
0.182787 0.111690 0.086870
0.197005 0.123649 0.096171
0.211222 0.135608 0.105472
0.225440 0.147566 0.114774
0.239658 0.159525 0.124075
0.253875 0.171484 0.133376
0.268093 0.183443 0.142677
0.282310 0.195401 0.151979
0.102657 0.044291 0.034449
0.116875 0.056250 0.043750
0.131093 0.068209 0.053051
0.145310 0.080168 0.062352
0.159528 0.092126 0.071654
0.173745 0.104085 0.080955
0.187963 0.116044 0.090256
0.202181 0.128002 0.099557
0.216398 0.139961 0.108859
0.230616 0.151920 0.118160
0.244834 0.163879 0.127461
0.259051 0.175838 0.136762
0.273269 0.187796 0.146064
0.287487 0.199755 0.155365
0.301704 0.211714 0.164666
0.315922 0.223672 0.173967
0.330139 0.235631 0.183269
0.150486 0.084521 0.065739
0.164704 0.096480 0.075040
0.178922 0.108439 0.084341
0.193139 0.120398 0.093643
0.207357 0.132356 0.102944
0.221575 0.144315 0.112245
0.235792 0.156274 0.121546
0.250010 0.168232 0.130847
0.264227 0.180191 0.140149
0.278445 0.192150 0.149450
0.292663 0.204109 0.158751
0.306880 0.216068 0.168052
0.321098 0.228026 0.177354
0.335315 0.239985 0.186655
0.349533 0.251944 0.195956
0.363751 0.263902 0.205257
0.377968 0.275861 0.214559
0.198315 0.124751 0.097029
0.212533 0.136710 0.106330
0.226751 0.148669 0.115631
0.240968 0.160628 0.124932
0.255186 0.172586 0.134234
0.269404 0.184545 0.143535
0.283621 0.196504 0.152836
0.297839 0.208462 0.162137
0.312056 0.220421 0.171439
0.326274 0.232380 0.180740
0.340492 0.244339 0.190041
0.354709 0.256297 0.199342
0.368927 0.268256 0.208644
0.383144 0.280215 0.217945
0.397362 0.292174 0.227246
0.411580 0.304132 0.236547
0.425797 0.316091 0.245849
0.246144 0.164981 0.128319
0.260362 0.176940 0.137620
0.274580 0.188899 0.146921
0.288797 0.200857 0.156222
0.303015 0.212816 0.165524
0.317233 0.224775 0.174825
0.331450 0.236734 0.184126
0.345668 0.248692 0.193427
0.359885 0.260651 0.202729
0.374103 0.272610 0.212030
0.388321 0.284569 0.221331
0.402538 0.296527 0.230632
0.416756 0.308486 0.239934
0.430974 0.320445 0.249235
0.445191 0.332404 0.258536
0.459409 0.344362 0.267837
0.473626 0.356321 0.277139
0.293973 0.205211 0.159609
0.308191 0.217170 0.168910
0.322409 0.229129 0.178211
0.336626 0.241087 0.187512
0.350844 0.253046 0.196814
0.365061 0.265005 0.206115
0.379279 0.276964 0.215416
0.393497 0.288922 0.224717
0.407714 0.300881 0.234019
0.421932 0.312840 0.243320
0.436150 0.324799 0.252621
0.450367 0.336757 0.261922
0.464585 0.348716 0.271224
0.478803 0.360675 0.280525
0.493020 0.372634 0.289826
0.507238 0.384592 0.299127
0.521455 0.396551 0.308429
0.341802 0.245441 0.190899
0.356020 0.257400 0.200200
0.370238 0.269359 0.209501
0.384455 0.281317 0.218802
0.398673 0.293276 0.228104
0.412890 0.305235 0.237405
0.427108 0.317194 0.246706
0.441326 0.329152 0.256007
0.455543 0.341111 0.265309
0.469761 0.353070 0.274610
0.483979 0.365029 0.283911
0.498196 0.376987 0.293212
0.512414 0.388946 0.302514
0.526632 0.400905 0.311815
0.540849 0.412864 0.321116
0.555067 0.424822 0.330417
0.569284 0.436781 0.339719
0.389631 0.285671 0.222189
0.403849 0.297630 0.231490
0.418067 0.309589 0.240791
0.432284 0.321547 0.250092
0.446502 0.333506 0.259394
0.460720 0.345465 0.268695
0.474937 0.357424 0.277996
0.489155 0.369382 0.287297
0.503372 0.381341 0.296599
0.517590 0.393300 0.305900
0.531808 0.405259 0.315201
0.546025 0.417217 0.324502
0.560243 0.429176 0.333804
0.574461 0.441135 0.343105
0.588678 0.453094 0.352406
0.602896 0.465052 0.361707
0.617113 0.477011 0.371009
0.437460 0.325901 0.253479
0.451678 0.337860 0.262780
0.465896 0.349819 0.272081
0.480113 0.361777 0.281382
0.494331 0.373736 0.290684
0.508548 0.385695 0.299985
0.522766 0.397654 0.309286
0.536984 0.409612 0.318587
0.551201 0.421571 0.327889
0.565419 0.433530 0.337190
0.579637 0.445489 0.346491
0.593854 0.457448 0.355793
0.608072 0.469406 0.365094
0.622290 0.481365 0.374395
0.636507 0.493324 0.383696
0.650725 0.505282 0.392997
0.664942 0.517241 0.402299
0.485289 0.366131 0.284769
0.499507 0.378090 0.294070
0.513725 0.390049 0.303371
0.527942 0.402008 0.312672
0.542160 0.413966 0.321974
0.556378 0.425925 0.331275
0.570595 0.437884 0.340576
0.584813 0.449842 0.349877
0.599030 0.461801 0.359179
0.613248 0.473760 0.368480
0.627466 0.485719 0.377781
0.641683 0.497677 0.387082
0.655901 0.509636 0.396384
0.670119 0.521595 0.405685
0.684336 0.533554 0.414986
0.698554 0.545513 0.424287
0.712771 0.557471 0.433589
0.533118 0.406361 0.316059
0.547336 0.418320 0.325360
0.561554 0.430279 0.334661
0.575771 0.442237 0.343962
0.589989 0.454196 0.353264
0.604207 0.466155 0.362565
0.618424 0.478114 0.371866
0.632642 0.490073 0.381167
0.646859 0.502031 0.390469
0.661077 0.513990 0.399770
0.675295 0.525949 0.409071
0.689512 0.537907 0.418372
0.703730 0.549866 0.427674
0.717948 0.561825 0.436975
0.732165 0.573784 0.446276
0.746383 0.585743 0.455577
0.760600 0.597701 0.464879
0.580947 0.446591 0.347349
0.595165 0.458550 0.356650
0.609383 0.470509 0.365951
0.623600 0.482467 0.375252
0.637818 0.494426 0.384554
0.652036 0.506385 0.393855
0.666253 0.518344 0.403156
0.680471 0.530303 0.412457
0.694688 0.542261 0.421759
0.708906 0.554220 0.431060
0.723124 0.566179 0.440361
0.737341 0.578138 0.449662
0.751559 0.590096 0.458964
0.765777 0.602055 0.468265
0.779994 0.614014 0.477566
0.794212 0.625973 0.486868
0.808429 0.637931 0.496169
0.628776 0.486821 0.378639
0.642994 0.498780 0.387940
0.657212 0.510739 0.397241
0.671429 0.522698 0.406543
0.685647 0.534656 0.415844
0.699865 0.546615 0.425145
0.714082 0.558574 0.434446
0.728300 0.570532 0.443747
0.742517 0.582491 0.453049
0.756735 0.594450 0.462350
0.770953 0.606409 0.471651
0.785170 0.618367 0.480952
0.799388 0.630326 0.490254
0.813606 0.642285 0.499555
0.827823 0.654244 0.508856
0.842041 0.666203 0.518157
0.856258 0.678161 0.527459
0.676605 0.527051 0.409929
0.690823 0.539010 0.419230
0.705041 0.550969 0.428531
0.719258 0.562928 0.437832
0.733476 0.574886 0.447134
0.747694 0.586845 0.456435
0.761911 0.598804 0.465736
0.776129 0.610762 0.475037
0.790346 0.622721 0.484339
0.804564 0.634680 0.493640
0.818782 0.646639 0.502941
0.832999 0.658597 0.512242
0.847217 0.670556 0.521544
0.861435 0.682515 0.530845
0.875652 0.694474 0.540146
0.889870 0.706433 0.549447
0.904087 0.718391 0.558749
0.724434 0.567281 0.441219
0.738652 0.579240 0.450520
0.752870 0.591199 0.459821
0.767087 0.603158 0.469122
0.781305 0.615116 0.478424
0.795523 0.627075 0.487725
0.809740 0.639034 0.497026
0.823958 0.650992 0.506327
0.838175 0.662951 0.515629
0.852393 0.674910 0.524930
0.866611 0.686869 0.534231
0.880828 0.698827 0.543532
0.895046 0.710786 0.552834
0.909264 0.722745 0.562135
0.923481 0.734704 0.571436
0.937699 0.746663 0.580737
0.951916 0.758621 0.590039
0.772263 0.607511 0.472509
0.786481 0.619470 0.481810
0.800699 0.631429 0.491111
0.814916 0.643388 0.500413
0.829134 0.655346 0.509714
0.843352 0.667305 0.519015
0.857569 0.679264 0.528316
0.871787 0.691223 0.537617
0.886004 0.703181 0.546919
0.900222 0.715140 0.556220
0.914440 0.727099 0.565521
0.928657 0.739058 0.574822
0.942875 0.751016 0.584124
0.957093 0.762975 0.593425
0.971310 0.774934 0.602726
0.985528 0.786892 0.612027
0.999745 0.798851 0.621329
0.820092 0.647741 0.503799
0.834310 0.659700 0.513100
0.848528 0.671659 0.522401
0.862745 0.683617 0.531702
0.876963 0.695576 0.541004
0.891181 0.707535 0.550305
0.905398 0.719494 0.559606
0.919616 0.731453 0.568908
0.933833 0.743411 0.578209
0.948051 0.755370 0.587510
0.962269 0.767329 0.596811
0.976486 0.779288 0.606112
0.990704 0.791246 0.615414
1.000000 0.803205 0.624715
1.000000 0.815164 0.634016
1.000000 0.827122 0.643317
1.000000 0.839081 0.652619
0.059657 0.008122 0.006317
0.073874 0.020081 0.015619
0.088092 0.032040 0.024920
0.102310 0.043999 0.034221
0.116527 0.055958 0.043522
0.130745 0.067916 0.052824
0.144963 0.079875 0.062125
0.159180 0.091834 0.071426
0.173398 0.103793 0.080728
0.187615 0.115751 0.090029
0.201833 0.127710 0.099330
0.216051 0.139669 0.108631
0.230268 0.151628 0.117932
0.244486 0.163586 0.127234
0.258704 0.175545 0.136535
0.272921 0.187504 0.145836
0.287139 0.199463 0.155138
0.107486 0.048352 0.037607
0.121703 0.060311 0.046909
0.135921 0.072270 0.056210
0.150139 0.084229 0.065511
0.164356 0.096187 0.074812
0.178574 0.108146 0.084114
0.192792 0.120105 0.093415
0.207009 0.132064 0.102716
0.221227 0.144022 0.112017
0.235444 0.155981 0.121319
0.249662 0.167940 0.130620
0.263880 0.179899 0.139921
0.278097 0.191858 0.149222
0.292315 0.203816 0.158524
0.306532 0.215775 0.167825
0.320750 0.227734 0.177126
0.334968 0.239693 0.186428
0.155315 0.088582 0.068898
0.169532 0.100541 0.078199
0.183750 0.112500 0.087500
0.197968 0.124459 0.096801
0.212185 0.136418 0.106103
0.226403 0.148376 0.115404
0.240621 0.160335 0.124705
0.254838 0.172294 0.134006
0.269056 0.184252 0.143307
0.283273 0.196211 0.152609
0.297491 0.208170 0.161910
0.311709 0.220129 0.171211
0.325926 0.232088 0.180512
0.340144 0.244046 0.189814
0.354361 0.256005 0.199115
0.368579 0.267964 0.208416
0.382797 0.279923 0.217717
0.203144 0.128812 0.100187
0.217361 0.140771 0.109489
0.231579 0.152730 0.118790
0.245797 0.164689 0.128091
0.260014 0.176648 0.137393
0.274232 0.188606 0.146694
0.288450 0.200565 0.155995
0.302667 0.212524 0.165296
0.316885 0.224483 0.174597
0.331102 0.236441 0.183899
0.345320 0.248400 0.193200
0.359538 0.260359 0.202501
0.373755 0.272317 0.211802
0.387973 0.284276 0.221104
0.402191 0.296235 0.230405
0.416408 0.308194 0.239706
0.430626 0.320153 0.249007
0.250973 0.169042 0.131477
0.265190 0.181001 0.140779
0.279408 0.192960 0.150080
0.293626 0.204919 0.159381
0.307843 0.216878 0.168682
0.322061 0.228836 0.177984
0.336279 0.240795 0.187285
0.350496 0.252754 0.196586
0.364714 0.264713 0.205888
0.378931 0.276671 0.215189
0.393149 0.288630 0.224490
0.407367 0.300589 0.233791
0.421584 0.312548 0.243092
0.435802 0.324506 0.252394
0.450019 0.336465 0.261695
0.464237 0.348424 0.270996
0.478455 0.360382 0.280297
0.298802 0.209273 0.162767
0.313019 0.221231 0.172069
0.327237 0.233190 0.181370
0.341455 0.245149 0.190671
0.355672 0.257107 0.199972
0.369890 0.269066 0.209274
0.384107 0.281025 0.218575
0.398325 0.292984 0.227876
0.412543 0.304943 0.237177
0.426760 0.316901 0.246479
0.440978 0.328860 0.255780
0.455196 0.340819 0.265081
0.469413 0.352778 0.274382
0.483631 0.364736 0.283684
0.497848 0.376695 0.292985
0.512066 0.388654 0.302286
0.526284 0.400612 0.311587
0.346631 0.249503 0.194057
0.360848 0.261461 0.203359
0.375066 0.273420 0.212660
0.389284 0.285379 0.221961
0.403501 0.297338 0.231263
0.417719 0.309296 0.240564
0.431937 0.321255 0.249865
0.446154 0.333214 0.259166
0.460372 0.345172 0.268467
0.474589 0.357131 0.277769
0.488807 0.369090 0.287070
0.503025 0.381049 0.296371
0.517242 0.393008 0.305672
0.531460 0.404966 0.314974
0.545678 0.416925 0.324275
0.559895 0.428884 0.333576
0.574113 0.440843 0.342878
0.394460 0.289732 0.225347
0.408677 0.301691 0.234649
0.422895 0.313650 0.243950
0.437113 0.325609 0.253251
0.451330 0.337568 0.262552
0.465548 0.349526 0.271854
0.479765 0.361485 0.281155
0.493983 0.373444 0.290456
0.508201 0.385402 0.299757
0.522418 0.397361 0.309059
0.536636 0.409320 0.318360
0.550854 0.421279 0.327661
0.565071 0.433237 0.336962
0.579289 0.445196 0.346264
0.593506 0.457155 0.355565
0.607724 0.469114 0.364866
0.621942 0.481072 0.374167
0.442289 0.329962 0.256637
0.456506 0.341921 0.265939
0.470724 0.353880 0.275240
0.484942 0.365839 0.284541
0.499159 0.377797 0.293842
0.513377 0.389756 0.303144
0.527594 0.401715 0.312445
0.541812 0.413674 0.321746
0.556030 0.425632 0.331047
0.570247 0.437591 0.340349
0.584465 0.449550 0.349650
0.598683 0.461509 0.358951
0.612900 0.473467 0.368252
0.627118 0.485426 0.377554
0.641336 0.497385 0.386855
0.655553 0.509344 0.396156
0.669771 0.521303 0.405457
0.490118 0.370192 0.287928
0.504335 0.382151 0.297229
0.518553 0.394110 0.306530
0.532771 0.406069 0.315831
0.546988 0.418028 0.325132
0.561206 0.429986 0.334434
0.575424 0.441945 0.343735
0.589641 0.453904 0.353036
0.603859 0.465862 0.362337
0.618076 0.477821 0.371639
0.632294 0.489780 0.380940
0.646512 0.501739 0.390241
0.660729 0.513697 0.399542
0.674947 0.525656 0.408844
0.689165 0.537615 0.418145
0.703382 0.549574 0.427446
0.717600 0.561532 0.436747
0.537947 0.410422 0.319217
0.552164 0.422381 0.328519
0.566382 0.434340 0.337820
0.580600 0.446299 0.347121
0.594817 0.458257 0.356422
0.609035 0.470216 0.365724
0.623252 0.482175 0.375025
0.637470 0.494134 0.384326
0.651688 0.506092 0.393627
0.665905 0.518051 0.402929
0.680123 0.530010 0.412230
0.694341 0.541969 0.421531
0.708558 0.553927 0.430832
0.722776 0.565886 0.440134
0.736993 0.577845 0.449435
0.751211 0.589804 0.458736
0.765429 0.601762 0.468037
0.585776 0.450653 0.350507
0.599993 0.462611 0.359809
0.614211 0.474570 0.369110
0.628429 0.486529 0.378411
0.642646 0.498487 0.387712
0.656864 0.510446 0.397014
0.671081 0.522405 0.406315
0.685299 0.534364 0.415616
0.699517 0.546322 0.424917
0.713734 0.558281 0.434219
0.727952 0.570240 0.443520
0.742170 0.582199 0.452821
0.756387 0.594158 0.462122
0.770605 0.606116 0.471424
0.784822 0.618075 0.480725
0.799040 0.630034 0.490026
0.813258 0.641992 0.499327
0.633605 0.490882 0.381797
0.647822 0.502841 0.391099
0.662040 0.514800 0.400400
0.676258 0.526759 0.409701
0.690475 0.538717 0.419002
0.704693 0.550676 0.428304
0.718911 0.562635 0.437605
0.733128 0.574594 0.446906
0.747346 0.586553 0.456207
0.761563 0.598511 0.465509
0.775781 0.610470 0.474810
0.789999 0.622429 0.484111
0.804216 0.634387 0.493412
0.818434 0.646346 0.502714
0.832651 0.658305 0.512015
0.846869 0.670264 0.521316
0.861087 0.682222 0.530617
0.681434 0.531112 0.413087
0.695651 0.543071 0.422389
0.709869 0.555030 0.431690
0.724087 0.566989 0.440991
0.738304 0.578947 0.450292
0.752522 0.590906 0.459594
0.766740 0.602865 0.468895
0.780957 0.614824 0.478196
0.795175 0.626783 0.487497
0.809392 0.638741 0.496799
0.823610 0.650700 0.506100
0.837828 0.662659 0.515401
0.852045 0.674617 0.524702
0.866263 0.686576 0.534004
0.880480 0.698535 0.543305
0.894698 0.710494 0.552606
0.908916 0.722452 0.561907
0.729263 0.571342 0.444377
0.743480 0.583301 0.453679
0.757698 0.595260 0.462980
0.771916 0.607219 0.472281
0.786133 0.619177 0.481582
0.800351 0.631136 0.490884
0.814569 0.643095 0.500185
0.828786 0.655054 0.509486
0.843004 0.667012 0.518787
0.857221 0.678971 0.528089
0.871439 0.690930 0.537390
0.885657 0.702889 0.546691
0.899874 0.714847 0.555992
0.914092 0.726806 0.565294
0.928309 0.738765 0.574595
0.942527 0.750724 0.583896
0.956745 0.762682 0.593197
0.777092 0.611572 0.475667
0.791309 0.623531 0.484969
0.805527 0.635490 0.494270
0.819745 0.647449 0.503571
0.833962 0.659408 0.512872
0.848180 0.671366 0.522174
0.862398 0.683325 0.531475
0.876615 0.695284 0.540776
0.890833 0.707242 0.550077
0.905050 0.719201 0.559379
0.919268 0.731160 0.568680
0.933486 0.743119 0.577981
0.947703 0.755077 0.587282
0.961921 0.767036 0.596584
0.976139 0.778995 0.605885
0.990356 0.790954 0.615186
1.000000 0.802912 0.624487
0.824921 0.651802 0.506957
0.839138 0.663761 0.516259
0.853356 0.675720 0.525560
0.867574 0.687679 0.534861
0.881791 0.699637 0.544162
0.896009 0.711596 0.553464
0.910227 0.723555 0.562765
0.924444 0.735514 0.572066
0.938662 0.747472 0.581367
0.952879 0.759431 0.590669
0.967097 0.771390 0.599970
0.981315 0.783349 0.609271
0.995532 0.795307 0.618572
1.000000 0.807266 0.627874
1.000000 0.819225 0.637175
1.000000 0.831184 0.646476
1.000000 0.843142 0.655777
0.064485 0.012184 0.009476
0.078703 0.024143 0.018777
0.092920 0.036101 0.028079
0.107138 0.048060 0.037380
0.121356 0.060019 0.046681
0.135573 0.071978 0.055983
0.149791 0.083936 0.065284
0.164009 0.095895 0.074585
0.178226 0.107854 0.083886
0.192444 0.119813 0.093188
0.206661 0.131771 0.102489
0.220879 0.143730 0.111790
0.235097 0.155689 0.121091
0.249314 0.167648 0.130393
0.263532 0.179606 0.139694
0.277750 0.191565 0.148995
0.291967 0.203524 0.158296
0.112314 0.052414 0.040766
0.126532 0.064373 0.050068
