public/luts/sepia.cube
# Recut LookBook — sepia
LUT_3D_SIZE 5
DOMAIN_MIN 0 0 0
DOMAIN_MAX 1 1 1
0.050000 0.000000 0.000000
0.106871 0.047835 0.037205
0.163741 0.095670 0.074410
0.220612 0.143505 0.111615
0.277482 0.191340 0.148820
0.241316 0.160920 0.125160
0.298187 0.208755 0.162365
0.355057 0.256590 0.199570
0.411928 0.304425 0.236775
0.468798 0.352260 0.273980
0.432632 0.321840 0.250320
0.489502 0.369675 0.287525
0.546373 0.417510 0.324730
0.603244 0.465345 0.361935
0.660114 0.513180 0.399140
0.623948 0.482760 0.375480
0.680819 0.530595 0.412685
0.737689 0.578430 0.449890
0.794560 0.626265 0.487095
0.851430 0.674100 0.524300
0.815264 0.643680 0.500640
0.872135 0.691515 0.537845
0.929005 0.739350 0.575050
0.985876 0.787185 0.612255
1.000000 0.835020 0.649460
0.069314 0.016245 0.012635
0.126184 0.064080 0.049840
0.183055 0.111915 0.087045
0.239925 0.159750 0.124250
0.296796 0.207585 0.161455
0.260630 0.177165 0.137795
0.317500 0.225000 0.175000
0.374371 0.272835 0.212205
0.431241 0.320670 0.249410
0.488111 0.368505 0.286615
0.451946 0.338085 0.262955
0.508816 0.385920 0.300160
0.565687 0.433755 0.337365
0.622557 0.481590 0.374570
0.679428 0.529425 0.411775
0.643262 0.499005 0.388115
0.700132 0.546840 0.425320
0.757003 0.594675 0.462525
0.813873 0.642510 0.499730
0.870744 0.690345 0.536935
0.834578 0.659925 0.513275
0.891448 0.707760 0.550480
0.948318 0.755595 0.587685
1.000000 0.803430 0.624890
1.000000 0.851265 0.662095
0.088627 0.032490 0.025270
0.145498 0.080325 0.062475
0.202368 0.128160 0.099680
0.259239 0.175995 0.136885
0.316109 0.223830 0.174090
0.279943 0.193410 0.150430
0.336814 0.241245 0.187635
0.393684 0.289080 0.224840
0.450555 0.336915 0.262045
0.507425 0.384750 0.299250
0.471259 0.354330 0.275590
0.528130 0.402165 0.312795
0.585000 0.450000 0.350000
0.641871 0.497835 0.387205
0.698741 0.545670 0.424410
0.662575 0.515250 0.400750
0.719446 0.563085 0.437955
0.776316 0.610920 0.475160
0.833187 0.658755 0.512365
0.890057 0.706590 0.549570
0.853891 0.676170 0.525910
0.910762 0.724005 0.563115
0.967632 0.771840 0.600320
1.000000 0.819675 0.637525
1.000000 0.867510 0.674730
0.107941 0.048735 0.037905
0.164811 0.096570 0.075110
0.221682 0.144405 0.112315
0.278552 0.192240 0.149520
0.335423 0.240075 0.186725
0.299256 0.209655 0.163065
0.356127 0.257490 0.200270
0.412998 0.305325 0.237475
0.469868 0.353160 0.274680
0.526738 0.400995 0.311885
0.490572 0.370575 0.288225
0.547443 0.418410 0.325430
0.604314 0.466245 0.362635
0.661184 0.514080 0.399840
0.718055 0.561915 0.437045
0.681889 0.531495 0.413385
0.738759 0.579330 0.450590
0.795630 0.627165 0.487795
0.852500 0.675000 0.525000
0.909371 0.722835 0.562205
0.873205 0.692415 0.538545
0.930075 0.740250 0.575750
0.986946 0.788085 0.612955
1.000000 0.835920 0.650160
1.000000 0.883755 0.687365
0.127254 0.064980 0.050540
0.184125 0.112815 0.087745
0.240995 0.160650 0.124950
0.297866 0.208485 0.162155
0.354736 0.256320 0.199360
0.318570 0.225900 0.175700
0.375440 0.273735 0.212905
0.432311 0.321570 0.250110
0.489181 0.369405 0.287315
0.546052 0.417240 0.324520
0.509886 0.386820 0.300860
0.566756 0.434655 0.338065
0.623627 0.482490 0.375270
0.680498 0.530325 0.412475
0.737368 0.578160 0.449680
0.701202 0.547740 0.426020
0.758073 0.595575 0.463225
0.814943 0.643410 0.500430
0.871814 0.691245 0.537635
0.928684 0.739080 0.574840
0.892518 0.708660 0.551180
0.949389 0.756495 0.588385
1.000000 0.804330 0.625590
1.000000 0.852165 0.662795
1.000000 0.900000 0.700000
