public/luts/teal-orange.cube
# Recut LookBook — teal-orange
LUT_3D_SIZE 9
DOMAIN_MIN 0 0 0
DOMAIN_MAX 1 1 1
0.000000 0.000000 0.090000
0.039783 0.001063 0.085217
0.169567 0.002126 0.080433
0.299351 0.003189 0.075649
0.429134 0.004252 0.070866
0.558917 0.005315 0.066082
0.688701 0.006378 0.061299
0.818485 0.007441 0.056515
0.948268 0.008504 0.051732
0.000000 0.128576 0.073908
0.055876 0.129639 0.069124
0.185659 0.130702 0.064341
0.315443 0.131765 0.059558
0.445226 0.132828 0.054774
0.575009 0.133891 0.049991
0.704793 0.134954 0.045207
0.834577 0.136017 0.040424
0.964360 0.137080 0.035640
0.000000 0.257152 0.057816
0.071967 0.258215 0.053033
0.201751 0.259278 0.048249
0.331535 0.260341 0.043465
0.461318 0.261404 0.038682
0.591102 0.262467 0.033898
0.720885 0.263530 0.029115
0.850669 0.264593 0.024332
0.980452 0.265656 0.019548
0.000000 0.385728 0.041724
0.088060 0.386791 0.036940
0.217843 0.387854 0.032157
0.347627 0.388917 0.027374
0.477410 0.389980 0.022590
0.607194 0.391043 0.017806
0.736977 0.392106 0.013023
0.866761 0.393169 0.008240
0.996544 0.394232 0.003456
0.000000 0.514304 0.025632
0.104151 0.515367 0.020849
0.233935 0.516430 0.016065
0.363719 0.517493 0.011282
0.493502 0.518556 0.006498
0.623286 0.519619 0.001715
0.753069 0.519318 0.000000
0.882853 0.518255 0.000000
1.000000 0.517192 0.000000
0.000000 0.642880 0.009540
0.120243 0.643943 0.004757
0.250027 0.644994 0.000000
0.379810 0.643931 0.000000
0.509594 0.642868 0.000000
0.639377 0.641805 0.000000
0.769161 0.640742 0.000000
0.898945 0.639679 0.000000
1.000000 0.638616 0.000000
0.006552 0.768544 0.000000
0.136335 0.767481 0.000000
0.266119 0.766418 0.000000
0.395902 0.765355 0.000000
0.525686 0.764292 0.000000
0.655470 0.763229 0.000000
0.785253 0.762166 0.000000
0.915037 0.761103 0.000000
1.000000 0.760040 0.000000
0.022644 0.889968 0.000000
0.152427 0.888905 0.000000
0.282211 0.887842 0.000000
0.411994 0.886779 0.000000
0.541778 0.885716 0.000000
0.671562 0.884653 0.000000
0.801345 0.883590 0.000000
0.931129 0.882527 0.000000
1.000000 0.881464 0.000000
0.038736 1.000000 0.000000
0.168519 1.000000 0.000000
0.298303 1.000000 0.000000
0.428086 1.000000 0.000000
0.557870 1.000000 0.000000
0.687654 1.000000 0.000000
0.817437 1.000000 0.000000
0.947221 1.000000 0.000000
1.000000 1.000000 0.000000
0.000000 0.000361 0.213375
0.041408 0.001424 0.208592
0.171191 0.002487 0.203809
0.300975 0.003550 0.199025
0.430758 0.004613 0.194242
0.560542 0.005676 0.189458
0.690326 0.006739 0.184674
0.820109 0.007802 0.179891
0.949893 0.008865 0.175107
0.000000 0.128937 0.197284
0.057500 0.130000 0.192500
0.187283 0.131063 0.187717
0.317067 0.132126 0.182933
0.446850 0.133189 0.178150
0.576634 0.134252 0.173366
0.706418 0.135315 0.168582
0.836201 0.136378 0.163799
0.965985 0.137441 0.159016
0.000000 0.257513 0.181192
0.073592 0.258576 0.176408
0.203375 0.259639 0.171625
0.333159 0.260702 0.166841
0.462943 0.261765 0.162057
0.592726 0.262828 0.157274
0.722510 0.263891 0.152491
0.852293 0.264954 0.147707
0.982077 0.266017 0.142924
0.000000 0.386089 0.165100
0.089684 0.387152 0.160316
0.219468 0.388215 0.155532
0.349251 0.389278 0.150749
0.479035 0.390341 0.145965
0.608818 0.391404 0.141182
0.738602 0.392467 0.136399
0.868385 0.393530 0.131615
0.998169 0.394593 0.126831
0.000000 0.514665 0.149008
0.105776 0.515728 0.144224
0.235560 0.516791 0.139440
0.365343 0.517854 0.134657
0.495127 0.518917 0.129874
0.624910 0.519980 0.125090
0.754694 0.518957 0.120307
0.884477 0.517894 0.115523
1.000000 0.516831 0.110740
0.000000 0.643241 0.132916
0.121868 0.644304 0.128132
0.251651 0.644633 0.123349
0.381435 0.643570 0.118565
0.511219 0.642507 0.113782
0.641002 0.641444 0.108998
0.770786 0.640381 0.104215
0.900569 0.639318 0.099431
1.000000 0.638255 0.094648
0.008176 0.768183 0.116824
0.137960 0.767120 0.112040
0.267743 0.766057 0.107257
0.397527 0.764994 0.102473
0.527311 0.763931 0.097689
0.657094 0.762868 0.092906
0.786878 0.761805 0.088123
0.916661 0.760742 0.083339
1.000000 0.759679 0.078556
0.024268 0.889607 0.100732
0.154052 0.888544 0.095948
0.283835 0.887481 0.091165
0.413619 0.886418 0.086381
0.543403 0.885355 0.081598
0.673186 0.884292 0.076814
0.802970 0.883229 0.072031
0.932753 0.882166 0.067247
1.000000 0.881103 0.062464
0.040360 1.000000 0.084640
0.170144 1.000000 0.079856
0.299928 1.000000 0.075073
0.429711 1.000000 0.070289
0.559495 1.000000 0.065506
0.689278 1.000000 0.060722
0.819061 1.000000 0.055939
0.948845 1.000000 0.051155
1.000000 1.000000 0.046372
0.000000 0.000722 0.336751
0.043033 0.001785 0.331967
0.172816 0.002848 0.327184
0.302600 0.003911 0.322400
0.432383 0.004974 0.317617
0.562167 0.006037 0.312833
0.691950 0.007100 0.308050
0.821734 0.008163 0.303266
0.951517 0.009226 0.298483
0.000000 0.129298 0.320659
0.059124 0.130361 0.315875
0.188908 0.131424 0.311092
0.318692 0.132487 0.306308
0.448475 0.133550 0.301525
0.578259 0.134613 0.296741
0.708042 0.135676 0.291958
0.837826 0.136739 0.287174
0.967609 0.137802 0.282391
0.000000 0.257874 0.304567
0.075216 0.258937 0.299783
0.205000 0.260000 0.295000
0.334784 0.261063 0.290216
0.464567 0.262126 0.285433
0.594351 0.263189 0.280649
0.724134 0.264252 0.275866
0.853917 0.265315 0.271083
0.983701 0.266378 0.266299
0.000000 0.386450 0.288475
0.091309 0.387513 0.283691
0.221092 0.388576 0.278908
0.350876 0.389639 0.274124
0.480659 0.390702 0.269341
0.610442 0.391765 0.264558
0.740226 0.392828 0.259774
0.870009 0.393891 0.254991
0.999793 0.394954 0.250207
0.000000 0.515026 0.272383
0.107400 0.516089 0.267599
0.237184 0.517152 0.262816
0.366968 0.518215 0.258032
0.496751 0.519278 0.253249
0.626534 0.519659 0.248466
0.756318 0.518596 0.243682
0.886101 0.517533 0.238898
1.000000 0.516470 0.234115
0.000000 0.643602 0.256291
0.123492 0.644665 0.251507
0.253276 0.644272 0.246724
0.383059 0.643209 0.241941
0.512843 0.642146 0.237157
0.642626 0.641083 0.232374
0.772410 0.640020 0.227590
0.902193 0.638957 0.222807
1.000000 0.637894 0.218023
0.009801 0.767822 0.240199
0.139585 0.766759 0.235415
0.269368 0.765696 0.230632
0.399151 0.764633 0.225849
0.528935 0.763570 0.221065
0.658718 0.762507 0.216281
0.788502 0.761444 0.211498
0.918285 0.760381 0.206714
1.000000 0.759318 0.201931
0.025893 0.889246 0.224107
0.155676 0.888183 0.219324
0.285460 0.887120 0.214540
0.415243 0.886057 0.209757
0.545027 0.884994 0.204973
0.674810 0.883931 0.200189
0.804594 0.882868 0.195406
0.934377 0.881805 0.190623
1.000000 0.880742 0.185839
0.041985 1.000000 0.208015
0.171768 1.000000 0.203232
0.301552 1.000000 0.198448
0.431335 1.000000 0.193665
0.561119 1.000000 0.188881
0.690902 1.000000 0.184098
0.820686 1.000000 0.179314
0.950469 1.000000 0.174531
1.000000 1.000000 0.169747
0.000000 0.001083 0.460126
0.044657 0.002146 0.455343
0.174440 0.003209 0.450560
0.304224 0.004272 0.445776
0.434007 0.005335 0.440993
0.563791 0.006398 0.436209
0.693574 0.007461 0.431426
0.823358 0.008524 0.426642
0.953141 0.009587 0.421858
0.000000 0.129659 0.444034
0.060749 0.130722 0.439251
0.190532 0.131785 0.434468
0.320316 0.132848 0.429684
0.450099 0.133911 0.424901
0.579883 0.134974 0.420117
0.709666 0.136037 0.415334
0.839450 0.137100 0.410550
0.969233 0.138163 0.405766
0.000000 0.258235 0.427943
0.076841 0.259298 0.423159
0.206624 0.260361 0.418376
0.336408 0.261424 0.413592
0.466191 0.262487 0.408809
0.595975 0.263550 0.404025
0.725758 0.264613 0.399241
0.855542 0.265676 0.394458
0.985325 0.266739 0.389674
0.000000 0.386811 0.411851
0.092933 0.387874 0.407067
0.222717 0.388937 0.402284
0.352500 0.390000 0.397500
0.482283 0.391063 0.392717
0.612067 0.392126 0.387933
0.741850 0.393189 0.383149
0.871634 0.394252 0.378366
1.000000 0.394685 0.373582
0.000000 0.515387 0.395759
0.109025 0.516450 0.390975
0.238809 0.517513 0.386192
0.368592 0.518576 0.381408
0.498375 0.519639 0.376625
0.628159 0.519298 0.371841
0.757942 0.518235 0.367057
0.887726 0.517172 0.362274
1.000000 0.516109 0.357490
0.000000 0.643963 0.379667
0.125117 0.644974 0.374883
0.254900 0.643911 0.370100
0.384684 0.642848 0.365316
0.514467 0.641785 0.360533
0.644251 0.640722 0.355749
0.774034 0.639659 0.350966
0.903818 0.638596 0.346182
1.000000 0.637533 0.341398
0.011425 0.767461 0.363575
0.141209 0.766398 0.358791
0.270992 0.765335 0.354008
0.400776 0.764272 0.349224
0.530559 0.763209 0.344440
0.660343 0.762146 0.339657
0.790126 0.761083 0.334873
0.919910 0.760020 0.330090
1.000000 0.758957 0.325306
0.027517 0.888885 0.347483
0.157301 0.887822 0.342699
0.287084 0.886759 0.337916
0.416868 0.885696 0.333132
0.546651 0.884633 0.328349
0.676435 0.883570 0.323565
0.806218 0.882507 0.318782
0.936002 0.881444 0.313998
1.000000 0.880381 0.309215
0.043609 1.000000 0.331391
0.173393 1.000000 0.326607
0.303176 1.000000 0.321824
0.432960 1.000000 0.317040
0.562743 1.000000 0.312257
0.692527 1.000000 0.307473
0.822310 1.000000 0.302690
0.952094 1.000000 0.297906
1.000000 1.000000 0.293123
0.000000 0.001444 0.583502
0.046282 0.002507 0.578719
0.176065 0.003570 0.573935
0.305849 0.004633 0.569152
0.435632 0.005696 0.564368
0.565415 0.006759 0.559585
0.695199 0.007822 0.554801
0.824982 0.008885 0.550018
0.954766 0.009948 0.545234
0.000000 0.130020 0.567410
0.062373 0.131083 0.562627
0.192157 0.132146 0.557843
0.321941 0.133209 0.553060
0.451724 0.134272 0.548276
0.581507 0.135335 0.543493
0.711291 0.136398 0.538709
0.841074 0.137461 0.533926
0.970858 0.138524 0.529142
0.000000 0.258596 0.551318
0.078465 0.259659 0.546535
0.208249 0.260722 0.541751
0.338033 0.261785 0.536968
0.467816 0.262848 0.532184
0.597600 0.263911 0.527400
0.727383 0.264974 0.522617
0.857166 0.266037 0.517834
0.986950 0.267100 0.513050
0.000000 0.387172 0.535226
0.094558 0.388235 0.530443
0.224341 0.389298 0.525659
0.354125 0.390361 0.520876
0.483908 0.391424 0.516092
0.613692 0.392487 0.511308
0.743475 0.393550 0.506525
0.873259 0.394613 0.501741
1.000000 0.394324 0.496958
0.000000 0.515748 0.519134
0.110649 0.516811 0.514351
0.240433 0.517874 0.509567
0.370217 0.518937 0.504784
0.500000 0.520000 0.500000
0.629784 0.518937 0.495217
0.759567 0.517874 0.490433
0.889351 0.516811 0.485650
1.000000 0.515748 0.480866
0.000000 0.644324 0.503042
0.126742 0.644613 0.498258
0.256525 0.643550 0.493475
0.386308 0.642487 0.488692
0.516092 0.641424 0.483908
0.645875 0.640361 0.479125
0.775659 0.639298 0.474341
0.905443 0.638235 0.469558
1.000000 0.637172 0.464774
0.013050 0.767100 0.486950
0.142834 0.766037 0.482166
0.272617 0.764974 0.477383
0.402400 0.763911 0.472600
0.532184 0.762848 0.467816
0.661968 0.761785 0.463032
0.791751 0.760722 0.458249
0.921535 0.759659 0.453466
1.000000 0.758596 0.448682
0.029142 0.888524 0.470858
0.158925 0.887461 0.466075
0.288709 0.886398 0.461291
0.418492 0.885335 0.456508
0.548276 0.884272 0.451724
0.678060 0.883209 0.446941
0.807843 0.882146 0.442157
0.937627 0.881083 0.437374
1.000000 0.880020 0.432590
0.045234 1.000000 0.454766
0.175017 1.000000 0.449983
0.304801 1.000000 0.445199
0.434584 1.000000 0.440416
0.564368 1.000000 0.435632
0.694152 1.000000 0.430849
0.823935 1.000000 0.426065
0.953719 1.000000 0.421281
1.000000 1.000000 0.416498
0.000000 0.001805 0.706878
0.047906 0.002868 0.702094
0.177690 0.003931 0.697310
0.307473 0.004994 0.692527
0.437256 0.006057 0.687743
0.567040 0.007120 0.682960
0.696824 0.008183 0.678176
0.826607 0.009246 0.673393
0.956391 0.010309 0.668609
0.000000 0.130381 0.690786
0.063998 0.131444 0.686002
0.193781 0.132507 0.681218
0.323565 0.133570 0.676435
0.453348 0.134633 0.671651
0.583132 0.135696 0.666868
0.712916 0.136759 0.662084
0.842699 0.137822 0.657301
0.972483 0.138885 0.652517
0.000000 0.258957 0.674694
0.080090 0.260020 0.669910
0.209873 0.261083 0.665126
0.339657 0.262146 0.660343
0.469440 0.263209 0.655559
0.599224 0.264272 0.650776
0.729008 0.265335 0.645992
0.858791 0.266398 0.641209
0.988575 0.267461 0.636425
0.000000 0.387533 0.658602
0.096182 0.388596 0.653818
0.225965 0.389659 0.649034
0.355749 0.390722 0.644251
0.485533 0.391785 0.639467
0.615316 0.392848 0.634684
0.745100 0.393911 0.629900
0.874883 0.394974 0.625117
1.000000 0.393963 0.620333
0.000000 0.516109 0.642509
0.112274 0.517172 0.637726
0.242057 0.518235 0.632942
0.371841 0.519298 0.628159
0.501625 0.519639 0.623375
0.631408 0.518576 0.618592
0.761192 0.517513 0.613808
0.890975 0.516450 0.609025
1.000000 0.515387 0.604241
0.000000 0.644685 0.626417
0.128366 0.644252 0.621634
0.258149 0.643189 0.616850
0.387933 0.642126 0.612067
0.517717 0.641063 0.607283
0.647500 0.640000 0.602500
0.777284 0.638937 0.597716
0.907067 0.637874 0.592933
1.000000 0.636811 0.588149
0.014674 0.766739 0.610325
0.144458 0.765676 0.605542
0.274241 0.764613 0.600758
0.404025 0.763550 0.595975
0.533809 0.762487 0.591191
0.663592 0.761424 0.586408
0.793376 0.760361 0.581624
0.923159 0.759298 0.576841
1.000000 0.758235 0.572057
0.030766 0.888163 0.594233
0.160550 0.887100 0.589450
0.290333 0.886037 0.584666
0.420117 0.884974 0.579883
0.549901 0.883911 0.575099
0.679684 0.882848 0.570316
0.809468 0.881785 0.565532
0.939251 0.880722 0.560749
1.000000 0.879659 0.555966
0.046858 1.000000 0.578141
0.176642 1.000000 0.573358
0.306426 1.000000 0.568574
0.436209 1.000000 0.563791
0.565993 1.000000 0.559007
0.695776 1.000000 0.554224
0.825560 1.000000 0.549440
0.955343 1.000000 0.544657
1.000000 1.000000 0.539874
0.000000 0.002166 0.830253
0.049531 0.003229 0.825469
0.179314 0.004292 0.820686
0.309098 0.005355 0.815902
0.438881 0.006418 0.811119
0.568665 0.007481 0.806335
0.698448 0.008544 0.801552
0.828232 0.009607 0.796768
0.958015 0.010670 0.791985
0.000000 0.130742 0.814161
0.065623 0.131805 0.809377
0.195406 0.132868 0.804594
0.325190 0.133931 0.799810
0.454973 0.134994 0.795027
0.584757 0.136057 0.790243
0.714540 0.137120 0.785460
0.844324 0.138183 0.780676
0.974107 0.139246 0.775893
0.000000 0.259318 0.798069
0.081714 0.260381 0.793285
0.211498 0.261444 0.788502
0.341282 0.262507 0.783718
0.471065 0.263570 0.778935
0.600849 0.264633 0.774151
0.730632 0.265696 0.769368
0.860415 0.266759 0.764585
0.990199 0.267822 0.759801
0.000000 0.387894 0.781977
0.097807 0.388957 0.777193
0.227590 0.390020 0.772410
0.357374 0.391083 0.767626
0.487157 0.392146 0.762843
0.616941 0.393209 0.758059
0.746724 0.394272 0.753276
0.876507 0.394665 0.748493
1.000000 0.393602 0.743709
0.000000 0.516470 0.765885
0.113898 0.517533 0.761101
0.243682 0.518596 0.756318
0.373466 0.519659 0.751534
0.503249 0.519278 0.746751
0.633032 0.518215 0.741968
0.762816 0.517152 0.737184
0.892599 0.516089 0.732401
1.000000 0.515026 0.727617
0.000207 0.644954 0.749793
0.129991 0.643891 0.745009
0.259774 0.642828 0.740226
0.389558 0.641765 0.735442
0.519341 0.640702 0.730659
0.649124 0.639639 0.725876
0.778908 0.638576 0.721092
0.908691 0.637513 0.716309
1.000000 0.636450 0.711525
0.016299 0.766378 0.733701
0.146083 0.765315 0.728917
0.275866 0.764252 0.724134
0.405649 0.763189 0.719351
0.535433 0.762126 0.714567
0.665216 0.761063 0.709784
0.795000 0.760000 0.705000
0.924783 0.758937 0.700217
1.000000 0.757874 0.695433
0.032391 0.887802 0.717609
0.162174 0.886739 0.712826
0.291958 0.885676 0.708042
0.421741 0.884613 0.703259
0.551525 0.883550 0.698475
0.681308 0.882487 0.693692
0.811092 0.881424 0.688908
0.940875 0.880361 0.684125
1.000000 0.879298 0.679341
0.048483 1.000000 0.701517
0.178266 1.000000 0.696734
0.308050 1.000000 0.691950
0.437833 1.000000 0.687167
0.567617 1.000000 0.682383
0.697400 1.000000 0.677600
0.827184 1.000000 0.672816
0.956967 1.000000 0.668033
1.000000 1.000000 0.663249
0.000000 0.002527 0.953628
0.051155 0.003590 0.948845
0.180939 0.004653 0.944061
0.310722 0.005716 0.939278
0.440505 0.006779 0.934495
0.570289 0.007842 0.929711
0.700072 0.008905 0.924928
0.829856 0.009968 0.920144
0.959639 0.011031 0.915361
0.000000 0.131103 0.937536
0.067247 0.132166 0.932753
0.197030 0.133229 0.927970
0.326814 0.134292 0.923186
0.456597 0.135355 0.918403
0.586381 0.136418 0.913619
0.716164 0.137481 0.908836
0.845948 0.138544 0.904052
0.975731 0.139607 0.899269
0.000000 0.259679 0.921444
0.083339 0.260742 0.916661
0.213122 0.261805 0.911878
0.342906 0.262868 0.907094
0.472689 0.263931 0.902311
0.602473 0.264994 0.897527
0.732256 0.266057 0.892744
0.862040 0.267120 0.887960
0.991823 0.268183 0.883177
0.000000 0.388255 0.905353
0.099431 0.389318 0.900569
0.229214 0.390381 0.895786
0.358998 0.391444 0.891002
0.488781 0.392507 0.886219
0.618565 0.393570 0.881435
0.748348 0.394633 0.876652
0.878132 0.394304 0.871868
1.000000 0.393241 0.867085
0.000000 0.516831 0.889261
0.115523 0.517894 0.884477
0.245306 0.518957 0.879694
0.375090 0.519980 0.874910
0.504873 0.518917 0.870127
0.634657 0.517854 0.865343
0.764440 0.516791 0.860560
0.894224 0.515728 0.855776
1.000000 0.514665 0.850993
0.001831 0.644593 0.873169
0.131615 0.643530 0.868385
0.261398 0.642467 0.863602
0.391182 0.641404 0.858818
0.520965 0.640341 0.854035
0.650749 0.639278 0.849251
0.780532 0.638215 0.844468
0.910316 0.637152 0.839684
1.000000 0.636089 0.834901
0.017923 0.766017 0.857077
0.147707 0.764954 0.852293
0.277490 0.763891 0.847510
0.407274 0.762828 0.842726
0.537057 0.761765 0.837943
0.666841 0.760702 0.833159
0.796624 0.759639 0.828376
0.926408 0.758576 0.823592
1.000000 0.757513 0.818809
0.034015 0.887441 0.840985
0.163799 0.886378 0.836201
0.293582 0.885315 0.831418
0.423366 0.884252 0.826634
0.553149 0.883189 0.821851
0.682933 0.882126 0.817067
0.812716 0.881063 0.812284
0.942500 0.880000 0.807500
1.000000 0.878937 0.802717
0.050107 1.000000 0.824893
0.179891 1.000000 0.820109
0.309674 1.000000 0.815326
0.439458 1.000000 0.810542
0.569241 1.000000 0.805759
0.699025 1.000000 0.800975
0.828808 1.000000 0.796192
0.958592 1.000000 0.791408
1.000000 1.000000 0.786625
0.000000 0.002888 1.000000
0.052780 0.003951 1.000000
0.182563 0.005014 1.000000
0.312346 0.006077 1.000000
0.442130 0.007140 1.000000
0.571913 0.008203 1.000000
0.701697 0.009266 1.000000
0.831480 0.010329 1.000000
0.961264 0.011392 1.000000
0.000000 0.131464 1.000000
0.068872 0.132527 1.000000
0.198655 0.133590 1.000000
0.328439 0.134653 1.000000
0.458222 0.135716 1.000000
0.588005 0.136779 1.000000
0.717789 0.137842 1.000000
0.847572 0.138905 1.000000
0.977356 0.139968 1.000000
0.000000 0.260040 1.000000
0.084963 0.261103 1.000000
0.214747 0.262166 1.000000
0.344531 0.263229 1.000000
0.474314 0.264292 1.000000
0.604097 0.265355 1.000000
0.733881 0.266418 1.000000
0.863664 0.267481 1.000000
0.993448 0.268544 1.000000
0.000000 0.388616 1.000000
0.101055 0.389679 1.000000
0.230839 0.390742 1.000000
0.360623 0.391805 1.000000
0.490406 0.392868 1.000000
0.620189 0.393931 1.000000
0.749973 0.394994 1.000000
0.879757 0.393943 0.995243
1.000000 0.392880 0.990460
0.000000 0.517192 1.000000
0.117148 0.518255 1.000000
0.246931 0.519318 1.000000
0.376715 0.519619 0.998286
0.506498 0.518556 0.993502
0.636282 0.517493 0.988718
0.766065 0.516430 0.983935
0.895849 0.515367 0.979151
1.000000 0.514304 0.974368
0.003456 0.644232 0.996544
0.133240 0.643169 0.991761
0.263023 0.642106 0.986977
0.392807 0.641043 0.982193
0.522590 0.639980 0.977410
0.652373 0.638917 0.972627
0.782157 0.637854 0.967843
0.911941 0.636791 0.963059
1.000000 0.635728 0.958276
0.019548 0.765656 0.980452
0.149332 0.764593 0.975669
0.279115 0.763530 0.970885
0.408898 0.762467 0.966101
0.538682 0.761404 0.961318
0.668466 0.760341 0.956534
0.798249 0.759278 0.951751
0.928033 0.758215 0.946967
1.000000 0.757152 0.942184
0.035640 0.887080 0.964360
0.165424 0.886017 0.959577
0.295207 0.884954 0.954793
0.424990 0.883891 0.950009
0.554774 0.882828 0.945226
0.684558 0.881765 0.940442
0.814341 0.880702 0.935659
0.944125 0.879639 0.930875
1.000000 0.878576 0.926092
0.051732 1.000000 0.948268
0.181515 1.000000 0.943485
0.311299 1.000000 0.938701
0.441082 1.000000 0.933917
0.570866 1.000000 0.929134
0.700650 1.000000 0.924350
0.830433 1.000000 0.919567
0.960217 1.000000 0.914783
1.000000 1.000000 0.910000
