public/luts/teal-orange.cube
# Recut LookBook — teal-orange
LUT_3D_SIZE 5
DOMAIN_MIN 0 0 0
DOMAIN_MAX 1 1 1
0.000000 0.000000 0.090000
0.169567 0.002126 0.080433
0.429134 0.004252 0.070866
0.688701 0.006378 0.061299
0.948268 0.008504 0.051732
0.000000 0.257152 0.057816
0.201751 0.259278 0.048249
0.461318 0.261404 0.038682
0.720885 0.263530 0.029115
0.980452 0.265656 0.019548
0.000000 0.514304 0.025632
0.233935 0.516430 0.016065
0.493502 0.518556 0.006498
0.753069 0.519318 0.000000
1.000000 0.517192 0.000000
0.006552 0.768544 0.000000
0.266119 0.766418 0.000000
0.525686 0.764292 0.000000
0.785253 0.762166 0.000000
1.000000 0.760040 0.000000
0.038736 1.000000 0.000000
0.298303 1.000000 0.000000
0.557870 1.000000 0.000000
0.817437 1.000000 0.000000
1.000000 1.000000 0.000000
0.000000 0.000722 0.336751
0.172816 0.002848 0.327184
0.432383 0.004974 0.317617
0.691950 0.007100 0.308050
0.951517 0.009226 0.298483
0.000000 0.257874 0.304567
0.205000 0.260000 0.295000
0.464567 0.262126 0.285433
0.724134 0.264252 0.275866
0.983701 0.266378 0.266299
0.000000 0.515026 0.272383
0.237184 0.517152 0.262816
0.496751 0.519278 0.253249
0.756318 0.518596 0.243682
1.000000 0.516470 0.234115
0.009801 0.767822 0.240199
0.269368 0.765696 0.230632
0.528935 0.763570 0.221065
0.788502 0.761444 0.211498
1.000000 0.759318 0.201931
0.041985 1.000000 0.208015
0.301552 1.000000 0.198448
0.561119 1.000000 0.188881
0.820686 1.000000 0.179314
1.000000 1.000000 0.169747
0.000000 0.001444 0.583502
0.176065 0.003570 0.573935
0.435632 0.005696 0.564368
0.695199 0.007822 0.554801
0.954766 0.009948 0.545234
0.000000 0.258596 0.551318
0.208249 0.260722 0.541751
0.467816 0.262848 0.532184
0.727383 0.264974 0.522617
0.986950 0.267100 0.513050
0.000000 0.515748 0.519134
0.240433 0.517874 0.509567
0.500000 0.520000 0.500000
0.759567 0.517874 0.490433
1.000000 0.515748 0.480866
0.013050 0.767100 0.486950
0.272617 0.764974 0.477383
0.532184 0.762848 0.467816
0.791751 0.760722 0.458249
1.000000 0.758596 0.448682
0.045234 1.000000 0.454766
0.304801 1.000000 0.445199
0.564368 1.000000 0.435632
0.823935 1.000000 0.426065
1.000000 1.000000 0.416498
0.000000 0.002166 0.830253
0.179314 0.004292 0.820686
0.438881 0.006418 0.811119
0.698448 0.008544 0.801552
0.958015 0.010670 0.791985
0.000000 0.259318 0.798069
0.211498 0.261444 0.788502
0.471065 0.263570 0.778935
0.730632 0.265696 0.769368
0.990199 0.267822 0.759801
0.000000 0.516470 0.765885
0.243682 0.518596 0.756318
0.503249 0.519278 0.746751
0.762816 0.517152 0.737184
1.000000 0.515026 0.727617
0.016299 0.766378 0.733701
0.275866 0.764252 0.724134
0.535433 0.762126 0.714567
0.795000 0.760000 0.705000
1.000000 0.757874 0.695433
0.048483 1.000000 0.701517
0.308050 1.000000 0.691950
0.567617 1.000000 0.682383
0.827184 1.000000 0.672816
1.000000 1.000000 0.663249
0.000000 0.002888 1.000000
0.182563 0.005014 1.000000
0.442130 0.007140 1.000000
0.701697 0.009266 1.000000
0.961264 0.011392 1.000000
0.000000 0.260040 1.000000
0.214747 0.262166 1.000000
0.474314 0.264292 1.000000
0.733881 0.266418 1.000000
0.993448 0.268544 1.000000
0.000000 0.517192 1.000000
0.246931 0.519318 1.000000
0.506498 0.518556 0.993502
0.766065 0.516430 0.983935
1.000000 0.514304 0.974368
0.019548 0.765656 0.980452
0.279115 0.763530 0.970885
0.538682 0.761404 0.961318
0.798249 0.759278 0.951751
1.000000 0.757152 0.942184
0.051732 1.000000 0.948268
0.311299 1.000000 0.938701
0.570866 1.000000 0.929134
0.830433 1.000000 0.919567
1.000000 1.000000 0.910000
