public/luts/teal-orange.cube
# Recut LookBook — teal-orange
LUT_3D_SIZE 17
DOMAIN_MIN 0 0 0
DOMAIN_MAX 1 1 1
0.000000 0.000000 0.090000
0.000000 0.000532 0.087608
0.039783 0.001063 0.085217
0.104675 0.001595 0.082825
0.169567 0.002126 0.080433
0.234459 0.002658 0.078041
0.299351 0.003189 0.075649
0.364242 0.003720 0.073258
0.429134 0.004252 0.070866
0.494026 0.004784 0.068474
0.558917 0.005315 0.066082
0.623809 0.005846 0.063691
0.688701 0.006378 0.061299
0.753593 0.006909 0.058907
0.818485 0.007441 0.056515
0.883376 0.007973 0.054124
0.948268 0.008504 0.051732
0.000000 0.064288 0.081954
0.000000 0.064820 0.079562
0.047829 0.065351 0.077171
0.112721 0.065882 0.074779
0.177613 0.066414 0.072387
0.242505 0.066946 0.069995
0.307397 0.067477 0.067603
0.372288 0.068008 0.065212
0.437180 0.068540 0.062820
0.502072 0.069072 0.060428
0.566963 0.069603 0.058036
0.631855 0.070135 0.055645
0.696747 0.070666 0.053253
0.761639 0.071197 0.050861
0.826530 0.071729 0.048470
0.891422 0.072261 0.046078
0.956314 0.072792 0.043686
0.000000 0.128576 0.073908
0.000000 0.129107 0.071516
0.055876 0.129639 0.069124
0.120767 0.130170 0.066733
0.185659 0.130702 0.064341
0.250551 0.131234 0.061949
0.315443 0.131765 0.059558
0.380334 0.132297 0.057166
0.445226 0.132828 0.054774
0.510118 0.133359 0.052382
0.575009 0.133891 0.049991
0.639901 0.134423 0.047599
0.704793 0.134954 0.045207
0.769685 0.135486 0.042815
0.834577 0.136017 0.040424
0.899468 0.136548 0.038032
0.964360 0.137080 0.035640
0.000000 0.192864 0.065862
0.000000 0.193395 0.063470
0.063922 0.193927 0.061078
0.128813 0.194459 0.058687
0.193705 0.194990 0.056295
0.258597 0.195522 0.053903
0.323489 0.196053 0.051512
0.388380 0.196584 0.049120
0.453272 0.197116 0.046728
0.518164 0.197648 0.044336
0.583055 0.198179 0.041944
0.647947 0.198711 0.039553
0.712839 0.199242 0.037161
0.777731 0.199773 0.034769
0.842623 0.200305 0.032378
0.907514 0.200837 0.029986
0.972406 0.201368 0.027594
0.000000 0.257152 0.057816
0.007076 0.257684 0.055424
0.071967 0.258215 0.053033
0.136859 0.258746 0.050641
0.201751 0.259278 0.048249
0.266643 0.259810 0.045857
0.331535 0.260341 0.043465
0.396426 0.260873 0.041074
0.461318 0.261404 0.038682
0.526210 0.261935 0.036290
0.591102 0.262467 0.033898
0.655993 0.262999 0.031507
0.720885 0.263530 0.029115
0.785777 0.264062 0.026723
0.850669 0.264593 0.024332
0.915560 0.265124 0.021940
0.980452 0.265656 0.019548
0.000000 0.321440 0.049770
0.015122 0.321972 0.047378
0.080014 0.322503 0.044986
0.144905 0.323035 0.042595
0.209797 0.323566 0.040203
0.274689 0.324097 0.037811
0.339581 0.324629 0.035420
0.404472 0.325161 0.033028
0.469364 0.325692 0.030636
0.534256 0.326223 0.028244
0.599147 0.326755 0.025853
0.664039 0.327286 0.023461
0.728931 0.327818 0.021069
0.793823 0.328350 0.018677
0.858715 0.328881 0.016286
0.923606 0.329412 0.013894
0.988498 0.329944 0.011502
0.000000 0.385728 0.041724
0.023168 0.386259 0.039332
0.088060 0.386791 0.036940
0.152951 0.387323 0.034549
0.217843 0.387854 0.032157
0.282735 0.388385 0.029765
0.347627 0.388917 0.027374
0.412518 0.389448 0.024982
0.477410 0.389980 0.022590
0.542302 0.390512 0.020198
0.607194 0.391043 0.017806
0.672085 0.391574 0.015415
0.736977 0.392106 0.013023
0.801869 0.392637 0.010631
0.866761 0.393169 0.008240
0.931652 0.393701 0.005848
0.996544 0.394232 0.003456
0.000000 0.450016 0.033678
0.031214 0.450547 0.031286
0.096105 0.451079 0.028895
0.160997 0.451611 0.026503
0.225889 0.452142 0.024111
0.290781 0.452674 0.021719
0.355673 0.453205 0.019328
0.420564 0.453736 0.016936
0.485456 0.454268 0.014544
0.550348 0.454800 0.012152
0.615240 0.455331 0.009761
0.680131 0.455863 0.007369
0.745023 0.456394 0.004977
0.809915 0.456925 0.002585
0.874807 0.457457 0.000194
0.939698 0.457012 0.000000
1.000000 0.456480 0.000000
0.000000 0.514304 0.025632
0.039260 0.514836 0.023240
0.104151 0.515367 0.020849
0.169043 0.515899 0.018457
0.233935 0.516430 0.016065
0.298827 0.516961 0.013673
0.363719 0.517493 0.011282
0.428610 0.518024 0.008890
0.493502 0.518556 0.006498
0.558394 0.519088 0.004106
0.623286 0.519619 0.001715
0.688177 0.519849 0.000000
0.753069 0.519318 0.000000
0.817961 0.518787 0.000000
0.882853 0.518255 0.000000
0.947744 0.517724 0.000000
1.000000 0.517192 0.000000
0.000000 0.578592 0.017586
0.047306 0.579124 0.015194
0.112198 0.579655 0.012802
0.177089 0.580187 0.010411
0.241981 0.580718 0.008019
0.306873 0.581249 0.005627
0.371764 0.581781 0.003236
0.436656 0.582313 0.000844
0.501548 0.582156 0.000000
0.566440 0.581624 0.000000
0.631332 0.581093 0.000000
0.696223 0.580561 0.000000
0.761115 0.580030 0.000000
0.826007 0.579499 0.000000
0.890899 0.578967 0.000000
0.955790 0.578435 0.000000
1.000000 0.577904 0.000000
0.000000 0.642880 0.009540
0.055352 0.643412 0.007148
0.120243 0.643943 0.004757
0.185135 0.644474 0.002365
0.250027 0.644994 0.000000
0.314919 0.644463 0.000000
0.379810 0.643931 0.000000
0.444702 0.643400 0.000000
0.509594 0.642868 0.000000
0.574486 0.642336 0.000000
0.639377 0.641805 0.000000
0.704269 0.641274 0.000000
0.769161 0.640742 0.000000
0.834053 0.640211 0.000000
0.898945 0.639679 0.000000
0.963836 0.639147 0.000000
1.000000 0.638616 0.000000
0.000000 0.707168 0.001494
0.063398 0.707300 0.000000
0.128290 0.706769 0.000000
0.193181 0.706237 0.000000
0.258073 0.705706 0.000000
0.322965 0.705175 0.000000
0.387856 0.704643 0.000000
0.452748 0.704112 0.000000
0.517640 0.703580 0.000000
0.582532 0.703048 0.000000
0.647424 0.702517 0.000000
0.712315 0.701986 0.000000
0.777207 0.701454 0.000000
0.842099 0.700923 0.000000
0.906991 0.700391 0.000000
0.971882 0.699859 0.000000
1.000000 0.699328 0.000000
0.006552 0.768544 0.000000
0.071444 0.768012 0.000000
0.136335 0.767481 0.000000
0.201227 0.766949 0.000000
0.266119 0.766418 0.000000
0.331011 0.765887 0.000000
0.395902 0.765355 0.000000
0.460794 0.764823 0.000000
0.525686 0.764292 0.000000
0.590578 0.763760 0.000000
0.655470 0.763229 0.000000
0.720361 0.762698 0.000000
0.785253 0.762166 0.000000
0.850145 0.761634 0.000000
0.915037 0.761103 0.000000
0.979928 0.760571 0.000000
1.000000 0.760040 0.000000
0.014598 0.829256 0.000000
0.079490 0.828724 0.000000
0.144381 0.828193 0.000000
0.209273 0.827662 0.000000
0.274165 0.827130 0.000000
0.339057 0.826599 0.000000
0.403948 0.826067 0.000000
0.468840 0.825535 0.000000
0.533732 0.825004 0.000000
0.598624 0.824473 0.000000
0.663516 0.823941 0.000000
0.728407 0.823410 0.000000
0.793299 0.822878 0.000000
0.858191 0.822346 0.000000
0.923083 0.821815 0.000000
0.987974 0.821284 0.000000
1.000000 0.820752 0.000000
0.022644 0.889968 0.000000
0.087536 0.889436 0.000000
0.152427 0.888905 0.000000
0.217319 0.888374 0.000000
0.282211 0.887842 0.000000
0.347103 0.887311 0.000000
0.411994 0.886779 0.000000
0.476886 0.886247 0.000000
0.541778 0.885716 0.000000
0.606670 0.885185 0.000000
0.671562 0.884653 0.000000
0.736453 0.884122 0.000000
0.801345 0.883590 0.000000
0.866237 0.883058 0.000000
0.931129 0.882527 0.000000
0.996020 0.881996 0.000000
1.000000 0.881464 0.000000
0.030690 0.950680 0.000000
0.095582 0.950148 0.000000
0.160473 0.949617 0.000000
0.225365 0.949086 0.000000
0.290257 0.948554 0.000000
0.355149 0.948022 0.000000
0.420040 0.947491 0.000000
0.484932 0.946959 0.000000
0.549824 0.946428 0.000000
0.614716 0.945897 0.000000
0.679608 0.945365 0.000000
0.744499 0.944833 0.000000
0.809391 0.944302 0.000000
0.874283 0.943770 0.000000
0.939175 0.943239 0.000000
1.000000 0.942708 0.000000
1.000000 0.942176 0.000000
0.038736 1.000000 0.000000
0.103628 1.000000 0.000000
0.168519 1.000000 0.000000
0.233411 1.000000 0.000000
0.298303 1.000000 0.000000
0.363195 1.000000 0.000000
0.428086 1.000000 0.000000
0.492978 1.000000 0.000000
0.557870 1.000000 0.000000
0.622762 1.000000 0.000000
0.687654 1.000000 0.000000
0.752545 1.000000 0.000000
0.817437 1.000000 0.000000
0.882329 1.000000 0.000000
0.947221 1.000000 0.000000
1.000000 1.000000 0.000000
1.000000 1.000000 0.000000
0.000000 0.000180 0.151688
0.000000 0.000712 0.149296
0.040596 0.001243 0.146904
0.105487 0.001775 0.144512
0.170379 0.002307 0.142121
0.235271 0.002838 0.139729
0.300163 0.003370 0.137337
0.365055 0.003901 0.134945
0.429946 0.004432 0.132554
0.494838 0.004964 0.130162
0.559730 0.005495 0.127770
0.624621 0.006027 0.125379
0.689513 0.006559 0.122987
0.754405 0.007090 0.120595
0.819297 0.007622 0.118203
0.884189 0.008153 0.115811
0.949080 0.008685 0.113420
0.000000 0.064468 0.143642
0.000000 0.065000 0.141250
0.048642 0.065532 0.138858
0.113534 0.066063 0.136466
0.178425 0.066595 0.134075
0.243317 0.067126 0.131683
0.308209 0.067657 0.129291
0.373101 0.068189 0.126899
0.437992 0.068721 0.124508
0.502884 0.069252 0.122116
0.567776 0.069783 0.119724
0.632667 0.070315 0.117333
0.697559 0.070847 0.114941
0.762451 0.071378 0.112549
0.827343 0.071910 0.110157
0.892235 0.072441 0.107766
0.957126 0.072972 0.105374
0.000000 0.128756 0.135596
0.000000 0.129288 0.133204
0.056688 0.129820 0.130812
0.121579 0.130351 0.128420
0.186471 0.130883 0.126029
0.251363 0.131414 0.123637
0.316255 0.131945 0.121245
0.381146 0.132477 0.118854
0.446038 0.133009 0.116462
0.510930 0.133540 0.114070
0.575822 0.134072 0.111678
0.640714 0.134603 0.109286
0.705605 0.135134 0.106895
0.770497 0.135666 0.104503
0.835389 0.136197 0.102111
0.900281 0.136729 0.099720
0.965172 0.137261 0.097328
0.000000 0.193045 0.127550
0.000000 0.193576 0.125158
0.064734 0.194107 0.122766
0.129626 0.194639 0.120374
0.194517 0.195170 0.117983
0.259409 0.195702 0.115591
0.324301 0.196234 0.113199
0.389192 0.196765 0.110808
0.454084 0.197296 0.108416
0.518976 0.197828 0.106024
0.583868 0.198359 0.103632
0.648759 0.198891 0.101241
0.713651 0.199423 0.098849
0.778543 0.199954 0.096457
0.843435 0.200486 0.094065
0.908327 0.201017 0.091674
0.973218 0.201548 0.089282
0.000000 0.257333 0.119504
0.007888 0.257864 0.117112
0.072780 0.258396 0.114720
0.137672 0.258927 0.112328
0.202563 0.259458 0.109937
0.267455 0.259990 0.107545
0.332347 0.260522 0.105153
0.397238 0.261053 0.102762
0.462130 0.261584 0.100370
0.527022 0.262116 0.097978
0.591914 0.262647 0.095586
0.656806 0.263179 0.093195
0.721697 0.263711 0.090803
0.786589 0.264242 0.088411
0.851481 0.264773 0.086019
0.916373 0.265305 0.083628
0.981264 0.265836 0.081236
0.000000 0.321620 0.111458
0.015934 0.322152 0.109066
0.080826 0.322684 0.106674
0.145717 0.323215 0.104283
0.210609 0.323746 0.101891
0.275501 0.324278 0.099499
0.340393 0.324809 0.097107
0.405284 0.325341 0.094716
0.470176 0.325873 0.092324
0.535068 0.326404 0.089932
0.599960 0.326935 0.087540
0.664852 0.327467 0.085149
0.729743 0.327999 0.082757
0.794635 0.328530 0.080365
0.859527 0.329062 0.077973
0.924419 0.329593 0.075582
0.989310 0.330124 0.073190
0.000000 0.385908 0.103412
0.023980 0.386440 0.101020
0.088872 0.386972 0.098628
0.153763 0.387503 0.096237
0.218655 0.388035 0.093845
0.283547 0.388566 0.091453
0.348439 0.389097 0.089061
0.413330 0.389629 0.086670
0.478222 0.390161 0.084278
0.543114 0.390692 0.081886
0.608006 0.391224 0.079494
0.672898 0.391755 0.077103
0.737789 0.392286 0.074711
0.802681 0.392818 0.072319
0.867573 0.393350 0.069927
0.932465 0.393881 0.067535
0.997356 0.394412 0.065144
0.000000 0.450196 0.095366
0.032026 0.450728 0.092974
0.096918 0.451259 0.090582
0.161809 0.451791 0.088191
0.226701 0.452323 0.085799
0.291593 0.452854 0.083407
0.356485 0.453385 0.081015
0.421376 0.453917 0.078624
0.486268 0.454448 0.076232
0.551160 0.454980 0.073840
0.616052 0.455512 0.071448
0.680944 0.456043 0.069057
0.745835 0.456574 0.066665
0.810727 0.457106 0.064273
0.875619 0.457363 0.061881
0.940511 0.456831 0.059490
1.000000 0.456300 0.057098
0.000000 0.514485 0.087320
0.040072 0.515016 0.084928
0.104964 0.515548 0.082536
0.169855 0.516079 0.080145
0.234747 0.516610 0.077753
0.299639 0.517142 0.075361
0.364531 0.517674 0.072969
0.429422 0.518205 0.070578
0.494314 0.518737 0.068186
0.559206 0.519268 0.065794
0.624098 0.519799 0.063402
0.688990 0.519669 0.061010
0.753881 0.519138 0.058619
0.818773 0.518606 0.056227
0.883665 0.518074 0.053835
0.948557 0.517543 0.051444
1.000000 0.517011 0.049052
0.000000 0.578773 0.079274
0.048118 0.579304 0.076882
0.113010 0.579835 0.074490
0.177901 0.580367 0.072098
0.242793 0.580898 0.069707
0.307685 0.581430 0.067315
0.372577 0.581962 0.064923
0.437468 0.582493 0.062532
0.502360 0.581975 0.060140
0.567252 0.581444 0.057748
0.632144 0.580913 0.055356
0.697036 0.580381 0.052964
0.761927 0.579850 0.050573
0.826819 0.579318 0.048181
0.891711 0.578786 0.045789
0.956603 0.578255 0.043397
1.000000 0.577723 0.041006
0.000000 0.643061 0.071228
0.056164 0.643592 0.068836
0.121056 0.644123 0.066444
0.185947 0.644655 0.064053
0.250839 0.644814 0.061661
0.315731 0.644282 0.059269
0.380623 0.643751 0.056877
0.445514 0.643219 0.054485
0.510406 0.642687 0.052094
0.575298 0.642156 0.049702
0.640190 0.641625 0.047310
0.705082 0.641093 0.044919
0.769973 0.640562 0.042527
0.834865 0.640030 0.040135
0.899757 0.639498 0.037743
0.964649 0.638967 0.035352
1.000000 0.638436 0.032960
0.000000 0.707349 0.063182
0.064210 0.707120 0.060790
0.129102 0.706588 0.058398
0.193993 0.706057 0.056007
0.258885 0.705526 0.053615
0.323777 0.704994 0.051223
0.388669 0.704462 0.048831
0.453560 0.703931 0.046440
0.518452 0.703399 0.044048
0.583344 0.702868 0.041656
0.648236 0.702337 0.039264
0.713128 0.701805 0.036872
0.778019 0.701273 0.034481
0.842911 0.700742 0.032089
0.907803 0.700210 0.029697
0.972695 0.699679 0.027305
1.000000 0.699148 0.024914
0.007364 0.768363 0.055136
0.072256 0.767832 0.052744
0.137148 0.767301 0.050352
0.202040 0.766769 0.047960
0.266931 0.766238 0.045569
0.331823 0.765706 0.043177
0.396715 0.765174 0.040785
0.461606 0.764643 0.038394
0.526498 0.764111 0.036002
0.591390 0.763580 0.033610
0.656282 0.763049 0.031218
0.721174 0.762517 0.028827
0.786065 0.761985 0.026435
0.850957 0.761454 0.024043
0.915849 0.760922 0.021651
0.980741 0.760391 0.019259
1.000000 0.759860 0.016868
0.015410 0.829075 0.047090
0.080302 0.828544 0.044698
0.145194 0.828013 0.042306
0.210086 0.827481 0.039914
0.274977 0.826950 0.037523
0.339869 0.826418 0.035131
0.404761 0.825886 0.032739
0.469652 0.825355 0.030348
0.534544 0.824824 0.027956
0.599436 0.824292 0.025564
0.664328 0.823761 0.023172
0.729220 0.823229 0.020781
0.794111 0.822697 0.018389
0.859003 0.822166 0.015997
0.923895 0.821635 0.013605
0.988787 0.821103 0.011214
1.000000 0.820572 0.008822
0.023456 0.889787 0.039044
0.088348 0.889256 0.036652
0.153240 0.888725 0.034260
0.218131 0.888193 0.031869
0.283023 0.887661 0.029477
0.347915 0.887130 0.027085
0.412807 0.886598 0.024693
0.477698 0.886067 0.022302
0.542590 0.885536 0.019910
0.607482 0.885004 0.017518
0.672374 0.884472 0.015126
0.737266 0.883941 0.012735
0.802157 0.883409 0.010343
0.867049 0.882878 0.007951
0.931941 0.882347 0.005559
0.996833 0.881815 0.003168
1.000000 0.881283 0.000776
0.031502 0.950500 0.030998
0.096394 0.949968 0.028606
0.161286 0.949437 0.026214
0.226178 0.948905 0.023822
0.291069 0.948373 0.021431
0.355961 0.947842 0.019039
0.420853 0.947310 0.016647
0.485745 0.946779 0.014255
0.550636 0.946248 0.011864
0.615528 0.945716 0.009472
0.680420 0.945184 0.007080
0.745312 0.944653 0.004689
0.810203 0.944121 0.002297
0.875095 0.943590 0.000000
0.939987 0.943059 0.000000
1.000000 0.942527 0.000000
1.000000 0.941995 0.000000
0.039548 1.000000 0.022952
0.104440 1.000000 0.020560
0.169332 1.000000 0.018168
0.234224 1.000000 0.015776
0.299115 1.000000 0.013385
0.364007 1.000000 0.010993
0.428899 1.000000 0.008601
0.493791 1.000000 0.006209
0.558682 1.000000 0.003818
0.623574 1.000000 0.001426
0.688466 1.000000 0.000000
0.753358 1.000000 0.000000
0.818249 1.000000 0.000000
0.883141 1.000000 0.000000
0.948033 1.000000 0.000000
1.000000 1.000000 0.000000
1.000000 1.000000 0.000000
0.000000 0.000361 0.213375
0.000000 0.000893 0.210984
0.041408 0.001424 0.208592
0.106300 0.001955 0.206200
0.171191 0.002487 0.203809
0.236083 0.003018 0.201417
0.300975 0.003550 0.199025
0.365867 0.004082 0.196633
0.430758 0.004613 0.194242
0.495650 0.005145 0.191850
0.560542 0.005676 0.189458
0.625434 0.006208 0.187066
0.690326 0.006739 0.184674
0.755217 0.007271 0.182283
0.820109 0.007802 0.179891
0.885001 0.008334 0.177499
0.949893 0.008865 0.175107
0.000000 0.064649 0.205329
0.000000 0.065181 0.202938
0.049454 0.065712 0.200546
0.114346 0.066243 0.198154
0.179237 0.066775 0.195763
0.244129 0.067307 0.193371
0.309021 0.067838 0.190979
0.373913 0.068369 0.188587
0.438804 0.068901 0.186196
0.503696 0.069432 0.183804
0.568588 0.069964 0.181412
0.633480 0.070496 0.179020
0.698372 0.071027 0.176628
0.763263 0.071558 0.174237
0.828155 0.072090 0.171845
0.893047 0.072622 0.169453
0.957939 0.073153 0.167062
0.000000 0.128937 0.197284
0.000000 0.129468 0.194892
0.057500 0.130000 0.192500
0.122392 0.130531 0.190108
0.187283 0.131063 0.187717
0.252175 0.131595 0.185325
0.317067 0.132126 0.182933
0.381959 0.132658 0.180541
0.446850 0.133189 0.178150
0.511742 0.133720 0.175758
0.576634 0.134252 0.173366
0.641526 0.134784 0.170974
0.706418 0.135315 0.168582
0.771309 0.135847 0.166191
0.836201 0.136378 0.163799
0.901093 0.136909 0.161407
0.965985 0.137441 0.159016
0.000000 0.193225 0.189238
0.000654 0.193756 0.186846
0.065546 0.194288 0.184454
0.130438 0.194820 0.182062
0.195329 0.195351 0.179671
0.260221 0.195882 0.177279
0.325113 0.196414 0.174887
0.390005 0.196945 0.172495
0.454896 0.197477 0.170103
0.519788 0.198009 0.167712
0.584680 0.198540 0.165320
0.649572 0.199072 0.162928
0.714464 0.199603 0.160536
0.779355 0.200134 0.158145
0.844247 0.200666 0.155753
0.909139 0.201198 0.153361
0.974031 0.201729 0.150970
0.000000 0.257513 0.181192
0.008700 0.258045 0.178800
0.073592 0.258576 0.176408
0.138484 0.259107 0.174016
0.203375 0.259639 0.171625
0.268267 0.260171 0.169233
0.333159 0.260702 0.166841
0.398051 0.261234 0.164449
0.462943 0.261765 0.162057
0.527834 0.262296 0.159666
0.592726 0.262828 0.157274
0.657618 0.263360 0.154882
0.722510 0.263891 0.152491
0.787401 0.264423 0.150099
0.852293 0.264954 0.147707
0.917185 0.265485 0.145315
0.982077 0.266017 0.142924
0.000000 0.321801 0.173146
0.016746 0.322333 0.170754
0.081638 0.322864 0.168362
0.146530 0.323396 0.165970
0.211421 0.323927 0.163579
0.276313 0.324458 0.161187
0.341205 0.324990 0.158795
0.406097 0.325522 0.156403
0.470988 0.326053 0.154011
0.535880 0.326584 0.151620
0.600772 0.327116 0.149228
0.665664 0.327647 0.146836
0.730556 0.328179 0.144445
0.795447 0.328711 0.142053
0.860339 0.329242 0.139661
0.925231 0.329773 0.137269
0.990123 0.330305 0.134878
0.000000 0.386089 0.165100
0.024792 0.386620 0.162708
0.089684 0.387152 0.160316
0.154576 0.387684 0.157924
0.219468 0.388215 0.155532
0.284359 0.388746 0.153141
0.349251 0.389278 0.150749
0.414143 0.389809 0.148357
0.479035 0.390341 0.145965
0.543926 0.390873 0.143574
0.608818 0.391404 0.141182
0.673710 0.391935 0.138790
0.738602 0.392467 0.136399
0.803493 0.392999 0.134007
0.868385 0.393530 0.131615
0.933277 0.394062 0.129223
0.998169 0.394593 0.126831
0.000000 0.450377 0.157054
0.032838 0.450908 0.154662
0.097730 0.451440 0.152270
0.162622 0.451972 0.149878
0.227514 0.452503 0.147486
0.292405 0.453035 0.145095
0.357297 0.453566 0.142703
0.422189 0.454097 0.140311
0.487080 0.454629 0.137920
0.551972 0.455161 0.135528
0.616864 0.455692 0.133136
0.681756 0.456224 0.130744
0.746648 0.456755 0.128353
0.811539 0.457286 0.125961
0.876431 0.457182 0.123569
0.941323 0.456651 0.121177
1.000000 0.456119 0.118786
0.000000 0.514665 0.149008
0.040884 0.515196 0.146616
0.105776 0.515728 0.144224
0.170668 0.516259 0.141832
0.235560 0.516791 0.139440
0.300451 0.517323 0.137049
0.365343 0.517854 0.134657
0.430235 0.518385 0.132265
0.495127 0.518917 0.129874
0.560018 0.519448 0.127482
0.624910 0.519980 0.125090
0.689802 0.519489 0.122698
0.754694 0.518957 0.120307
0.819585 0.518425 0.117915
0.884477 0.517894 0.115523
0.949369 0.517363 0.113131
1.000000 0.516831 0.110740
0.000000 0.578953 0.140961
0.048930 0.579484 0.138570
0.113822 0.580016 0.136178
0.178714 0.580547 0.133786
0.243606 0.581079 0.131394
0.308497 0.581611 0.129003
0.373389 0.582142 0.126611
0.438281 0.582326 0.124219
0.503173 0.581795 0.121828
0.568064 0.581264 0.119436
0.632956 0.580732 0.117044
0.697848 0.580201 0.114652
0.762740 0.579669 0.112261
0.827631 0.579137 0.109869
0.892523 0.578606 0.107477
0.957415 0.578075 0.105085
1.000000 0.577543 0.102694
0.000000 0.643241 0.132916
0.056976 0.643772 0.130524
0.121868 0.644304 0.128132
0.186760 0.644836 0.125740
0.251651 0.644633 0.123349
0.316543 0.644101 0.120957
0.381435 0.643570 0.118565
0.446327 0.643038 0.116173
0.511219 0.642507 0.113782
0.576110 0.641976 0.111390
0.641002 0.641444 0.108998
0.705894 0.640912 0.106606
0.770786 0.640381 0.104215
0.835677 0.639849 0.101823
0.900569 0.639318 0.099431
0.965461 0.638787 0.097039
1.000000 0.638255 0.094648
0.000130 0.707471 0.124870
0.065022 0.706940 0.122478
0.129914 0.706408 0.120086
0.194806 0.705877 0.117694
0.259697 0.705345 0.115303
0.324589 0.704813 0.112911
0.389481 0.704282 0.110519
0.454373 0.703751 0.108127
0.519265 0.703219 0.105736
0.584156 0.702688 0.103344
0.649048 0.702156 0.100952
0.713940 0.701624 0.098560
0.778832 0.701093 0.096169
0.843723 0.700561 0.093777
0.908615 0.700030 0.091385
0.973507 0.699499 0.088993
1.000000 0.698967 0.086602
0.008176 0.768183 0.116824
0.073068 0.767652 0.114432
0.137960 0.767120 0.112040
0.202852 0.766589 0.109648
0.267743 0.766057 0.107257
0.332635 0.765525 0.104865
0.397527 0.764994 0.102473
0.462419 0.764463 0.100081
0.527311 0.763931 0.097689
0.592202 0.763400 0.095298
0.657094 0.762868 0.092906
0.721986 0.762336 0.090514
0.786878 0.761805 0.088123
0.851769 0.761274 0.085731
0.916661 0.760742 0.083339
0.981553 0.760211 0.080947
1.000000 0.759679 0.078556
0.016222 0.828895 0.108778
0.081114 0.828364 0.106386
0.146006 0.827832 0.103994
0.210898 0.827300 0.101602
0.275789 0.826769 0.099211
0.340681 0.826237 0.096819
0.405573 0.825706 0.094427
0.470465 0.825175 0.092035
0.535357 0.824643 0.089644
0.600248 0.824111 0.087252
0.665140 0.823580 0.084860
0.730032 0.823048 0.082468
0.794924 0.822517 0.080077
0.859815 0.821986 0.077685
0.924707 0.821454 0.075293
0.989599 0.820922 0.072901
1.000000 0.820391 0.070510
0.024268 0.889607 0.100732
0.089160 0.889076 0.098340
0.154052 0.888544 0.095948
0.218944 0.888012 0.093556
0.283835 0.887481 0.091165
0.348727 0.886950 0.088773
0.413619 0.886418 0.086381
0.478511 0.885887 0.083989
0.543403 0.885355 0.081598
0.608294 0.884823 0.079206
0.673186 0.884292 0.076814
0.738078 0.883761 0.074422
0.802970 0.883229 0.072031
0.867861 0.882698 0.069639
0.932753 0.882166 0.067247
0.997645 0.881634 0.064855
1.000000 0.881103 0.062464
0.032314 0.950319 0.092686
0.097206 0.949788 0.090294
0.162098 0.949256 0.087902
0.226990 0.948724 0.085510
0.291882 0.948193 0.083119
0.356773 0.947662 0.080727
0.421665 0.947130 0.078335
0.486557 0.946599 0.075943
0.551449 0.946067 0.073552
0.616340 0.945535 0.071160
0.681232 0.945004 0.068768
0.746124 0.944473 0.066376
0.811016 0.943941 0.063985
0.875907 0.943410 0.061593
0.940799 0.942878 0.059201
1.000000 0.942346 0.056809
1.000000 0.941815 0.054418
0.040360 1.000000 0.084640
0.105252 1.000000 0.082248
0.170144 1.000000 0.079856
0.235036 1.000000 0.077464
0.299928 1.000000 0.075073
0.364819 1.000000 0.072681
0.429711 1.000000 0.070289
0.494603 1.000000 0.067897
0.559495 1.000000 0.065506
0.624386 1.000000 0.063114
0.689278 1.000000 0.060722
0.754170 1.000000 0.058330
0.819061 1.000000 0.055939
0.883953 1.000000 0.053547
0.948845 1.000000 0.051155
1.000000 1.000000 0.048763
1.000000 1.000000 0.046372
0.000000 0.000541 0.275063
0.000000 0.001073 0.272672
0.042220 0.001604 0.270280
0.107112 0.002136 0.267888
0.172004 0.002668 0.265496
0.236896 0.003199 0.263104
0.301787 0.003731 0.260713
0.366679 0.004262 0.258321
0.431571 0.004794 0.255929
0.496463 0.005325 0.253537
0.561354 0.005857 0.251146
0.626246 0.006388 0.248754
0.691138 0.006920 0.246362
0.756030 0.007451 0.243970
0.820921 0.007983 0.241579
0.885813 0.008514 0.239187
0.950705 0.009045 0.236795
0.000000 0.064829 0.267017
