public/luts/warm-film.cube
# Recut LookBook — warm-film
LUT_3D_SIZE 5
DOMAIN_MIN 0 0 0
DOMAIN_MAX 1 1 1
0.020000 0.000000 0.000000
0.285000 0.000000 0.000000
0.550000 0.000000 0.000000
0.815000 0.000000 0.000000
1.000000 0.000000 0.000000
0.020000 0.252500 0.000000
0.285000 0.252500 0.000000
0.550000 0.252500 0.000000
0.815000 0.252500 0.000000
1.000000 0.252500 0.000000
0.020000 0.505000 0.000000
0.285000 0.505000 0.000000
0.550000 0.505000 0.000000
0.815000 0.505000 0.000000
1.000000 0.505000 0.000000
0.020000 0.757500 0.000000
0.285000 0.757500 0.000000
0.550000 0.757500 0.000000
0.815000 0.757500 0.000000
1.000000 0.757500 0.000000
0.020000 1.000000 0.000000
0.285000 1.000000 0.000000
0.550000 1.000000 0.000000
0.815000 1.000000 0.000000
1.000000 1.000000 0.000000
0.020000 0.000000 0.230000
0.285000 0.000000 0.230000
0.550000 0.000000 0.230000
0.815000 0.000000 0.230000
1.000000 0.000000 0.230000
0.020000 0.252500 0.230000
0.285000 0.252500 0.230000
0.550000 0.252500 0.230000
0.815000 0.252500 0.230000
1.000000 0.252500 0.230000
0.020000 0.505000 0.230000
0.285000 0.505000 0.230000
0.550000 0.505000 0.230000
0.815000 0.505000 0.230000
1.000000 0.505000 0.230000
0.020000 0.757500 0.230000
0.285000 0.757500 0.230000
0.550000 0.757500 0.230000
0.815000 0.757500 0.230000
1.000000 0.757500 0.230000
0.020000 1.000000 0.230000
0.285000 1.000000 0.230000
0.550000 1.000000 0.230000
0.815000 1.000000 0.230000
1.000000 1.000000 0.230000
0.020000 0.000000 0.460000
0.285000 0.000000 0.460000
0.550000 0.000000 0.460000
0.815000 0.000000 0.460000
1.000000 0.000000 0.460000
0.020000 0.252500 0.460000
0.285000 0.252500 0.460000
0.550000 0.252500 0.460000
0.815000 0.252500 0.460000
1.000000 0.252500 0.460000
0.020000 0.505000 0.460000
0.285000 0.505000 0.460000
0.550000 0.505000 0.460000
0.815000 0.505000 0.460000
1.000000 0.505000 0.460000
0.020000 0.757500 0.460000
0.285000 0.757500 0.460000
0.550000 0.757500 0.460000
0.815000 0.757500 0.460000
1.000000 0.757500 0.460000
0.020000 1.000000 0.460000
0.285000 1.000000 0.460000
0.550000 1.000000 0.460000
0.815000 1.000000 0.460000
1.000000 1.000000 0.460000
0.020000 0.000000 0.690000
0.285000 0.000000 0.690000
0.550000 0.000000 0.690000
0.815000 0.000000 0.690000
1.000000 0.000000 0.690000
0.020000 0.252500 0.690000
0.285000 0.252500 0.690000
0.550000 0.252500 0.690000
0.815000 0.252500 0.690000
1.000000 0.252500 0.690000
0.020000 0.505000 0.690000
0.285000 0.505000 0.690000
0.550000 0.505000 0.690000
0.815000 0.505000 0.690000
1.000000 0.505000 0.690000
0.020000 0.757500 0.690000
0.285000 0.757500 0.690000
0.550000 0.757500 0.690000
0.815000 0.757500 0.690000
1.000000 0.757500 0.690000
0.020000 1.000000 0.690000
0.285000 1.000000 0.690000
0.550000 1.000000 0.690000
0.815000 1.000000 0.690000
1.000000 1.000000 0.690000
0.020000 0.000000 0.920000
0.285000 0.000000 0.920000
0.550000 0.000000 0.920000
0.815000 0.000000 0.920000
1.000000 0.000000 0.920000
0.020000 0.252500 0.920000
0.285000 0.252500 0.920000
0.550000 0.252500 0.920000
0.815000 0.252500 0.920000
1.000000 0.252500 0.920000
0.020000 0.505000 0.920000
0.285000 0.505000 0.920000
0.550000 0.505000 0.920000
0.815000 0.505000 0.920000
1.000000 0.505000 0.920000
0.020000 0.757500 0.920000
0.285000 0.757500 0.920000
0.550000 0.757500 0.920000
0.815000 0.757500 0.920000
1.000000 0.757500 0.920000
0.020000 1.000000 0.920000
0.285000 1.000000 0.920000
0.550000 1.000000 0.920000
0.815000 1.000000 0.920000
1.000000 1.000000 0.920000
