public/luts/warm-film.cube
# Recut LookBook — warm-film
LUT_3D_SIZE 17
DOMAIN_MIN 0 0 0
DOMAIN_MAX 1 1 1
0.020000 0.000000 0.000000
0.086250 0.000000 0.000000
0.152500 0.000000 0.000000
0.218750 0.000000 0.000000
0.285000 0.000000 0.000000
0.351250 0.000000 0.000000
0.417500 0.000000 0.000000
0.483750 0.000000 0.000000
0.550000 0.000000 0.000000
0.616250 0.000000 0.000000
0.682500 0.000000 0.000000
0.748750 0.000000 0.000000
0.815000 0.000000 0.000000
0.881250 0.000000 0.000000
0.947500 0.000000 0.000000
1.000000 0.000000 0.000000
1.000000 0.000000 0.000000
0.020000 0.063125 0.000000
0.086250 0.063125 0.000000
0.152500 0.063125 0.000000
0.218750 0.063125 0.000000
0.285000 0.063125 0.000000
0.351250 0.063125 0.000000
0.417500 0.063125 0.000000
0.483750 0.063125 0.000000
0.550000 0.063125 0.000000
0.616250 0.063125 0.000000
0.682500 0.063125 0.000000
0.748750 0.063125 0.000000
0.815000 0.063125 0.000000
0.881250 0.063125 0.000000
0.947500 0.063125 0.000000
1.000000 0.063125 0.000000
1.000000 0.063125 0.000000
0.020000 0.126250 0.000000
0.086250 0.126250 0.000000
0.152500 0.126250 0.000000
0.218750 0.126250 0.000000
0.285000 0.126250 0.000000
0.351250 0.126250 0.000000
0.417500 0.126250 0.000000
0.483750 0.126250 0.000000
0.550000 0.126250 0.000000
0.616250 0.126250 0.000000
0.682500 0.126250 0.000000
0.748750 0.126250 0.000000
0.815000 0.126250 0.000000
0.881250 0.126250 0.000000
0.947500 0.126250 0.000000
1.000000 0.126250 0.000000
1.000000 0.126250 0.000000
0.020000 0.189375 0.000000
0.086250 0.189375 0.000000
0.152500 0.189375 0.000000
0.218750 0.189375 0.000000
0.285000 0.189375 0.000000
0.351250 0.189375 0.000000
0.417500 0.189375 0.000000
0.483750 0.189375 0.000000
0.550000 0.189375 0.000000
0.616250 0.189375 0.000000
0.682500 0.189375 0.000000
0.748750 0.189375 0.000000
0.815000 0.189375 0.000000
0.881250 0.189375 0.000000
0.947500 0.189375 0.000000
1.000000 0.189375 0.000000
1.000000 0.189375 0.000000
0.020000 0.252500 0.000000
0.086250 0.252500 0.000000
0.152500 0.252500 0.000000
0.218750 0.252500 0.000000
0.285000 0.252500 0.000000
0.351250 0.252500 0.000000
0.417500 0.252500 0.000000
0.483750 0.252500 0.000000
0.550000 0.252500 0.000000
0.616250 0.252500 0.000000
0.682500 0.252500 0.000000
0.748750 0.252500 0.000000
0.815000 0.252500 0.000000
0.881250 0.252500 0.000000
0.947500 0.252500 0.000000
1.000000 0.252500 0.000000
1.000000 0.252500 0.000000
0.020000 0.315625 0.000000
0.086250 0.315625 0.000000
0.152500 0.315625 0.000000
0.218750 0.315625 0.000000
0.285000 0.315625 0.000000
0.351250 0.315625 0.000000
0.417500 0.315625 0.000000
0.483750 0.315625 0.000000
0.550000 0.315625 0.000000
0.616250 0.315625 0.000000
0.682500 0.315625 0.000000
0.748750 0.315625 0.000000
0.815000 0.315625 0.000000
0.881250 0.315625 0.000000
0.947500 0.315625 0.000000
1.000000 0.315625 0.000000
1.000000 0.315625 0.000000
0.020000 0.378750 0.000000
0.086250 0.378750 0.000000
0.152500 0.378750 0.000000
0.218750 0.378750 0.000000
0.285000 0.378750 0.000000
0.351250 0.378750 0.000000
0.417500 0.378750 0.000000
0.483750 0.378750 0.000000
0.550000 0.378750 0.000000
0.616250 0.378750 0.000000
0.682500 0.378750 0.000000
0.748750 0.378750 0.000000
0.815000 0.378750 0.000000
0.881250 0.378750 0.000000
0.947500 0.378750 0.000000
1.000000 0.378750 0.000000
1.000000 0.378750 0.000000
0.020000 0.441875 0.000000
0.086250 0.441875 0.000000
0.152500 0.441875 0.000000
0.218750 0.441875 0.000000
0.285000 0.441875 0.000000
0.351250 0.441875 0.000000
0.417500 0.441875 0.000000
0.483750 0.441875 0.000000
0.550000 0.441875 0.000000
0.616250 0.441875 0.000000
0.682500 0.441875 0.000000
0.748750 0.441875 0.000000
0.815000 0.441875 0.000000
0.881250 0.441875 0.000000
0.947500 0.441875 0.000000
1.000000 0.441875 0.000000
1.000000 0.441875 0.000000
0.020000 0.505000 0.000000
0.086250 0.505000 0.000000
0.152500 0.505000 0.000000
0.218750 0.505000 0.000000
0.285000 0.505000 0.000000
0.351250 0.505000 0.000000
0.417500 0.505000 0.000000
0.483750 0.505000 0.000000
0.550000 0.505000 0.000000
0.616250 0.505000 0.000000
0.682500 0.505000 0.000000
0.748750 0.505000 0.000000
0.815000 0.505000 0.000000
0.881250 0.505000 0.000000
0.947500 0.505000 0.000000
1.000000 0.505000 0.000000
1.000000 0.505000 0.000000
0.020000 0.568125 0.000000
0.086250 0.568125 0.000000
0.152500 0.568125 0.000000
0.218750 0.568125 0.000000
0.285000 0.568125 0.000000
0.351250 0.568125 0.000000
0.417500 0.568125 0.000000
0.483750 0.568125 0.000000
0.550000 0.568125 0.000000
0.616250 0.568125 0.000000
0.682500 0.568125 0.000000
0.748750 0.568125 0.000000
0.815000 0.568125 0.000000
0.881250 0.568125 0.000000
0.947500 0.568125 0.000000
1.000000 0.568125 0.000000
1.000000 0.568125 0.000000
0.020000 0.631250 0.000000
0.086250 0.631250 0.000000
0.152500 0.631250 0.000000
0.218750 0.631250 0.000000
0.285000 0.631250 0.000000
0.351250 0.631250 0.000000
0.417500 0.631250 0.000000
0.483750 0.631250 0.000000
0.550000 0.631250 0.000000
0.616250 0.631250 0.000000
0.682500 0.631250 0.000000
0.748750 0.631250 0.000000
0.815000 0.631250 0.000000
0.881250 0.631250 0.000000
0.947500 0.631250 0.000000
1.000000 0.631250 0.000000
1.000000 0.631250 0.000000
0.020000 0.694375 0.000000
0.086250 0.694375 0.000000
0.152500 0.694375 0.000000
0.218750 0.694375 0.000000
0.285000 0.694375 0.000000
0.351250 0.694375 0.000000
0.417500 0.694375 0.000000
0.483750 0.694375 0.000000
0.550000 0.694375 0.000000
0.616250 0.694375 0.000000
0.682500 0.694375 0.000000
0.748750 0.694375 0.000000
0.815000 0.694375 0.000000
0.881250 0.694375 0.000000
0.947500 0.694375 0.000000
1.000000 0.694375 0.000000
1.000000 0.694375 0.000000
0.020000 0.757500 0.000000
0.086250 0.757500 0.000000
0.152500 0.757500 0.000000
0.218750 0.757500 0.000000
0.285000 0.757500 0.000000
0.351250 0.757500 0.000000
0.417500 0.757500 0.000000
0.483750 0.757500 0.000000
0.550000 0.757500 0.000000
0.616250 0.757500 0.000000
0.682500 0.757500 0.000000
0.748750 0.757500 0.000000
0.815000 0.757500 0.000000
0.881250 0.757500 0.000000
0.947500 0.757500 0.000000
1.000000 0.757500 0.000000
1.000000 0.757500 0.000000
0.020000 0.820625 0.000000
0.086250 0.820625 0.000000
0.152500 0.820625 0.000000
0.218750 0.820625 0.000000
0.285000 0.820625 0.000000
0.351250 0.820625 0.000000
0.417500 0.820625 0.000000
0.483750 0.820625 0.000000
0.550000 0.820625 0.000000
0.616250 0.820625 0.000000
0.682500 0.820625 0.000000
0.748750 0.820625 0.000000
0.815000 0.820625 0.000000
0.881250 0.820625 0.000000
0.947500 0.820625 0.000000
1.000000 0.820625 0.000000
1.000000 0.820625 0.000000
0.020000 0.883750 0.000000
0.086250 0.883750 0.000000
0.152500 0.883750 0.000000
0.218750 0.883750 0.000000
0.285000 0.883750 0.000000
0.351250 0.883750 0.000000
0.417500 0.883750 0.000000
0.483750 0.883750 0.000000
0.550000 0.883750 0.000000
0.616250 0.883750 0.000000
0.682500 0.883750 0.000000
0.748750 0.883750 0.000000
0.815000 0.883750 0.000000
0.881250 0.883750 0.000000
0.947500 0.883750 0.000000
1.000000 0.883750 0.000000
1.000000 0.883750 0.000000
0.020000 0.946875 0.000000
0.086250 0.946875 0.000000
0.152500 0.946875 0.000000
0.218750 0.946875 0.000000
0.285000 0.946875 0.000000
0.351250 0.946875 0.000000
0.417500 0.946875 0.000000
0.483750 0.946875 0.000000
0.550000 0.946875 0.000000
0.616250 0.946875 0.000000
0.682500 0.946875 0.000000
0.748750 0.946875 0.000000
0.815000 0.946875 0.000000
0.881250 0.946875 0.000000
0.947500 0.946875 0.000000
1.000000 0.946875 0.000000
1.000000 0.946875 0.000000
0.020000 1.000000 0.000000
0.086250 1.000000 0.000000
0.152500 1.000000 0.000000
0.218750 1.000000 0.000000
0.285000 1.000000 0.000000
0.351250 1.000000 0.000000
0.417500 1.000000 0.000000
0.483750 1.000000 0.000000
0.550000 1.000000 0.000000
0.616250 1.000000 0.000000
0.682500 1.000000 0.000000
0.748750 1.000000 0.000000
0.815000 1.000000 0.000000
0.881250 1.000000 0.000000
0.947500 1.000000 0.000000
1.000000 1.000000 0.000000
1.000000 1.000000 0.000000
0.020000 0.000000 0.057500
0.086250 0.000000 0.057500
0.152500 0.000000 0.057500
0.218750 0.000000 0.057500
0.285000 0.000000 0.057500
0.351250 0.000000 0.057500
0.417500 0.000000 0.057500
0.483750 0.000000 0.057500
0.550000 0.000000 0.057500
0.616250 0.000000 0.057500
0.682500 0.000000 0.057500
0.748750 0.000000 0.057500
0.815000 0.000000 0.057500
0.881250 0.000000 0.057500
0.947500 0.000000 0.057500
1.000000 0.000000 0.057500
1.000000 0.000000 0.057500
0.020000 0.063125 0.057500
0.086250 0.063125 0.057500
0.152500 0.063125 0.057500
0.218750 0.063125 0.057500
0.285000 0.063125 0.057500
0.351250 0.063125 0.057500
0.417500 0.063125 0.057500
0.483750 0.063125 0.057500
0.550000 0.063125 0.057500
0.616250 0.063125 0.057500
0.682500 0.063125 0.057500
0.748750 0.063125 0.057500
0.815000 0.063125 0.057500
0.881250 0.063125 0.057500
0.947500 0.063125 0.057500
1.000000 0.063125 0.057500
1.000000 0.063125 0.057500
0.020000 0.126250 0.057500
0.086250 0.126250 0.057500
0.152500 0.126250 0.057500
0.218750 0.126250 0.057500
0.285000 0.126250 0.057500
0.351250 0.126250 0.057500
0.417500 0.126250 0.057500
0.483750 0.126250 0.057500
0.550000 0.126250 0.057500
0.616250 0.126250 0.057500
0.682500 0.126250 0.057500
0.748750 0.126250 0.057500
0.815000 0.126250 0.057500
0.881250 0.126250 0.057500
0.947500 0.126250 0.057500
1.000000 0.126250 0.057500
1.000000 0.126250 0.057500
0.020000 0.189375 0.057500
0.086250 0.189375 0.057500
0.152500 0.189375 0.057500
0.218750 0.189375 0.057500
0.285000 0.189375 0.057500
0.351250 0.189375 0.057500
0.417500 0.189375 0.057500
0.483750 0.189375 0.057500
0.550000 0.189375 0.057500
0.616250 0.189375 0.057500
0.682500 0.189375 0.057500
0.748750 0.189375 0.057500
0.815000 0.189375 0.057500
0.881250 0.189375 0.057500
0.947500 0.189375 0.057500
1.000000 0.189375 0.057500
1.000000 0.189375 0.057500
0.020000 0.252500 0.057500
0.086250 0.252500 0.057500
0.152500 0.252500 0.057500
0.218750 0.252500 0.057500
0.285000 0.252500 0.057500
0.351250 0.252500 0.057500
0.417500 0.252500 0.057500
0.483750 0.252500 0.057500
0.550000 0.252500 0.057500
0.616250 0.252500 0.057500
0.682500 0.252500 0.057500
0.748750 0.252500 0.057500
0.815000 0.252500 0.057500
0.881250 0.252500 0.057500
0.947500 0.252500 0.057500
1.000000 0.252500 0.057500
1.000000 0.252500 0.057500
0.020000 0.315625 0.057500
0.086250 0.315625 0.057500
0.152500 0.315625 0.057500
0.218750 0.315625 0.057500
0.285000 0.315625 0.057500
0.351250 0.315625 0.057500
0.417500 0.315625 0.057500
0.483750 0.315625 0.057500
0.550000 0.315625 0.057500
0.616250 0.315625 0.057500
0.682500 0.315625 0.057500
0.748750 0.315625 0.057500
0.815000 0.315625 0.057500
0.881250 0.315625 0.057500
0.947500 0.315625 0.057500
1.000000 0.315625 0.057500
1.000000 0.315625 0.057500
0.020000 0.378750 0.057500
0.086250 0.378750 0.057500
0.152500 0.378750 0.057500
0.218750 0.378750 0.057500
0.285000 0.378750 0.057500
0.351250 0.378750 0.057500
0.417500 0.378750 0.057500
0.483750 0.378750 0.057500
0.550000 0.378750 0.057500
0.616250 0.378750 0.057500
0.682500 0.378750 0.057500
0.748750 0.378750 0.057500
0.815000 0.378750 0.057500
0.881250 0.378750 0.057500
0.947500 0.378750 0.057500
1.000000 0.378750 0.057500
1.000000 0.378750 0.057500
0.020000 0.441875 0.057500
0.086250 0.441875 0.057500
0.152500 0.441875 0.057500
0.218750 0.441875 0.057500
0.285000 0.441875 0.057500
0.351250 0.441875 0.057500
0.417500 0.441875 0.057500
0.483750 0.441875 0.057500
0.550000 0.441875 0.057500
0.616250 0.441875 0.057500
0.682500 0.441875 0.057500
0.748750 0.441875 0.057500
0.815000 0.441875 0.057500
0.881250 0.441875 0.057500
0.947500 0.441875 0.057500
1.000000 0.441875 0.057500
1.000000 0.441875 0.057500
0.020000 0.505000 0.057500
0.086250 0.505000 0.057500
0.152500 0.505000 0.057500
0.218750 0.505000 0.057500
0.285000 0.505000 0.057500
0.351250 0.505000 0.057500
0.417500 0.505000 0.057500
0.483750 0.505000 0.057500
0.550000 0.505000 0.057500
0.616250 0.505000 0.057500
0.682500 0.505000 0.057500
0.748750 0.505000 0.057500
0.815000 0.505000 0.057500
0.881250 0.505000 0.057500
0.947500 0.505000 0.057500
1.000000 0.505000 0.057500
1.000000 0.505000 0.057500
0.020000 0.568125 0.057500
0.086250 0.568125 0.057500
0.152500 0.568125 0.057500
0.218750 0.568125 0.057500
0.285000 0.568125 0.057500
0.351250 0.568125 0.057500
0.417500 0.568125 0.057500
0.483750 0.568125 0.057500
0.550000 0.568125 0.057500
0.616250 0.568125 0.057500
0.682500 0.568125 0.057500
0.748750 0.568125 0.057500
0.815000 0.568125 0.057500
0.881250 0.568125 0.057500
0.947500 0.568125 0.057500
1.000000 0.568125 0.057500
1.000000 0.568125 0.057500
0.020000 0.631250 0.057500
0.086250 0.631250 0.057500
0.152500 0.631250 0.057500
0.218750 0.631250 0.057500
0.285000 0.631250 0.057500
0.351250 0.631250 0.057500
0.417500 0.631250 0.057500
0.483750 0.631250 0.057500
0.550000 0.631250 0.057500
0.616250 0.631250 0.057500
0.682500 0.631250 0.057500
0.748750 0.631250 0.057500
0.815000 0.631250 0.057500
0.881250 0.631250 0.057500
0.947500 0.631250 0.057500
1.000000 0.631250 0.057500
1.000000 0.631250 0.057500
0.020000 0.694375 0.057500
0.086250 0.694375 0.057500
0.152500 0.694375 0.057500
0.218750 0.694375 0.057500
0.285000 0.694375 0.057500
0.351250 0.694375 0.057500
0.417500 0.694375 0.057500
0.483750 0.694375 0.057500
0.550000 0.694375 0.057500
0.616250 0.694375 0.057500
0.682500 0.694375 0.057500
0.748750 0.694375 0.057500
0.815000 0.694375 0.057500
0.881250 0.694375 0.057500
0.947500 0.694375 0.057500
1.000000 0.694375 0.057500
1.000000 0.694375 0.057500
0.020000 0.757500 0.057500
0.086250 0.757500 0.057500
0.152500 0.757500 0.057500
0.218750 0.757500 0.057500
0.285000 0.757500 0.057500
0.351250 0.757500 0.057500
0.417500 0.757500 0.057500
0.483750 0.757500 0.057500
0.550000 0.757500 0.057500
0.616250 0.757500 0.057500
0.682500 0.757500 0.057500
0.748750 0.757500 0.057500
0.815000 0.757500 0.057500
0.881250 0.757500 0.057500
0.947500 0.757500 0.057500
1.000000 0.757500 0.057500
1.000000 0.757500 0.057500
0.020000 0.820625 0.057500
0.086250 0.820625 0.057500
0.152500 0.820625 0.057500
0.218750 0.820625 0.057500
0.285000 0.820625 0.057500
0.351250 0.820625 0.057500
0.417500 0.820625 0.057500
0.483750 0.820625 0.057500
0.550000 0.820625 0.057500
0.616250 0.820625 0.057500
0.682500 0.820625 0.057500
0.748750 0.820625 0.057500
0.815000 0.820625 0.057500
0.881250 0.820625 0.057500
0.947500 0.820625 0.057500
1.000000 0.820625 0.057500
1.000000 0.820625 0.057500
0.020000 0.883750 0.057500
0.086250 0.883750 0.057500
0.152500 0.883750 0.057500
0.218750 0.883750 0.057500
0.285000 0.883750 0.057500
0.351250 0.883750 0.057500
0.417500 0.883750 0.057500
0.483750 0.883750 0.057500
0.550000 0.883750 0.057500
0.616250 0.883750 0.057500
0.682500 0.883750 0.057500
0.748750 0.883750 0.057500
0.815000 0.883750 0.057500
0.881250 0.883750 0.057500
0.947500 0.883750 0.057500
1.000000 0.883750 0.057500
1.000000 0.883750 0.057500
0.020000 0.946875 0.057500
0.086250 0.946875 0.057500
0.152500 0.946875 0.057500
0.218750 0.946875 0.057500
0.285000 0.946875 0.057500
0.351250 0.946875 0.057500
0.417500 0.946875 0.057500
0.483750 0.946875 0.057500
0.550000 0.946875 0.057500
0.616250 0.946875 0.057500
0.682500 0.946875 0.057500
0.748750 0.946875 0.057500
0.815000 0.946875 0.057500
0.881250 0.946875 0.057500
0.947500 0.946875 0.057500
1.000000 0.946875 0.057500
1.000000 0.946875 0.057500
0.020000 1.000000 0.057500
0.086250 1.000000 0.057500
0.152500 1.000000 0.057500
0.218750 1.000000 0.057500
0.285000 1.000000 0.057500
0.351250 1.000000 0.057500
0.417500 1.000000 0.057500
0.483750 1.000000 0.057500
0.550000 1.000000 0.057500
0.616250 1.000000 0.057500
0.682500 1.000000 0.057500
0.748750 1.000000 0.057500
0.815000 1.000000 0.057500
0.881250 1.000000 0.057500
0.947500 1.000000 0.057500
1.000000 1.000000 0.057500
1.000000 1.000000 0.057500
0.020000 0.000000 0.115000
0.086250 0.000000 0.115000
0.152500 0.000000 0.115000
0.218750 0.000000 0.115000
0.285000 0.000000 0.115000
0.351250 0.000000 0.115000
0.417500 0.000000 0.115000
0.483750 0.000000 0.115000
0.550000 0.000000 0.115000
0.616250 0.000000 0.115000
0.682500 0.000000 0.115000
0.748750 0.000000 0.115000
0.815000 0.000000 0.115000
0.881250 0.000000 0.115000
0.947500 0.000000 0.115000
1.000000 0.000000 0.115000
1.000000 0.000000 0.115000
0.020000 0.063125 0.115000
0.086250 0.063125 0.115000
0.152500 0.063125 0.115000
0.218750 0.063125 0.115000
0.285000 0.063125 0.115000
0.351250 0.063125 0.115000
0.417500 0.063125 0.115000
0.483750 0.063125 0.115000
0.550000 0.063125 0.115000
0.616250 0.063125 0.115000
0.682500 0.063125 0.115000
0.748750 0.063125 0.115000
0.815000 0.063125 0.115000
0.881250 0.063125 0.115000
0.947500 0.063125 0.115000
1.000000 0.063125 0.115000
1.000000 0.063125 0.115000
0.020000 0.126250 0.115000
0.086250 0.126250 0.115000
0.152500 0.126250 0.115000
0.218750 0.126250 0.115000
0.285000 0.126250 0.115000
0.351250 0.126250 0.115000
0.417500 0.126250 0.115000
0.483750 0.126250 0.115000
0.550000 0.126250 0.115000
0.616250 0.126250 0.115000
0.682500 0.126250 0.115000
0.748750 0.126250 0.115000
0.815000 0.126250 0.115000
0.881250 0.126250 0.115000
0.947500 0.126250 0.115000
1.000000 0.126250 0.115000
1.000000 0.126250 0.115000
0.020000 0.189375 0.115000
0.086250 0.189375 0.115000
0.152500 0.189375 0.115000
0.218750 0.189375 0.115000
0.285000 0.189375 0.115000
0.351250 0.189375 0.115000
0.417500 0.189375 0.115000
0.483750 0.189375 0.115000
0.550000 0.189375 0.115000
0.616250 0.189375 0.115000
0.682500 0.189375 0.115000
0.748750 0.189375 0.115000
0.815000 0.189375 0.115000
0.881250 0.189375 0.115000
0.947500 0.189375 0.115000
1.000000 0.189375 0.115000
1.000000 0.189375 0.115000
0.020000 0.252500 0.115000
0.086250 0.252500 0.115000
0.152500 0.252500 0.115000
0.218750 0.252500 0.115000
0.285000 0.252500 0.115000
0.351250 0.252500 0.115000
0.417500 0.252500 0.115000
0.483750 0.252500 0.115000
0.550000 0.252500 0.115000
0.616250 0.252500 0.115000
0.682500 0.252500 0.115000
0.748750 0.252500 0.115000
0.815000 0.252500 0.115000
0.881250 0.252500 0.115000
0.947500 0.252500 0.115000
1.000000 0.252500 0.115000
1.000000 0.252500 0.115000
0.020000 0.315625 0.115000
0.086250 0.315625 0.115000
0.152500 0.315625 0.115000
0.218750 0.315625 0.115000
0.285000 0.315625 0.115000
0.351250 0.315625 0.115000
0.417500 0.315625 0.115000
0.483750 0.315625 0.115000
0.550000 0.315625 0.115000
0.616250 0.315625 0.115000
0.682500 0.315625 0.115000
0.748750 0.315625 0.115000
0.815000 0.315625 0.115000
0.881250 0.315625 0.115000
0.947500 0.315625 0.115000
1.000000 0.315625 0.115000
1.000000 0.315625 0.115000
0.020000 0.378750 0.115000
0.086250 0.378750 0.115000
0.152500 0.378750 0.115000
0.218750 0.378750 0.115000
0.285000 0.378750 0.115000
0.351250 0.378750 0.115000
0.417500 0.378750 0.115000
0.483750 0.378750 0.115000
0.550000 0.378750 0.115000
0.616250 0.378750 0.115000
0.682500 0.378750 0.115000
0.748750 0.378750 0.115000
0.815000 0.378750 0.115000
0.881250 0.378750 0.115000
0.947500 0.378750 0.115000
1.000000 0.378750 0.115000
1.000000 0.378750 0.115000
0.020000 0.441875 0.115000
0.086250 0.441875 0.115000
0.152500 0.441875 0.115000
0.218750 0.441875 0.115000
0.285000 0.441875 0.115000
0.351250 0.441875 0.115000
0.417500 0.441875 0.115000
0.483750 0.441875 0.115000
0.550000 0.441875 0.115000
0.616250 0.441875 0.115000
0.682500 0.441875 0.115000
0.748750 0.441875 0.115000
0.815000 0.441875 0.115000
0.881250 0.441875 0.115000
0.947500 0.441875 0.115000
1.000000 0.441875 0.115000
1.000000 0.441875 0.115000
0.020000 0.505000 0.115000
0.086250 0.505000 0.115000
0.152500 0.505000 0.115000
0.218750 0.505000 0.115000
0.285000 0.505000 0.115000
0.351250 0.505000 0.115000
0.417500 0.505000 0.115000
0.483750 0.505000 0.115000
0.550000 0.505000 0.115000
0.616250 0.505000 0.115000
0.682500 0.505000 0.115000
0.748750 0.505000 0.115000
0.815000 0.505000 0.115000
0.881250 0.505000 0.115000
0.947500 0.505000 0.115000
1.000000 0.505000 0.115000
1.000000 0.505000 0.115000
0.020000 0.568125 0.115000
0.086250 0.568125 0.115000
0.152500 0.568125 0.115000
0.218750 0.568125 0.115000
0.285000 0.568125 0.115000
0.351250 0.568125 0.115000
0.417500 0.568125 0.115000
0.483750 0.568125 0.115000
0.550000 0.568125 0.115000
0.616250 0.568125 0.115000
0.682500 0.568125 0.115000
0.748750 0.568125 0.115000
0.815000 0.568125 0.115000
0.881250 0.568125 0.115000
0.947500 0.568125 0.115000
1.000000 0.568125 0.115000
1.000000 0.568125 0.115000
0.020000 0.631250 0.115000
0.086250 0.631250 0.115000
0.152500 0.631250 0.115000
0.218750 0.631250 0.115000
0.285000 0.631250 0.115000
0.351250 0.631250 0.115000
0.417500 0.631250 0.115000
0.483750 0.631250 0.115000
0.550000 0.631250 0.115000
0.616250 0.631250 0.115000
0.682500 0.631250 0.115000
0.748750 0.631250 0.115000
0.815000 0.631250 0.115000
0.881250 0.631250 0.115000
0.947500 0.631250 0.115000
1.000000 0.631250 0.115000
1.000000 0.631250 0.115000
0.020000 0.694375 0.115000
0.086250 0.694375 0.115000
0.152500 0.694375 0.115000
0.218750 0.694375 0.115000
0.285000 0.694375 0.115000
0.351250 0.694375 0.115000
0.417500 0.694375 0.115000
0.483750 0.694375 0.115000
0.550000 0.694375 0.115000
0.616250 0.694375 0.115000
0.682500 0.694375 0.115000
0.748750 0.694375 0.115000
0.815000 0.694375 0.115000
0.881250 0.694375 0.115000
0.947500 0.694375 0.115000
1.000000 0.694375 0.115000
1.000000 0.694375 0.115000
0.020000 0.757500 0.115000
0.086250 0.757500 0.115000
0.152500 0.757500 0.115000
0.218750 0.757500 0.115000
0.285000 0.757500 0.115000
0.351250 0.757500 0.115000
0.417500 0.757500 0.115000
0.483750 0.757500 0.115000
0.550000 0.757500 0.115000
0.616250 0.757500 0.115000
0.682500 0.757500 0.115000
0.748750 0.757500 0.115000
0.815000 0.757500 0.115000
0.881250 0.757500 0.115000
0.947500 0.757500 0.115000
1.000000 0.757500 0.115000
1.000000 0.757500 0.115000
0.020000 0.820625 0.115000
0.086250 0.820625 0.115000
0.152500 0.820625 0.115000
0.218750 0.820625 0.115000
0.285000 0.820625 0.115000
0.351250 0.820625 0.115000
0.417500 0.820625 0.115000
0.483750 0.820625 0.115000
0.550000 0.820625 0.115000
0.616250 0.820625 0.115000
0.682500 0.820625 0.115000
0.748750 0.820625 0.115000
0.815000 0.820625 0.115000
0.881250 0.820625 0.115000
0.947500 0.820625 0.115000
1.000000 0.820625 0.115000
1.000000 0.820625 0.115000
0.020000 0.883750 0.115000
0.086250 0.883750 0.115000
0.152500 0.883750 0.115000
0.218750 0.883750 0.115000
0.285000 0.883750 0.115000
0.351250 0.883750 0.115000
0.417500 0.883750 0.115000
0.483750 0.883750 0.115000
0.550000 0.883750 0.115000
0.616250 0.883750 0.115000
0.682500 0.883750 0.115000
0.748750 0.883750 0.115000
0.815000 0.883750 0.115000
0.881250 0.883750 0.115000
0.947500 0.883750 0.115000
1.000000 0.883750 0.115000
1.000000 0.883750 0.115000
0.020000 0.946875 0.115000
0.086250 0.946875 0.115000
0.152500 0.946875 0.115000
0.218750 0.946875 0.115000
0.285000 0.946875 0.115000
0.351250 0.946875 0.115000
0.417500 0.946875 0.115000
0.483750 0.946875 0.115000
0.550000 0.946875 0.115000
0.616250 0.946875 0.115000
0.682500 0.946875 0.115000
0.748750 0.946875 0.115000
0.815000 0.946875 0.115000
0.881250 0.946875 0.115000
0.947500 0.946875 0.115000
1.000000 0.946875 0.115000
1.000000 0.946875 0.115000
0.020000 1.000000 0.115000
0.086250 1.000000 0.115000
0.152500 1.000000 0.115000
0.218750 1.000000 0.115000
0.285000 1.000000 0.115000
0.351250 1.000000 0.115000
0.417500 1.000000 0.115000
0.483750 1.000000 0.115000
0.550000 1.000000 0.115000
0.616250 1.000000 0.115000
0.682500 1.000000 0.115000
0.748750 1.000000 0.115000
0.815000 1.000000 0.115000
0.881250 1.000000 0.115000
0.947500 1.000000 0.115000
1.000000 1.000000 0.115000
1.000000 1.000000 0.115000
0.020000 0.000000 0.172500
0.086250 0.000000 0.172500
0.152500 0.000000 0.172500
0.218750 0.000000 0.172500
0.285000 0.000000 0.172500
0.351250 0.000000 0.172500
0.417500 0.000000 0.172500
0.483750 0.000000 0.172500
0.550000 0.000000 0.172500
0.616250 0.000000 0.172500
0.682500 0.000000 0.172500
0.748750 0.000000 0.172500
0.815000 0.000000 0.172500
0.881250 0.000000 0.172500
0.947500 0.000000 0.172500
1.000000 0.000000 0.172500
1.000000 0.000000 0.172500
0.020000 0.063125 0.172500
0.086250 0.063125 0.172500
