public/luts/warm-film.cube
# Recut LookBook — warm-film
LUT_3D_SIZE 9
DOMAIN_MIN 0 0 0
DOMAIN_MAX 1 1 1
0.020000 0.000000 0.000000
0.152500 0.000000 0.000000
0.285000 0.000000 0.000000
0.417500 0.000000 0.000000
0.550000 0.000000 0.000000
0.682500 0.000000 0.000000
0.815000 0.000000 0.000000
0.947500 0.000000 0.000000
1.000000 0.000000 0.000000
0.020000 0.126250 0.000000
0.152500 0.126250 0.000000
0.285000 0.126250 0.000000
0.417500 0.126250 0.000000
0.550000 0.126250 0.000000
0.682500 0.126250 0.000000
0.815000 0.126250 0.000000
0.947500 0.126250 0.000000
1.000000 0.126250 0.000000
0.020000 0.252500 0.000000
0.152500 0.252500 0.000000
0.285000 0.252500 0.000000
0.417500 0.252500 0.000000
0.550000 0.252500 0.000000
0.682500 0.252500 0.000000
0.815000 0.252500 0.000000
0.947500 0.252500 0.000000
1.000000 0.252500 0.000000
0.020000 0.378750 0.000000
0.152500 0.378750 0.000000
0.285000 0.378750 0.000000
0.417500 0.378750 0.000000
0.550000 0.378750 0.000000
0.682500 0.378750 0.000000
0.815000 0.378750 0.000000
0.947500 0.378750 0.000000
1.000000 0.378750 0.000000
0.020000 0.505000 0.000000
0.152500 0.505000 0.000000
0.285000 0.505000 0.000000
0.417500 0.505000 0.000000
0.550000 0.505000 0.000000
0.682500 0.505000 0.000000
0.815000 0.505000 0.000000
0.947500 0.505000 0.000000
1.000000 0.505000 0.000000
0.020000 0.631250 0.000000
0.152500 0.631250 0.000000
0.285000 0.631250 0.000000
0.417500 0.631250 0.000000
0.550000 0.631250 0.000000
0.682500 0.631250 0.000000
0.815000 0.631250 0.000000
0.947500 0.631250 0.000000
1.000000 0.631250 0.000000
0.020000 0.757500 0.000000
0.152500 0.757500 0.000000
0.285000 0.757500 0.000000
0.417500 0.757500 0.000000
0.550000 0.757500 0.000000
0.682500 0.757500 0.000000
0.815000 0.757500 0.000000
0.947500 0.757500 0.000000
1.000000 0.757500 0.000000
0.020000 0.883750 0.000000
0.152500 0.883750 0.000000
0.285000 0.883750 0.000000
0.417500 0.883750 0.000000
0.550000 0.883750 0.000000
0.682500 0.883750 0.000000
0.815000 0.883750 0.000000
0.947500 0.883750 0.000000
1.000000 0.883750 0.000000
0.020000 1.000000 0.000000
0.152500 1.000000 0.000000
0.285000 1.000000 0.000000
0.417500 1.000000 0.000000
0.550000 1.000000 0.000000
0.682500 1.000000 0.000000
0.815000 1.000000 0.000000
0.947500 1.000000 0.000000
1.000000 1.000000 0.000000
0.020000 0.000000 0.115000
0.152500 0.000000 0.115000
0.285000 0.000000 0.115000
0.417500 0.000000 0.115000
0.550000 0.000000 0.115000
0.682500 0.000000 0.115000
0.815000 0.000000 0.115000
0.947500 0.000000 0.115000
1.000000 0.000000 0.115000
0.020000 0.126250 0.115000
0.152500 0.126250 0.115000
0.285000 0.126250 0.115000
0.417500 0.126250 0.115000
0.550000 0.126250 0.115000
0.682500 0.126250 0.115000
0.815000 0.126250 0.115000
0.947500 0.126250 0.115000
1.000000 0.126250 0.115000
0.020000 0.252500 0.115000
0.152500 0.252500 0.115000
0.285000 0.252500 0.115000
0.417500 0.252500 0.115000
0.550000 0.252500 0.115000
0.682500 0.252500 0.115000
0.815000 0.252500 0.115000
0.947500 0.252500 0.115000
1.000000 0.252500 0.115000
0.020000 0.378750 0.115000
0.152500 0.378750 0.115000
0.285000 0.378750 0.115000
0.417500 0.378750 0.115000
0.550000 0.378750 0.115000
0.682500 0.378750 0.115000
0.815000 0.378750 0.115000
0.947500 0.378750 0.115000
1.000000 0.378750 0.115000
0.020000 0.505000 0.115000
0.152500 0.505000 0.115000
0.285000 0.505000 0.115000
0.417500 0.505000 0.115000
0.550000 0.505000 0.115000
0.682500 0.505000 0.115000
0.815000 0.505000 0.115000
0.947500 0.505000 0.115000
1.000000 0.505000 0.115000
0.020000 0.631250 0.115000
0.152500 0.631250 0.115000
0.285000 0.631250 0.115000
0.417500 0.631250 0.115000
0.550000 0.631250 0.115000
0.682500 0.631250 0.115000
0.815000 0.631250 0.115000
0.947500 0.631250 0.115000
1.000000 0.631250 0.115000
0.020000 0.757500 0.115000
0.152500 0.757500 0.115000
0.285000 0.757500 0.115000
0.417500 0.757500 0.115000
0.550000 0.757500 0.115000
0.682500 0.757500 0.115000
0.815000 0.757500 0.115000
0.947500 0.757500 0.115000
1.000000 0.757500 0.115000
0.020000 0.883750 0.115000
0.152500 0.883750 0.115000
0.285000 0.883750 0.115000
0.417500 0.883750 0.115000
0.550000 0.883750 0.115000
0.682500 0.883750 0.115000
0.815000 0.883750 0.115000
0.947500 0.883750 0.115000
1.000000 0.883750 0.115000
0.020000 1.000000 0.115000
0.152500 1.000000 0.115000
0.285000 1.000000 0.115000
0.417500 1.000000 0.115000
0.550000 1.000000 0.115000
0.682500 1.000000 0.115000
0.815000 1.000000 0.115000
0.947500 1.000000 0.115000
1.000000 1.000000 0.115000
0.020000 0.000000 0.230000
0.152500 0.000000 0.230000
0.285000 0.000000 0.230000
0.417500 0.000000 0.230000
0.550000 0.000000 0.230000
0.682500 0.000000 0.230000
0.815000 0.000000 0.230000
0.947500 0.000000 0.230000
1.000000 0.000000 0.230000
0.020000 0.126250 0.230000
0.152500 0.126250 0.230000
0.285000 0.126250 0.230000
0.417500 0.126250 0.230000
0.550000 0.126250 0.230000
0.682500 0.126250 0.230000
0.815000 0.126250 0.230000
0.947500 0.126250 0.230000
1.000000 0.126250 0.230000
0.020000 0.252500 0.230000
0.152500 0.252500 0.230000
0.285000 0.252500 0.230000
0.417500 0.252500 0.230000
0.550000 0.252500 0.230000
0.682500 0.252500 0.230000
0.815000 0.252500 0.230000
0.947500 0.252500 0.230000
1.000000 0.252500 0.230000
0.020000 0.378750 0.230000
0.152500 0.378750 0.230000
0.285000 0.378750 0.230000
0.417500 0.378750 0.230000
0.550000 0.378750 0.230000
0.682500 0.378750 0.230000
0.815000 0.378750 0.230000
0.947500 0.378750 0.230000
1.000000 0.378750 0.230000
0.020000 0.505000 0.230000
0.152500 0.505000 0.230000
0.285000 0.505000 0.230000
0.417500 0.505000 0.230000
0.550000 0.505000 0.230000
0.682500 0.505000 0.230000
0.815000 0.505000 0.230000
0.947500 0.505000 0.230000
1.000000 0.505000 0.230000
0.020000 0.631250 0.230000
0.152500 0.631250 0.230000
0.285000 0.631250 0.230000
0.417500 0.631250 0.230000
0.550000 0.631250 0.230000
0.682500 0.631250 0.230000
0.815000 0.631250 0.230000
0.947500 0.631250 0.230000
1.000000 0.631250 0.230000
0.020000 0.757500 0.230000
0.152500 0.757500 0.230000
0.285000 0.757500 0.230000
0.417500 0.757500 0.230000
0.550000 0.757500 0.230000
0.682500 0.757500 0.230000
0.815000 0.757500 0.230000
0.947500 0.757500 0.230000
1.000000 0.757500 0.230000
0.020000 0.883750 0.230000
0.152500 0.883750 0.230000
0.285000 0.883750 0.230000
0.417500 0.883750 0.230000
0.550000 0.883750 0.230000
0.682500 0.883750 0.230000
0.815000 0.883750 0.230000
0.947500 0.883750 0.230000
1.000000 0.883750 0.230000
0.020000 1.000000 0.230000
0.152500 1.000000 0.230000
0.285000 1.000000 0.230000
0.417500 1.000000 0.230000
0.550000 1.000000 0.230000
0.682500 1.000000 0.230000
0.815000 1.000000 0.230000
0.947500 1.000000 0.230000
1.000000 1.000000 0.230000
0.020000 0.000000 0.345000
0.152500 0.000000 0.345000
0.285000 0.000000 0.345000
0.417500 0.000000 0.345000
0.550000 0.000000 0.345000
0.682500 0.000000 0.345000
0.815000 0.000000 0.345000
0.947500 0.000000 0.345000
1.000000 0.000000 0.345000
0.020000 0.126250 0.345000
0.152500 0.126250 0.345000
0.285000 0.126250 0.345000
0.417500 0.126250 0.345000
0.550000 0.126250 0.345000
0.682500 0.126250 0.345000
0.815000 0.126250 0.345000
0.947500 0.126250 0.345000
1.000000 0.126250 0.345000
0.020000 0.252500 0.345000
0.152500 0.252500 0.345000
0.285000 0.252500 0.345000
0.417500 0.252500 0.345000
0.550000 0.252500 0.345000
0.682500 0.252500 0.345000
0.815000 0.252500 0.345000
0.947500 0.252500 0.345000
1.000000 0.252500 0.345000
0.020000 0.378750 0.345000
0.152500 0.378750 0.345000
0.285000 0.378750 0.345000
0.417500 0.378750 0.345000
0.550000 0.378750 0.345000
0.682500 0.378750 0.345000
0.815000 0.378750 0.345000
0.947500 0.378750 0.345000
1.000000 0.378750 0.345000
0.020000 0.505000 0.345000
0.152500 0.505000 0.345000
0.285000 0.505000 0.345000
0.417500 0.505000 0.345000
0.550000 0.505000 0.345000
0.682500 0.505000 0.345000
0.815000 0.505000 0.345000
0.947500 0.505000 0.345000
1.000000 0.505000 0.345000
0.020000 0.631250 0.345000
0.152500 0.631250 0.345000
0.285000 0.631250 0.345000
0.417500 0.631250 0.345000
0.550000 0.631250 0.345000
0.682500 0.631250 0.345000
0.815000 0.631250 0.345000
0.947500 0.631250 0.345000
1.000000 0.631250 0.345000
0.020000 0.757500 0.345000
0.152500 0.757500 0.345000
0.285000 0.757500 0.345000
0.417500 0.757500 0.345000
0.550000 0.757500 0.345000
0.682500 0.757500 0.345000
0.815000 0.757500 0.345000
0.947500 0.757500 0.345000
1.000000 0.757500 0.345000
0.020000 0.883750 0.345000
0.152500 0.883750 0.345000
0.285000 0.883750 0.345000
0.417500 0.883750 0.345000
0.550000 0.883750 0.345000
0.682500 0.883750 0.345000
0.815000 0.883750 0.345000
0.947500 0.883750 0.345000
1.000000 0.883750 0.345000
0.020000 1.000000 0.345000
0.152500 1.000000 0.345000
0.285000 1.000000 0.345000
0.417500 1.000000 0.345000
0.550000 1.000000 0.345000
0.682500 1.000000 0.345000
0.815000 1.000000 0.345000
0.947500 1.000000 0.345000
1.000000 1.000000 0.345000
0.020000 0.000000 0.460000
0.152500 0.000000 0.460000
0.285000 0.000000 0.460000
0.417500 0.000000 0.460000
0.550000 0.000000 0.460000
0.682500 0.000000 0.460000
0.815000 0.000000 0.460000
0.947500 0.000000 0.460000
1.000000 0.000000 0.460000
0.020000 0.126250 0.460000
0.152500 0.126250 0.460000
0.285000 0.126250 0.460000
0.417500 0.126250 0.460000
0.550000 0.126250 0.460000
0.682500 0.126250 0.460000
0.815000 0.126250 0.460000
0.947500 0.126250 0.460000
1.000000 0.126250 0.460000
0.020000 0.252500 0.460000
0.152500 0.252500 0.460000
0.285000 0.252500 0.460000
0.417500 0.252500 0.460000
0.550000 0.252500 0.460000
0.682500 0.252500 0.460000
0.815000 0.252500 0.460000
0.947500 0.252500 0.460000
1.000000 0.252500 0.460000
0.020000 0.378750 0.460000
0.152500 0.378750 0.460000
0.285000 0.378750 0.460000
0.417500 0.378750 0.460000
0.550000 0.378750 0.460000
0.682500 0.378750 0.460000
0.815000 0.378750 0.460000
0.947500 0.378750 0.460000
1.000000 0.378750 0.460000
0.020000 0.505000 0.460000
0.152500 0.505000 0.460000
0.285000 0.505000 0.460000
0.417500 0.505000 0.460000
0.550000 0.505000 0.460000
0.682500 0.505000 0.460000
0.815000 0.505000 0.460000
0.947500 0.505000 0.460000
1.000000 0.505000 0.460000
0.020000 0.631250 0.460000
0.152500 0.631250 0.460000
0.285000 0.631250 0.460000
0.417500 0.631250 0.460000
0.550000 0.631250 0.460000
0.682500 0.631250 0.460000
0.815000 0.631250 0.460000
0.947500 0.631250 0.460000
1.000000 0.631250 0.460000
0.020000 0.757500 0.460000
0.152500 0.757500 0.460000
0.285000 0.757500 0.460000
0.417500 0.757500 0.460000
0.550000 0.757500 0.460000
0.682500 0.757500 0.460000
0.815000 0.757500 0.460000
0.947500 0.757500 0.460000
1.000000 0.757500 0.460000
0.020000 0.883750 0.460000
0.152500 0.883750 0.460000
0.285000 0.883750 0.460000
0.417500 0.883750 0.460000
0.550000 0.883750 0.460000
0.682500 0.883750 0.460000
0.815000 0.883750 0.460000
0.947500 0.883750 0.460000
1.000000 0.883750 0.460000
0.020000 1.000000 0.460000
0.152500 1.000000 0.460000
0.285000 1.000000 0.460000
0.417500 1.000000 0.460000
0.550000 1.000000 0.460000
0.682500 1.000000 0.460000
0.815000 1.000000 0.460000
0.947500 1.000000 0.460000
1.000000 1.000000 0.460000
0.020000 0.000000 0.575000
0.152500 0.000000 0.575000
0.285000 0.000000 0.575000
0.417500 0.000000 0.575000
0.550000 0.000000 0.575000
0.682500 0.000000 0.575000
0.815000 0.000000 0.575000
0.947500 0.000000 0.575000
1.000000 0.000000 0.575000
0.020000 0.126250 0.575000
0.152500 0.126250 0.575000
0.285000 0.126250 0.575000
0.417500 0.126250 0.575000
0.550000 0.126250 0.575000
0.682500 0.126250 0.575000
0.815000 0.126250 0.575000
0.947500 0.126250 0.575000
1.000000 0.126250 0.575000
0.020000 0.252500 0.575000
0.152500 0.252500 0.575000
0.285000 0.252500 0.575000
0.417500 0.252500 0.575000
0.550000 0.252500 0.575000
0.682500 0.252500 0.575000
0.815000 0.252500 0.575000
0.947500 0.252500 0.575000
1.000000 0.252500 0.575000
0.020000 0.378750 0.575000
0.152500 0.378750 0.575000
0.285000 0.378750 0.575000
0.417500 0.378750 0.575000
0.550000 0.378750 0.575000
0.682500 0.378750 0.575000
0.815000 0.378750 0.575000
0.947500 0.378750 0.575000
1.000000 0.378750 0.575000
0.020000 0.505000 0.575000
0.152500 0.505000 0.575000
0.285000 0.505000 0.575000
0.417500 0.505000 0.575000
0.550000 0.505000 0.575000
0.682500 0.505000 0.575000
0.815000 0.505000 0.575000
0.947500 0.505000 0.575000
1.000000 0.505000 0.575000
0.020000 0.631250 0.575000
0.152500 0.631250 0.575000
0.285000 0.631250 0.575000
0.417500 0.631250 0.575000
0.550000 0.631250 0.575000
0.682500 0.631250 0.575000
0.815000 0.631250 0.575000
0.947500 0.631250 0.575000
1.000000 0.631250 0.575000
0.020000 0.757500 0.575000
0.152500 0.757500 0.575000
0.285000 0.757500 0.575000
0.417500 0.757500 0.575000
0.550000 0.757500 0.575000
0.682500 0.757500 0.575000
0.815000 0.757500 0.575000
0.947500 0.757500 0.575000
1.000000 0.757500 0.575000
0.020000 0.883750 0.575000
0.152500 0.883750 0.575000
0.285000 0.883750 0.575000
0.417500 0.883750 0.575000
0.550000 0.883750 0.575000
0.682500 0.883750 0.575000
0.815000 0.883750 0.575000
0.947500 0.883750 0.575000
1.000000 0.883750 0.575000
0.020000 1.000000 0.575000
0.152500 1.000000 0.575000
0.285000 1.000000 0.575000
0.417500 1.000000 0.575000
0.550000 1.000000 0.575000
0.682500 1.000000 0.575000
0.815000 1.000000 0.575000
0.947500 1.000000 0.575000
1.000000 1.000000 0.575000
0.020000 0.000000 0.690000
0.152500 0.000000 0.690000
0.285000 0.000000 0.690000
0.417500 0.000000 0.690000
0.550000 0.000000 0.690000
0.682500 0.000000 0.690000
0.815000 0.000000 0.690000
0.947500 0.000000 0.690000
1.000000 0.000000 0.690000
0.020000 0.126250 0.690000
0.152500 0.126250 0.690000
0.285000 0.126250 0.690000
0.417500 0.126250 0.690000
0.550000 0.126250 0.690000
0.682500 0.126250 0.690000
0.815000 0.126250 0.690000
0.947500 0.126250 0.690000
1.000000 0.126250 0.690000
0.020000 0.252500 0.690000
0.152500 0.252500 0.690000
0.285000 0.252500 0.690000
0.417500 0.252500 0.690000
0.550000 0.252500 0.690000
0.682500 0.252500 0.690000
0.815000 0.252500 0.690000
0.947500 0.252500 0.690000
1.000000 0.252500 0.690000
0.020000 0.378750 0.690000
0.152500 0.378750 0.690000
0.285000 0.378750 0.690000
0.417500 0.378750 0.690000
0.550000 0.378750 0.690000
0.682500 0.378750 0.690000
0.815000 0.378750 0.690000
0.947500 0.378750 0.690000
1.000000 0.378750 0.690000
0.020000 0.505000 0.690000
0.152500 0.505000 0.690000
0.285000 0.505000 0.690000
0.417500 0.505000 0.690000
0.550000 0.505000 0.690000
0.682500 0.505000 0.690000
0.815000 0.505000 0.690000
0.947500 0.505000 0.690000
1.000000 0.505000 0.690000
0.020000 0.631250 0.690000
0.152500 0.631250 0.690000
0.285000 0.631250 0.690000
0.417500 0.631250 0.690000
0.550000 0.631250 0.690000
0.682500 0.631250 0.690000
0.815000 0.631250 0.690000
0.947500 0.631250 0.690000
1.000000 0.631250 0.690000
0.020000 0.757500 0.690000
0.152500 0.757500 0.690000
0.285000 0.757500 0.690000
0.417500 0.757500 0.690000
0.550000 0.757500 0.690000
0.682500 0.757500 0.690000
0.815000 0.757500 0.690000
0.947500 0.757500 0.690000
1.000000 0.757500 0.690000
0.020000 0.883750 0.690000
0.152500 0.883750 0.690000
0.285000 0.883750 0.690000
0.417500 0.883750 0.690000
0.550000 0.883750 0.690000
0.682500 0.883750 0.690000
0.815000 0.883750 0.690000
0.947500 0.883750 0.690000
1.000000 0.883750 0.690000
0.020000 1.000000 0.690000
0.152500 1.000000 0.690000
0.285000 1.000000 0.690000
0.417500 1.000000 0.690000
0.550000 1.000000 0.690000
0.682500 1.000000 0.690000
0.815000 1.000000 0.690000
0.947500 1.000000 0.690000
1.000000 1.000000 0.690000
0.020000 0.000000 0.805000
0.152500 0.000000 0.805000
0.285000 0.000000 0.805000
0.417500 0.000000 0.805000
0.550000 0.000000 0.805000
0.682500 0.000000 0.805000
0.815000 0.000000 0.805000
0.947500 0.000000 0.805000
1.000000 0.000000 0.805000
0.020000 0.126250 0.805000
0.152500 0.126250 0.805000
0.285000 0.126250 0.805000
0.417500 0.126250 0.805000
0.550000 0.126250 0.805000
0.682500 0.126250 0.805000
0.815000 0.126250 0.805000
0.947500 0.126250 0.805000
1.000000 0.126250 0.805000
0.020000 0.252500 0.805000
0.152500 0.252500 0.805000
0.285000 0.252500 0.805000
0.417500 0.252500 0.805000
0.550000 0.252500 0.805000
0.682500 0.252500 0.805000
0.815000 0.252500 0.805000
0.947500 0.252500 0.805000
1.000000 0.252500 0.805000
0.020000 0.378750 0.805000
0.152500 0.378750 0.805000
0.285000 0.378750 0.805000
0.417500 0.378750 0.805000
0.550000 0.378750 0.805000
0.682500 0.378750 0.805000
0.815000 0.378750 0.805000
0.947500 0.378750 0.805000
1.000000 0.378750 0.805000
0.020000 0.505000 0.805000
0.152500 0.505000 0.805000
0.285000 0.505000 0.805000
0.417500 0.505000 0.805000
0.550000 0.505000 0.805000
0.682500 0.505000 0.805000
0.815000 0.505000 0.805000
0.947500 0.505000 0.805000
1.000000 0.505000 0.805000
0.020000 0.631250 0.805000
0.152500 0.631250 0.805000
0.285000 0.631250 0.805000
0.417500 0.631250 0.805000
0.550000 0.631250 0.805000
0.682500 0.631250 0.805000
0.815000 0.631250 0.805000
0.947500 0.631250 0.805000
1.000000 0.631250 0.805000
0.020000 0.757500 0.805000
0.152500 0.757500 0.805000
0.285000 0.757500 0.805000
0.417500 0.757500 0.805000
0.550000 0.757500 0.805000
0.682500 0.757500 0.805000
0.815000 0.757500 0.805000
0.947500 0.757500 0.805000
1.000000 0.757500 0.805000
0.020000 0.883750 0.805000
0.152500 0.883750 0.805000
0.285000 0.883750 0.805000
0.417500 0.883750 0.805000
0.550000 0.883750 0.805000
0.682500 0.883750 0.805000
0.815000 0.883750 0.805000
0.947500 0.883750 0.805000
1.000000 0.883750 0.805000
0.020000 1.000000 0.805000
0.152500 1.000000 0.805000
0.285000 1.000000 0.805000
0.417500 1.000000 0.805000
0.550000 1.000000 0.805000
0.682500 1.000000 0.805000
0.815000 1.000000 0.805000
0.947500 1.000000 0.805000
1.000000 1.000000 0.805000
0.020000 0.000000 0.920000
0.152500 0.000000 0.920000
0.285000 0.000000 0.920000
0.417500 0.000000 0.920000
0.550000 0.000000 0.920000
0.682500 0.000000 0.920000
0.815000 0.000000 0.920000
0.947500 0.000000 0.920000
1.000000 0.000000 0.920000
0.020000 0.126250 0.920000
0.152500 0.126250 0.920000
0.285000 0.126250 0.920000
0.417500 0.126250 0.920000
0.550000 0.126250 0.920000
0.682500 0.126250 0.920000
0.815000 0.126250 0.920000
0.947500 0.126250 0.920000
1.000000 0.126250 0.920000
0.020000 0.252500 0.920000
0.152500 0.252500 0.920000
0.285000 0.252500 0.920000
0.417500 0.252500 0.920000
0.550000 0.252500 0.920000
0.682500 0.252500 0.920000
0.815000 0.252500 0.920000
0.947500 0.252500 0.920000
1.000000 0.252500 0.920000
0.020000 0.378750 0.920000
0.152500 0.378750 0.920000
0.285000 0.378750 0.920000
0.417500 0.378750 0.920000
0.550000 0.378750 0.920000
0.682500 0.378750 0.920000
0.815000 0.378750 0.920000
0.947500 0.378750 0.920000
1.000000 0.378750 0.920000
0.020000 0.505000 0.920000
0.152500 0.505000 0.920000
0.285000 0.505000 0.920000
0.417500 0.505000 0.920000
0.550000 0.505000 0.920000
0.682500 0.505000 0.920000
0.815000 0.505000 0.920000
0.947500 0.505000 0.920000
1.000000 0.505000 0.920000
0.020000 0.631250 0.920000
0.152500 0.631250 0.920000
0.285000 0.631250 0.920000
0.417500 0.631250 0.920000
0.550000 0.631250 0.920000
0.682500 0.631250 0.920000
0.815000 0.631250 0.920000
0.947500 0.631250 0.920000
1.000000 0.631250 0.920000
0.020000 0.757500 0.920000
0.152500 0.757500 0.920000
0.285000 0.757500 0.920000
0.417500 0.757500 0.920000
0.550000 0.757500 0.920000
0.682500 0.757500 0.920000
0.815000 0.757500 0.920000
0.947500 0.757500 0.920000
1.000000 0.757500 0.920000
0.020000 0.883750 0.920000
0.152500 0.883750 0.920000
0.285000 0.883750 0.920000
0.417500 0.883750 0.920000
0.550000 0.883750 0.920000
0.682500 0.883750 0.920000
0.815000 0.883750 0.920000
0.947500 0.883750 0.920000
1.000000 0.883750 0.920000
0.020000 1.000000 0.920000
0.152500 1.000000 0.920000
0.285000 1.000000 0.920000
0.417500 1.000000 0.920000
0.550000 1.000000 0.920000
0.682500 1.000000 0.920000
0.815000 1.000000 0.920000
0.947500 1.000000 0.920000
1.000000 1.000000 0.920000
